;FLAVOR:RepRap
;TIME:125
;Generated with Cura_SteamEngine 2.3.1
M190 S60
M104 S200
M109 S200
G21 ;metric values
G90 ;absolute positioning
M82 ;set extruder to absolute mode
M107 ;start with the fan off
G28 X0 Y0 ;move X/Y to min endstops
G28 Z0 ;move Z to min endstops
G1 Z15.0 F9000 ;move the platform down 15mm
G92 E0 ;zero the extruded length
G1 F200 E3 ;extrude 3mm of feed stock
G92 E0 ;zero the extruded length again
G1 F9000
M117 Printing...
;LAYER_COUNT:1
;LAYER:0
M107
G1 F1500 E-6.5
G0 F6000 X7.364 Y7.567 Z.3
;TYPE:SKIRT
G1 F1500 E0
G1 F1800 X7.756 Y7.201 E0.02676
G1 X8.198 Y6.898 E0.05349
G1 X8.681 Y6.663 E0.08029
G1 X9.192 Y6.503 E0.107
G1 X9.722 Y6.42 E0.13377
G1 X10.009 Y6.409 E0.1481
G1 X19.991 Y6.41 E0.6461
G1 X20.531 Y6.451 E0.67312
G1 X25.299 Y7.174 E0.91371
G1 X30.752 Y7.712 E1.18709
G1 X36.191 Y7.941 E1.45868
G1 X41.652 Y7.86 E1.73116
G1 X47.081 Y7.473 E2.0027
G1 X52.538 Y6.771 E2.2772
G1 X54.419 Y6.458 E2.37233
G1 X55.012 Y6.409 E2.40202
G1 X65.004 Y6.411 E2.90052
G1 X65.59 Y6.459 E2.92985
G1 X67.595 Y6.79 E3.03124
G1 X73.032 Y7.483 E3.30468
G1 X78.462 Y7.864 E3.57625
G1 X83.921 Y7.939 E3.84863
G1 X89.376 Y7.704 E4.12103
G1 X94.796 Y7.163 E4.39278
G1 X99.46 Y6.451 E4.62817
G1 X100.003 Y6.41 E4.65533
G1 X109.991 Y6.409 E5.15364
G1 X110.525 Y6.449 E5.18035
G1 X111.048 Y6.568 E5.20711
G1 X111.548 Y6.763 E5.23389
G1 X112.013 Y7.03 E5.26064
G1 X112.433 Y7.364 E5.28741
G1 X112.799 Y7.756 E5.31417
G1 X113.102 Y8.198 E5.3409
G1 X113.337 Y8.68 E5.36765
G1 X113.497 Y9.192 E5.39442
G1 X113.58 Y9.722 E5.42118
G1 X113.591 Y10.01 E5.43556
G1 X113.589 Y20.004 E5.93416
G1 X113.541 Y20.59 E5.9635
G1 X113.21 Y22.595 E6.06488
G1 X112.517 Y28.032 E6.33833
G1 X112.136 Y33.454 E6.6095
G1 X112.061 Y38.923 E6.88237
G1 X112.296 Y44.376 E7.15468
G1 X112.837 Y49.793 E7.42628
G1 X113.549 Y54.455 E7.66156
G1 X113.59 Y54.999 E7.68878
G1 X113.589 Y65.003 E8.18788
G1 X113.541 Y65.59 E8.21726
G1 X113.21 Y67.595 E8.31865
G1 X112.517 Y73.032 E8.5921
G1 X112.136 Y78.462 E8.86367
G1 X112.061 Y83.923 E9.13614
G1 X112.296 Y89.376 E9.40845
G1 X112.837 Y94.793 E9.68005
G1 X113.549 Y99.455 E9.91533
G1 X113.59 Y99.999 E9.94255
G1 X113.591 Y109.991 E10.44105
G1 X113.551 Y110.525 E10.46777
G1 X113.432 Y111.048 E10.49453
G1 X113.237 Y111.548 E10.5213
G1 X112.97 Y112.013 E10.54805
G1 X112.636 Y112.433 E10.57482
G1 X112.244 Y112.799 E10.60158
G1 X111.802 Y113.102 E10.62832
G1 X111.32 Y113.337 E10.65507
G1 X110.808 Y113.497 E10.68183
G1 X110.278 Y113.58 E10.70859
G1 X109.99 Y113.591 E10.72297
G1 X99.996 Y113.589 E11.22158
G1 X99.41 Y113.541 E11.25091
G1 X97.405 Y113.21 E11.35229
G1 X91.968 Y112.517 E11.62574
G1 X86.538 Y112.136 E11.89731
G1 X81.079 Y112.061 E12.16969
G1 X75.624 Y112.296 E12.44209
G1 X70.204 Y112.837 E12.71384
G1 X65.54 Y113.549 E12.94922
G1 X64.997 Y113.59 E12.97639
G1 X55.01 Y113.59 E13.47464
G1 X54.471 Y113.549 E13.50161
G1 X49.703 Y112.826 E13.74221
G1 X44.248 Y112.288 E14.01568
G1 X38.809 Y112.059 E14.28727
G1 X33.348 Y112.14 E14.55975
G1 X27.919 Y112.527 E14.83129
G1 X22.462 Y113.229 E15.10579
G1 X20.581 Y113.542 E15.20092
G1 X19.989 Y113.591 E15.23056
G1 X10.009 Y113.591 E15.72846
G1 X9.474 Y113.551 E15.75523
G1 X8.951 Y113.432 E15.78199
G1 X8.452 Y113.237 E15.80872
G1 X7.987 Y112.969 E15.83549
G1 X7.567 Y112.636 E15.86223
G1 X7.201 Y112.244 E15.88899
G1 X6.898 Y111.802 E15.91573
G1 X6.663 Y111.319 E15.94252
G1 X6.503 Y110.808 E15.96924
G1 X6.42 Y110.278 E15.996
G1 X6.409 Y109.99 E16.01038
G1 X6.411 Y99.996 E16.50898
G1 X6.459 Y99.41 E16.53832
G1 X6.79 Y97.405 E16.6397
G1 X7.483 Y91.968 E16.91315
G1 X7.864 Y86.538 E17.18472
G1 X7.939 Y81.077 E17.45719
G1 X7.704 Y75.623 E17.72955
G1 X7.163 Y70.203 E18.0013
G1 X6.451 Y65.538 E18.23673
G1 X6.41 Y64.995 E18.2639
G1 X6.41 Y55.01 E18.76205
G1 X6.451 Y54.471 E18.78902
G1 X7.174 Y49.703 E19.02961
G1 X7.712 Y44.248 E19.30309
G1 X7.941 Y38.809 E19.57468
G1 X7.86 Y33.348 E19.84716
G1 X7.473 Y27.919 E20.1187
G1 X6.771 Y22.457 E20.39344
G1 X6.458 Y20.579 E20.48843
G1 X6.409 Y19.988 E20.51801
G1 X6.409 Y10.009 E21.01587
G1 X6.449 Y9.474 E21.04263
G1 X6.568 Y8.951 E21.06939
G1 X6.763 Y8.452 E21.09612
G1 X7.031 Y7.987 E21.1229
G1 X7.364 Y7.567 E21.14964
G0 F6000 X7.758 Y7.734
G1 F1800 X8.145 Y7.408 E21.17488
G1 X8.578 Y7.147 E21.20011
G1 X9.046 Y6.957 E21.22531
G1 X9.539 Y6.844 E21.25054
G1 X10.009 Y6.809 E21.27405
G1 X19.991 Y6.81 E21.77206
G1 X20.471 Y6.846 E21.79607
G1 X25.257 Y7.572 E22.03758
G1 X30.732 Y8.112 E22.31205
G1 X36.18 Y8.341 E22.5841
G1 X41.668 Y8.26 E22.85792
G1 X47.126 Y7.87 E23.13092
G1 X52.576 Y7.17 E23.40505
G1 X54.485 Y6.852 E23.50161
G1 X55.012 Y6.809 E23.52799
G1 X65.004 Y6.811 E24.02649
G1 X65.525 Y6.854 E24.05257
G1 X67.536 Y7.186 E24.15426
G1 X72.988 Y7.881 E24.42846
G1 X78.446 Y8.264 E24.70143
G1 X83.933 Y8.339 E24.9752
G1 X89.399 Y8.104 E25.24815
G1 X94.856 Y7.559 E25.52176
G1 X99.52 Y6.847 E25.75714
G1 X100.003 Y6.81 E25.78131
G1 X109.991 Y6.809 E26.27961
G1 X110.495 Y6.849 E26.30484
G1 X110.986 Y6.968 E26.33004
G1 X111.453 Y7.162 E26.35527
G1 X111.883 Y7.428 E26.3805
G1 X112.266 Y7.758 E26.40572
G1 X112.592 Y8.145 E26.43097
G1 X112.853 Y8.577 E26.45615
G1 X113.043 Y9.046 E26.48139
G1 X113.156 Y9.539 E26.50663
G1 X113.191 Y10.01 E26.53019
G1 X113.189 Y20.004 E27.02879
G1 X113.146 Y20.525 E27.05487
G1 X112.814 Y22.536 E27.15656
G1 X112.119 Y27.988 E27.43076
G1 X111.736 Y33.446 E27.70373
G1 X111.661 Y38.935 E27.97761
G1 X111.896 Y44.399 E28.25046
G1 X112.441 Y49.856 E28.52406
G1 X113.153 Y54.516 E28.75925
G1 X113.19 Y54.999 E28.78342
G1 X113.189 Y65.003 E29.28252
G1 X113.146 Y65.525 E29.30865
G1 X112.814 Y67.536 E29.41034
G1 X112.119 Y72.988 E29.68454
G1 X111.736 Y78.446 E29.95751
G1 X111.661 Y83.935 E30.23138
G1 X111.896 Y89.399 E30.50423
G1 X112.441 Y94.856 E30.77784
G1 X113.153 Y99.516 E31.01303
G1 X113.19 Y99.999 E31.03719
G1 X113.191 Y109.991 E31.5357
G1 X113.151 Y110.495 E31.56092
G1 X113.032 Y110.986 E31.58612
G1 X112.838 Y111.453 E31.61135
G1 X112.572 Y111.883 E31.63658
G1 X112.242 Y112.266 E31.6618
G1 X111.855 Y112.592 E31.68705
G1 X111.423 Y112.853 E31.71223
G1 X110.954 Y113.043 E31.73747
G1 X110.461 Y113.156 E31.76271
G1 X109.99 Y113.191 E31.78627
G1 X99.996 Y113.189 E32.28487
G1 X99.475 Y113.146 E32.31095
G1 X97.464 Y112.814 E32.41264
G1 X92.012 Y112.119 E32.68684
G1 X86.554 Y111.736 E32.95981
G1 X81.067 Y111.661 E33.23359
G1 X75.601 Y111.896 E33.50654
G1 X70.144 Y112.441 E33.78014
G1 X65.48 Y113.153 E34.01553
G1 X64.997 Y113.19 E34.0397
G1 X55.01 Y113.19 E34.53795
G1 X54.53 Y113.154 E34.56196
G1 X49.743 Y112.429 E34.80351
G1 X44.268 Y111.888 E35.07799
G1 X38.82 Y111.659 E35.35003
G1 X33.332 Y111.74 E35.62386
G1 X27.874 Y112.13 E35.89685
G1 X22.424 Y112.83 E36.17099
G1 X20.515 Y113.148 E36.26754
G1 X19.989 Y113.191 E36.29387
G1 X10.009 Y113.191 E36.79178
G1 X9.505 Y113.151 E36.817
G1 X9.014 Y113.032 E36.84221
G1 X8.547 Y112.838 E36.86743
G1 X8.117 Y112.572 E36.89266
G1 X7.734 Y112.242 E36.91788
G1 X7.408 Y111.855 E36.94313
G1 X7.147 Y111.422 E36.96835
G1 X6.957 Y110.954 E36.99355
G1 X6.844 Y110.461 E37.01878
G1 X6.809 Y109.99 E37.04235
G1 X6.811 Y99.996 E37.54095
G1 X6.854 Y99.475 E37.56703
G1 X7.186 Y97.464 E37.66872
G1 X7.881 Y92.012 E37.94292
G1 X8.264 Y86.554 E38.21589
G1 X8.339 Y81.065 E38.48976
G1 X8.104 Y75.6 E38.76267
G1 X7.559 Y70.143 E39.03627
G1 X6.847 Y65.478 E39.2717
G1 X6.81 Y64.995 E39.29587
G1 X6.81 Y55.01 E39.79403
G1 X6.846 Y54.53 E39.81804
G1 X7.571 Y49.743 E40.05959
G1 X8.112 Y44.268 E40.33407
G1 X8.341 Y38.82 E40.60611
G1 X8.26 Y33.332 E40.87994
G1 X7.87 Y27.874 E41.15293
G1 X7.17 Y22.424 E41.42707
G1 X6.852 Y20.514 E41.52367
G1 X6.809 Y19.988 E41.55
G1 X6.809 Y10.009 E42.04785
G1 X6.849 Y9.505 E42.07308
G1 X6.968 Y9.014 E42.09828
G1 X7.162 Y8.547 E42.12351
G1 X7.428 Y8.117 E42.14874
G1 X7.758 Y7.734 E42.17396
G1 F1500 E35.67396
G0 F6000 X10.628 Y9.335
G0 X10.628 Y10.628
G0 X11 Y11
;TYPE:WALL-INNER
G1 F1500 E42.17396
G1 F1800 X19 Y11 E42.57308
G1 X19 Y19 E42.9722
G1 X11 Y19 E43.37132
G1 X11 Y11 E43.77045
G0 F6000 X10.6 Y10.6
G1 F1800 X19.4 Y10.6 E44.20948
G1 X19.4 Y19.4 E44.64851
G1 X10.6 Y19.4 E45.08755
G1 X10.6 Y10.6 E45.52658
G0 F6000 X10.2 Y10.2
;TYPE:WALL-OUTER
G1 F1800 X19.8 Y10.2 E46.00553
G1 X19.8 Y19.8 E46.48447
G1 X10.2 Y19.8 E46.96342
G1 X10.2 Y10.2 E47.44236
G0 F6000 X10.67 Y10.67
G0 X11.179 Y11.179
;TYPE:SKIN
G1 F1800 X18.819 Y18.819 E47.98141
G0 X18.889 Y18.889
G0 F6000 X18.819 Y18.253
G1 F1800 X11.745 Y11.18 E48.48048
G0 X11.675 Y11.11
G0 F6000 X12.311 Y11.18
G1 F1800 X18.819 Y17.688 E48.93966
G0 X18.889 Y17.758
G0 F6000 X18.819 Y17.122
G1 F1800 X12.877 Y11.18 E49.3589
G0 X12.807 Y11.11
G0 F6000 X13.442 Y11.18
G1 F1800 X18.819 Y16.556 E49.73824
G0 X18.889 Y16.626
G0 F6000 X18.819 Y15.991
G1 F1800 X14.008 Y11.18 E50.07768
G0 X13.938 Y11.11
G0 F6000 X14.574 Y11.18
G1 F1800 X18.819 Y15.425 E50.37719
G0 X18.889 Y15.495
G0 F6000 X18.819 Y14.859
G1 F1800 X15.139 Y11.18 E50.6368
G0 X15.069 Y11.11
G0 F6000 X15.705 Y11.18
G1 F1800 X18.819 Y14.294 E50.8565
G0 X18.889 Y14.364
G0 F6000 X18.819 Y13.728
G1 F1800 X16.271 Y11.18 E51.03628
G0 X16.201 Y11.11
G0 F6000 X16.836 Y11.18
G1 F1800 X18.819 Y13.162 E51.17616
G0 X18.889 Y13.232
G0 F6000 X18.819 Y12.597
G1 F1800 X17.402 Y11.18 E51.27613
G0 X17.332 Y11.11
G0 F6000 X17.968 Y11.18
G1 F1800 X18.819 Y12.031 E51.33618
G0 X18.889 Y12.101
G0 F6000 X18.819 Y11.465
G1 F1800 X18.533 Y11.18 E51.35632
G0 F6000 X11.179 Y11.745
G1 F1800 X18.253 Y18.819 E51.85543
G0 X18.323 Y18.889
G0 F6000 X17.688 Y18.819
G1 F1800 X11.179 Y12.31 E52.31467
G0 X11.109 Y12.24
G0 F6000 X11.179 Y12.876
G1 F1800 X17.122 Y18.819 E52.73398
G0 X17.192 Y18.889
G0 F6000 X16.556 Y18.819
G1 F1800 X11.179 Y13.442 E53.11336
G0 X11.109 Y13.372
G0 F6000 X11.179 Y14.007
G1 F1800 X15.991 Y18.819 E53.45287
G0 X16.061 Y18.889
G0 F6000 X15.425 Y18.819
G1 F1800 X11.179 Y14.573 E53.75245
G0 X11.109 Y14.503
G0 F6000 X11.179 Y15.139
G1 F1800 X14.859 Y18.819 E54.0121
G0 X14.929 Y18.889
G0 F6000 X14.294 Y18.819
G1 F1800 X11.179 Y15.704 E54.23188
G0 X11.109 Y15.634
G0 F6000 X11.179 Y16.27
G1 F1800 X13.728 Y18.819 E54.41172
G0 X13.798 Y18.889
G0 F6000 X13.162 Y18.819
G1 F1800 X11.179 Y16.836 E54.55163
G0 X11.109 Y16.766
G0 F6000 X11.179 Y17.401
G1 F1800 X12.597 Y18.819 E54.65168
G0 X12.667 Y18.889
G0 F6000 X12.031 Y18.819
G1 F1800 X11.179 Y17.967 E54.71179
G0 X11.109 Y17.897
G0 F6000 X11.179 Y18.533
G1 F1800 X11.465 Y18.819 E54.73197
G1 F1500 E48.23197
G0 F6000 X11 Y19.36
G0 X11 Y20.665
G0 X11 Y54.335
G0 X11 Y55.64
G0 X11 Y56
;TYPE:WALL-INNER
G1 F1500 E54.73197
G1 F1800 X19 Y56 E55.13109
G1 X19 Y64 E55.53022
G1 X11 Y64 E55.92934
G1 X11 Y56 E56.32846
G0 F6000 X10.6 Y55.6
G1 F1800 X19.4 Y55.6 E56.76749
G1 X19.4 Y64.4 E57.20653
G1 X10.6 Y64.4 E57.64556
G1 X10.6 Y55.6 E58.08459
G0 F6000 X10.2 Y55.2
;TYPE:WALL-OUTER
G1 F1800 X19.8 Y55.2 E58.56354
G1 X19.8 Y64.8 E59.04249
G1 X10.2 Y64.8 E59.52143
G1 X10.2 Y55.2 E60.00038
G0 F6000 X10.67 Y55.67
G0 X11.18 Y56.434
;TYPE:SKIN
G1 F1800 X18.564 Y63.819 E60.52139
G0 X18.634 Y63.889
G0 F6000 X18.82 Y63.509
G1 F1800 X11.49 Y56.179 E61.03856
G0 X11.42 Y56.109
G0 F6000 X12.056 Y56.179
G1 F1800 X18.82 Y62.943 E61.5158
G0 X18.89 Y63.013
G0 F6000 X18.82 Y62.378
G1 F1800 X12.621 Y56.179 E61.95317
G0 X12.551 Y56.109
G0 F6000 X13.187 Y56.179
G1 F1800 X18.82 Y61.812 E62.35061
G0 X18.89 Y61.882
G0 F6000 X18.82 Y61.246
G1 F1800 X13.753 Y56.179 E62.70812
G0 X13.683 Y56.109
G0 F6000 X14.318 Y56.179
G1 F1800 X18.82 Y60.681 E63.02576
G0 X18.89 Y60.751
G0 F6000 X18.82 Y60.115
G1 F1800 X14.884 Y56.179 E63.30346
G0 X14.814 Y56.109
G0 F6000 X15.45 Y56.179
G1 F1800 X18.82 Y59.549 E63.54124
G0 X18.89 Y59.619
G0 F6000 X18.82 Y58.984
G1 F1800 X16.015 Y56.179 E63.73914
G0 X15.945 Y56.109
G0 F6000 X16.581 Y56.179
G1 F1800 X18.82 Y58.418 E63.89712
G0 X18.89 Y58.488
G0 F6000 X18.82 Y57.852
G1 F1800 X17.147 Y56.179 E64.01516
G0 X17.077 Y56.109
G0 F6000 X17.713 Y56.179
G1 F1800 X18.82 Y57.286 E64.09326
G0 X18.89 Y57.356
G0 F6000 X18.82 Y56.721
G1 F1800 X18.278 Y56.179 E64.1315
G0 F6000 X11.18 Y57
G1 F1800 X17.998 Y63.819 E64.61258
G0 X18.068 Y63.889
G0 F6000 X17.433 Y63.819
G1 F1800 X11.18 Y57.566 E65.05377
G0 X11.11 Y57.496
G0 F6000 X11.18 Y58.131
G1 F1800 X16.867 Y63.819 E65.45505
G0 X16.937 Y63.889
G0 F6000 X16.301 Y63.819
G1 F1800 X11.18 Y58.697 E65.8164
G0 X11.11 Y58.627
G0 F6000 X11.18 Y59.263
G1 F1800 X15.735 Y63.819 E66.13782
G0 X15.805 Y63.889
G0 F6000 X15.17 Y63.819
G1 F1800 X11.18 Y59.829 E66.41933
G0 X11.11 Y59.759
G0 F6000 X11.18 Y60.394
G1 F1800 X14.604 Y63.819 E66.66095
G0 X14.674 Y63.889
G0 F6000 X14.038 Y63.819
G1 F1800 X11.18 Y60.96 E66.86263
G0 X11.11 Y60.89
G0 F6000 X11.18 Y61.526
G1 F1800 X13.473 Y63.819 E67.02441
G0 X13.543 Y63.889
G0 F6000 X12.907 Y63.819
G1 F1800 X11.18 Y62.091 E67.1463
G0 X11.11 Y62.021
G0 F6000 X11.18 Y62.657
G1 F1800 X12.341 Y63.819 E67.22825
G0 X12.411 Y63.889
G0 F6000 X11.776 Y63.819
G1 F1800 X11.18 Y63.223 E67.2703
G0 X11.11 Y63.153
G1 F1500 E60.7703
G0 F6000 X11 Y64.36
G0 X11 Y65.665
G0 X11 Y99.335
G0 X11 Y100.64
G0 X11 Y101
;TYPE:WALL-INNER
G1 F1500 E67.2703
G1 F1800 X19 Y101 E67.66942
G1 X19 Y109 E68.06854
G1 X11 Y109 E68.46766
G1 X11 Y101 E68.86679
G0 F6000 X10.6 Y100.6
G1 F1800 X19.4 Y100.6 E69.30582
G1 X19.4 Y109.4 E69.74485
G1 X10.6 Y109.4 E70.18389
G1 X10.6 Y100.6 E70.62292
G0 F6000 X10.2 Y100.2
;TYPE:WALL-OUTER
G1 F1800 X19.8 Y100.2 E71.10187
G1 X19.8 Y109.8 E71.58081
G1 X10.2 Y109.8 E72.05976
G1 X10.2 Y100.2 E72.53871
G0 F6000 X10.67 Y100.67
G0 X11.235 Y101.179
;TYPE:SKIN
G1 F1800 X18.82 Y108.764 E73.07387
G0 X18.89 Y108.834
G0 F6000 X18.309 Y108.818
G1 F1800 X11.18 Y101.689 E73.57686
G0 X11.11 Y101.619
G0 F6000 X11.18 Y102.255
G1 F1800 X17.743 Y108.818 E74.03991
G0 X17.813 Y108.888
G0 F6000 X17.177 Y108.818
G1 F1800 X11.18 Y102.821 E74.46303
G0 X11.11 Y102.751
G0 F6000 X11.18 Y103.386
G1 F1800 X16.612 Y108.818 E74.84629
G0 X16.682 Y108.888
G0 F6000 X16.046 Y108.818
G1 F1800 X11.18 Y103.952 E75.18961
G0 X11.11 Y103.882
G0 F6000 X11.18 Y104.518
G1 F1800 X15.48 Y108.818 E75.493
G0 X15.55 Y108.888
G0 F6000 X14.915 Y108.818
G1 F1800 X11.18 Y105.083 E75.75653
G0 X11.11 Y105.013
G0 F6000 X11.18 Y105.649
G1 F1800 X14.349 Y108.818 E75.98012
G0 X14.419 Y108.888
G0 F6000 X13.783 Y108.818
G1 F1800 X11.18 Y106.215 E76.16377
G0 X11.11 Y106.145
G0 F6000 X11.18 Y106.78
G1 F1800 X13.217 Y108.818 E76.30753
G0 X13.287 Y108.888
G0 F6000 X12.652 Y108.818
G1 F1800 X11.18 Y107.346 E76.41139
G0 X11.11 Y107.276
G0 F6000 X11.18 Y107.912
G1 F1800 X12.086 Y108.818 E76.47531
G0 X12.156 Y108.888
G0 F6000 X11.52 Y108.818
G1 F1800 X11.18 Y108.477 E76.49933
G0 F6000 X11.8 Y101.179
G1 F1800 X18.82 Y108.198 E76.9946
G0 X18.89 Y108.268
G0 F6000 X18.82 Y107.632
G1 F1800 X12.366 Y101.179 E77.44993
G0 X12.296 Y101.109
G0 F6000 X12.932 Y101.179
G1 F1800 X18.82 Y107.067 E77.86536
G0 X18.89 Y107.137
G0 F6000 X18.82 Y106.501
G1 F1800 X13.497 Y101.179 E78.24089
G0 X13.427 Y101.109
G0 F6000 X14.063 Y101.179
G1 F1800 X18.82 Y105.935 E78.57648
G0 X18.89 Y106.005
G0 F6000 X18.82 Y105.37
G1 F1800 X14.629 Y101.179 E78.87218
G0 X14.559 Y101.109
G0 F6000 X15.195 Y101.179
G1 F1800 X18.82 Y104.804 E79.12794
G0 X18.89 Y104.874
G0 F6000 X18.82 Y104.238
G1 F1800 X15.76 Y101.179 E79.34381
G0 X15.69 Y101.109
G0 F6000 X16.326 Y101.179
G1 F1800 X18.82 Y103.673 E79.51977
G0 X18.89 Y103.743
G0 F6000 X18.82 Y103.107
G1 F1800 X16.892 Y101.179 E79.65581
G0 X16.822 Y101.109
G0 F6000 X17.457 Y101.179
G1 F1800 X18.82 Y102.541 E79.75194
G0 X18.89 Y102.611
G0 F6000 X18.82 Y101.976
G1 F1800 X18.023 Y101.179 E79.80817
G0 X17.953 Y101.109
G0 F6000 X18.589 Y101.179
G1 F1800 X18.82 Y101.41 E79.82447
G1 F1500 E73.32447
G0 F6000 X19.36 Y101
G0 X20.665 Y101
G0 X54.335 Y101
G0 X55.64 Y101
G0 X56 Y101
;TYPE:WALL-INNER
G1 F1500 E79.82447
G1 F1800 X64 Y101 E80.22359
G1 X64 Y109 E80.62271
G1 X56 Y109 E81.02183
G1 X56 Y101 E81.42095
G0 F6000 X55.6 Y100.6
G1 F1800 X64.4 Y100.6 E81.85999
G1 X64.4 Y109.4 E82.29902
G1 X55.6 Y109.4 E82.73806
G1 X55.6 Y100.6 E83.17709
G0 F6000 X55.2 Y100.2
;TYPE:WALL-OUTER
G1 F1800 X64.8 Y100.2 E83.65604
G1 X64.8 Y109.8 E84.13498
G1 X55.2 Y109.8 E84.61393
G1 X55.2 Y100.2 E85.09287
G0 F6000 X55.67 Y100.67
