; generated by PrusaSlicer 2.1.0+linux64 on 2019-11-22 at 16:44:52 UTC

; 

; external perimeters extrusion width = 0.45mm
; perimeters extrusion width = 0.45mm
; infill extrusion width = 0.45mm
; solid infill extrusion width = 0.45mm
; top infill extrusion width = 0.40mm
; first layer extrusion width = 0.42mm

M73 P0 R52
M73 Q0 S52
M201 X1000 Y1000 Z1000 E5000 ; sets maximum accelerations, mm/sec^2
M203 X200 Y200 Z12 E120 ; sets maximum feedrates, mm/sec
M204 P1250 R1250 T1250 ; sets acceleration (P, T) and retract acceleration (R), mm/sec^2
M205 X8.00 Y8.00 Z0.40 E1.50 ; sets the jerk limits, mm/sec
M205 S0 T0 ; sets the minimum extruding and travel feed rate, mm/sec
M107
M862.3 P "MK3S" ; printer model check
M862.1 P0.4 ; nozzle diameter check
M115 U3.8.1 ; tell printer latest fw version
G90 ; use absolute coordinates
M83 ; extruder relative mode
M104 S215 ; set extruder temp
M140 S60 ; set bed temp
M190 S60 ; wait for bed temp
M109 S215 ; wait for extruder temp
G28 W ; home all without mesh bed level
G80 ; mesh bed leveling
G1 Y-3.0 F1000.0 ; go outside print area
G92 E0.0
G1 X60.0 E9.0 F1000.0 ; intro line
M73 Q0 S52
M73 P0 R51
G1 X100.0 E12.5 F1000.0 ; intro line
G92 E0.0
M221 S95
G21 ; set units to millimeters
G90 ; use absolute coordinates
M83 ; use relative distances for extrusion
M900 K30 ; Filament gcode
;BEFORE_LAYER_CHANGE
G92 E0.0
;0.2


G1 E-0.80000 F2100.00000
G1 Z0.600 F10800.000
;AFTER_LAYER_CHANGE
;0.2
G1 X36.439 Y28.028
G1 Z0.200
G1 E0.80000 F2100.00000
M204 S1000
G1 F1200
G1 X37.400 Y27.034 E0.04335
G1 X38.546 Y26.255 E0.04347
G1 X39.695 Y25.765 E0.03915
G1 X41.044 Y25.478 E0.04324
G1 X102.476 Y25.439 E1.92616
G1 X103.156 Y25.498 E0.02140
G1 X103.800 Y25.667 E0.02089
G1 X104.368 Y25.918 E0.01948
G1 X104.922 Y26.280 E0.02073
G1 X105.415 Y26.735 E0.02102
G1 X105.796 Y27.223 E0.01943
G1 X106.118 Y27.809 E0.02097
G1 X106.338 Y28.447 E0.02115
G1 X106.461 Y29.405 E0.03030
G1 X106.444 Y40.940 E0.36167
G1 X106.335 Y41.485 E0.01742
G1 X106.115 Y42.023 E0.01824
G1 X101.277 Y50.754 E0.31296
G1 X100.973 Y51.137 E0.01532
G1 X100.588 Y51.444 E0.01544
G1 X100.145 Y51.658 E0.01544
G1 X99.665 Y51.768 E0.01544
G1 X98.971 Y51.734 E0.02179
G1 X46.136 Y40.504 E1.69361
G1 X39.893 Y38.751 E0.20333
G1 X38.990 Y38.419 E0.03014
G1 X38.031 Y37.892 E0.03432
G1 X37.244 Y37.285 E0.03117
G1 X36.578 Y36.598 E0.03001
G1 X36.016 Y35.827 E0.02990
G1 X35.560 Y34.964 E0.03061
G1 X35.202 Y33.935 E0.03416
G1 X35.023 Y32.956 E0.03119
G1 X35.003 Y31.725 E0.03862
G1 X35.246 Y30.360 E0.04348
G1 X35.760 Y29.076 E0.04335
G1 X36.406 Y28.078 E0.03727
G1 F8640
G1 X37.400 Y27.034 E-0.33286
G1 X38.546 Y26.255 E-0.32009
G1 X38.973 Y26.073 E-0.10705
G1 E-0.04000 F2100.00000
G1 Z0.800 F10800.000
G1 X48.073 Y34.269
G1 Z0.200
G1 E0.80000 F2100.00000
G1 F1200
G1 X99.744 Y45.252 E1.65632
G1 X98.969 Y48.897 E0.11682
G1 X47.298 Y37.913 E1.65632
G1 X48.060 Y34.328 E0.11494
G1 X47.782 Y33.822 F10800.000
G1 F1200
G1 X100.191 Y44.962 E1.67996
G1 X99.260 Y49.344 E0.14047
G1 X46.851 Y38.204 E1.67996
G1 X47.770 Y33.881 E0.13859
G1 X48.171 Y33.916 F10800.000
G1 F8640
G1 X50.990 Y34.561 E-0.76000
G1 E-0.04000 F2100.00000
G1 Z0.800 F10800.000
G1 X47.567 Y37.190
G1 Z0.200
G1 E0.80000 F2100.00000
G1 F1200
G1 X48.192 Y37.814 E0.02799
G1 X48.876 Y37.960 E0.02218
G1 X47.805 Y36.888 E0.04802
G1 X47.899 Y36.444 E0.01440
G1 X49.561 Y38.105 E0.07446
G1 X50.245 Y38.251 E0.02218
G1 X47.994 Y35.999 E0.10091
G1 X48.088 Y35.555 E0.01440
G1 X50.930 Y38.396 E0.12735
G1 X51.614 Y38.542 E0.02218
G1 X48.183 Y35.110 E0.15380
G1 X48.277 Y34.666 E0.01440
G1 X52.299 Y38.687 E0.18024
G1 X52.983 Y38.833 E0.02218
G1 X48.880 Y34.730 E0.18389
G1 X49.565 Y34.875 E0.02218
G1 X53.668 Y38.978 E0.18389
G1 X54.352 Y39.124 E0.02218
G1 X50.249 Y35.021 E0.18389
G1 X50.934 Y35.166 E0.02218
G1 X55.037 Y39.269 E0.18389
G1 X55.721 Y39.415 E0.02218
G1 X51.618 Y35.312 E0.18389
G1 X52.303 Y35.457 E0.02218
G1 X56.406 Y39.560 E0.18389
G1 X57.090 Y39.706 E0.02218
G1 X52.987 Y35.603 E0.18389
G1 X53.672 Y35.748 E0.02218
G1 X57.775 Y39.851 E0.18389
G1 X58.459 Y39.997 E0.02218
G1 X54.356 Y35.894 E0.18389
G1 X55.041 Y36.039 E0.02218
G1 X59.144 Y40.142 E0.18389
G1 X59.828 Y40.288 E0.02218
G1 X55.726 Y36.185 E0.18389
G1 X56.410 Y36.330 E0.02218
G1 X60.513 Y40.433 E0.18389
G1 X61.198 Y40.579 E0.02218
G1 X57.095 Y36.476 E0.18389
G1 X57.779 Y36.621 E0.02218
G1 X61.882 Y40.724 E0.18389
G1 X62.567 Y40.870 E0.02218
G1 X58.464 Y36.767 E0.18389
G1 X59.148 Y36.912 E0.02218
G1 X63.251 Y41.015 E0.18389
G1 X63.936 Y41.161 E0.02218
G1 X59.833 Y37.058 E0.18389
G1 X60.517 Y37.203 E0.02218
G1 X64.620 Y41.306 E0.18389
G1 X65.305 Y41.452 E0.02218
G1 X61.202 Y37.349 E0.18389
G1 X61.886 Y37.494 E0.02218
G1 X65.989 Y41.597 E0.18389
G1 X66.674 Y41.743 E0.02218
G1 X62.571 Y37.640 E0.18389
G1 X63.255 Y37.785 E0.02218
G1 X67.358 Y41.888 E0.18389
G1 X68.043 Y42.034 E0.02218
G1 X63.940 Y37.931 E0.18389
G1 X64.624 Y38.076 E0.02218
G1 X68.727 Y42.179 E0.18389
G1 X69.412 Y42.325 E0.02218
G1 X65.309 Y38.222 E0.18389
G1 X65.993 Y38.367 E0.02218
G1 X70.096 Y42.470 E0.18389
G1 X70.781 Y42.616 E0.02218
G1 X66.678 Y38.513 E0.18389
G1 X67.362 Y38.658 E0.02218
G1 X71.465 Y42.761 E0.18389
G1 X72.150 Y42.907 E0.02218
G1 X68.047 Y38.804 E0.18389
G1 X68.731 Y38.949 E0.02218
G1 X72.834 Y43.052 E0.18389
G1 X73.519 Y43.198 E0.02218
G1 X69.416 Y39.095 E0.18389
G1 X70.100 Y39.240 E0.02218
G1 X74.203 Y43.343 E0.18389
G1 X74.888 Y43.489 E0.02218
G1 X70.785 Y39.386 E0.18389
G1 X71.469 Y39.531 E0.02218
G1 X75.572 Y43.634 E0.18389
G1 X76.257 Y43.780 E0.02218
G1 X72.154 Y39.677 E0.18389
G1 X72.838 Y39.822 E0.02218
G1 X76.941 Y43.925 E0.18389
G1 X77.626 Y44.071 E0.02218
G1 X73.523 Y39.968 E0.18389
G1 X74.207 Y40.113 E0.02218
G1 X78.310 Y44.216 E0.18389
G1 X78.995 Y44.362 E0.02218
G1 X74.892 Y40.259 E0.18389
G1 X75.577 Y40.404 E0.02218
G1 X79.680 Y44.507 E0.18389
G1 X80.364 Y44.653 E0.02218
G1 X76.261 Y40.550 E0.18389
G1 X76.946 Y40.695 E0.02218
G1 X81.049 Y44.798 E0.18389
G1 X81.733 Y44.944 E0.02218
G1 X77.630 Y40.841 E0.18389
G1 X78.315 Y40.986 E0.02218
G1 X82.418 Y45.089 E0.18389
G1 X83.102 Y45.235 E0.02218
G1 X78.999 Y41.132 E0.18389
G1 X79.684 Y41.277 E0.02218
G1 X83.787 Y45.380 E0.18389
G1 X84.471 Y45.526 E0.02218
G1 X80.368 Y41.423 E0.18389
G1 X81.053 Y41.568 E0.02218
G1 X85.156 Y45.671 E0.18389
G1 X85.840 Y45.817 E0.02218
G1 X81.737 Y41.714 E0.18389
G1 X82.422 Y41.859 E0.02218
G1 X86.525 Y45.962 E0.18389
G1 X87.209 Y46.108 E0.02218
G1 X83.106 Y42.005 E0.18389
G1 X83.791 Y42.150 E0.02218
G1 X87.894 Y46.253 E0.18389
G1 X88.578 Y46.399 E0.02218
G1 X84.475 Y42.296 E0.18389
G1 X85.160 Y42.441 E0.02218
G1 X89.263 Y46.544 E0.18389
G1 X89.947 Y46.690 E0.02218
G1 X85.844 Y42.587 E0.18389
G1 X86.529 Y42.732 E0.02218
G1 X90.632 Y46.835 E0.18389
G1 X91.316 Y46.981 E0.02218
G1 X87.213 Y42.878 E0.18389
G1 X87.898 Y43.023 E0.02218
G1 X92.001 Y47.126 E0.18389
G1 X92.685 Y47.272 E0.02218
G1 X88.582 Y43.169 E0.18389
G1 X89.267 Y43.314 E0.02218
G1 X93.370 Y47.417 E0.18389
G1 X94.054 Y47.563 E0.02218
G1 X89.951 Y43.460 E0.18389
G1 X90.636 Y43.605 E0.02218
G1 X94.739 Y47.708 E0.18389
G1 X95.423 Y47.854 E0.02218
G1 X91.320 Y43.751 E0.18389
G1 X92.005 Y43.896 E0.02218
G1 X96.108 Y47.999 E0.18389
G1 X96.792 Y48.145 E0.02218
G1 X92.689 Y44.042 E0.18389
G1 X93.374 Y44.187 E0.02218
G1 X97.477 Y48.290 E0.18389
G1 X98.161 Y48.436 E0.02218
G1 X94.059 Y44.333 E0.18389
G1 X94.743 Y44.478 E0.02218
G1 X98.765 Y48.500 E0.18024
G1 X98.859 Y48.055 E0.01440
G1 X95.428 Y44.624 E0.15380
G1 X96.112 Y44.769 E0.02218
G1 X98.954 Y47.611 E0.12735
G1 X99.048 Y47.166 E0.01440
G1 X96.797 Y44.915 E0.10091
G1 X97.481 Y45.060 E0.02218
G1 X99.143 Y46.722 E0.07447
G1 X99.237 Y46.277 E0.01440
G1 X98.166 Y45.206 E0.04802
G1 X98.850 Y45.351 E0.02218
G1 X99.475 Y45.976 E0.02799
G1 F8640
G1 X98.850 Y45.351 E-0.20391
G1 X98.166 Y45.206 E-0.16159
G1 X99.237 Y46.277 E-0.34986
G1 X99.197 Y46.466 E-0.04464
G1 E-0.04000 F2100.00000
G1 Z0.800 F10800.000
G1 X45.404 Y32.873
G1 Z0.200
G1 E0.80000 F2100.00000
G1 F1200
G1 X45.242 Y33.479 E0.01967
G1 X45.087 Y33.844 E0.01243
G1 X44.900 Y34.182 E0.01210
G1 X44.678 Y34.498 E0.01210
G1 X44.422 Y34.793 E0.01226
G1 X43.949 Y35.205 E0.01967
G1 X43.616 Y35.421 E0.01243
G1 X43.272 Y35.597 E0.01210
G1 X42.912 Y35.735 E0.01210
G1 X42.534 Y35.836 E0.01226
G1 X41.911 Y35.913 E0.01967
G1 X41.515 Y35.906 E0.01243
G1 X41.132 Y35.859 E0.01210
G1 X40.756 Y35.772 E0.01210
G1 X40.386 Y35.645 E0.01226
G1 X39.826 Y35.361 E0.01967
G1 X39.502 Y35.133 E0.01243
G1 X39.210 Y34.880 E0.01210
G1 X38.947 Y34.598 E0.01210
G1 X38.709 Y34.281 E0.01243
G1 X38.407 Y33.737 E0.01952
G1 X38.265 Y33.367 E0.01243
G1 X38.162 Y32.984 E0.01243
G1 X38.085 Y32.356 E0.01984
G1 X38.118 Y31.724 E0.01985
G1 X38.194 Y31.335 E0.01243
G1 X38.307 Y30.966 E0.01210
G1 X38.458 Y30.611 E0.01210
G1 X38.650 Y30.264 E0.01243
G1 X39.025 Y29.767 E0.01952
G1 X39.305 Y29.487 E0.01243
G1 X39.605 Y29.244 E0.01210
G1 X39.929 Y29.034 E0.01210
G1 X40.273 Y28.858 E0.01210
G1 X40.633 Y28.720 E0.01210
G1 X41.016 Y28.617 E0.01243
G1 X41.634 Y28.542 E0.01952
G1 X42.030 Y28.549 E0.01243
G1 X42.413 Y28.596 E0.01210
G1 X42.789 Y28.683 E0.01210
G1 X43.164 Y28.812 E0.01243
G1 X43.718 Y29.094 E0.01952
G1 X44.043 Y29.322 E0.01243
G1 X44.334 Y29.575 E0.01210
G1 X44.598 Y29.857 E0.01210
G1 X44.836 Y30.174 E0.01243
G1 X45.143 Y30.727 E0.01984
G1 X45.349 Y31.325 E0.01984
G1 X45.424 Y31.714 E0.01243
G1 X45.458 Y32.099 E0.01211
G1 X45.451 Y32.485 E0.01210
G1 X45.411 Y32.814 E0.01038
G1 X45.037 Y32.768 F10800.000
G1 F1200
G1 X44.884 Y33.356 E0.01907
G1 X44.747 Y33.679 E0.01098
G1 X44.579 Y33.982 E0.01086
G1 X44.381 Y34.266 E0.01086
G1 X44.154 Y34.526 E0.01082
G1 X43.721 Y34.904 E0.01802
G1 X43.427 Y35.094 E0.01098
G1 X43.118 Y35.252 E0.01086
G1 X42.795 Y35.376 E0.01086
G1 X42.462 Y35.465 E0.01082
G1 X41.891 Y35.536 E0.01802
G1 X41.541 Y35.530 E0.01098
G1 X41.197 Y35.487 E0.01086
G1 X40.860 Y35.409 E0.01086
G1 X40.533 Y35.297 E0.01082
G1 X40.021 Y35.037 E0.01802
G1 X39.734 Y34.836 E0.01098
G1 X39.473 Y34.609 E0.01086
G1 X39.236 Y34.355 E0.01086
G1 X39.026 Y34.076 E0.01098
G1 X38.749 Y33.577 E0.01786
G1 X38.624 Y33.250 E0.01098
G1 X38.533 Y32.912 E0.01098
G1 X38.463 Y32.343 E0.01798
G1 X38.494 Y31.770 E0.01799
G1 X38.560 Y31.426 E0.01098
G1 X38.662 Y31.095 E0.01086
G1 X38.797 Y30.776 E0.01086
G1 X38.967 Y30.470 E0.01098
G1 X39.310 Y30.015 E0.01786
G1 X39.557 Y29.767 E0.01098
G1 X39.827 Y29.549 E0.01086
G1 X40.117 Y29.361 E0.01086
G1 X40.426 Y29.203 E0.01086
G1 X40.750 Y29.079 E0.01086
G1 X41.088 Y28.989 E0.01098
G1 X41.653 Y28.919 E0.01786
G1 X42.003 Y28.925 E0.01098
G1 X42.347 Y28.968 E0.01086
G1 X42.685 Y29.045 E0.01086
G1 X43.016 Y29.160 E0.01098
G1 X43.524 Y29.418 E0.01786
G1 X43.810 Y29.619 E0.01098
G1 X44.072 Y29.846 E0.01086
G1 X44.308 Y30.100 E0.01086
G1 X44.519 Y30.380 E0.01098
G1 X44.797 Y30.881 E0.01798
G1 X44.984 Y31.423 E0.01798
G1 X45.050 Y31.767 E0.01098
G1 X45.081 Y32.112 E0.01087
G1 X45.074 Y32.459 E0.01086
G1 X45.044 Y32.708 E0.00788
G1 X45.339 Y33.030 F10800.000
G1 F8640
G1 X44.884 Y33.356 E-0.15415
G1 X44.747 Y33.679 E-0.08088
G1 X44.579 Y33.982 E-0.08000
G1 X44.381 Y34.266 E-0.07999
G1 X44.154 Y34.526 E-0.07970
G1 X43.721 Y34.904 E-0.13269
G1 X43.427 Y35.094 E-0.08088
G1 X43.150 Y35.235 E-0.07172
G1 E-0.04000 F2100.00000
G1 Z0.800 F10800.000
G1 X103.359 Y38.565
G1 Z0.200
G1 E0.80000 F2100.00000
G1 F1200
G1 X103.359 Y29.549 E0.28269
G1 X103.289 Y29.217 E0.01062
G1 X103.087 Y28.894 E0.01194
G1 X102.787 Y28.660 E0.01194
G1 X102.435 Y28.545 E0.01160
G1 X96.685 Y28.540 E0.18029
G1 X96.685 Y30.415 E0.05878
G1 X101.185 Y30.415 E0.14109
G1 X101.185 Y31.540 E0.03530
G1 X45.799 Y31.540 E1.73660
G1 X45.775 Y32.508 E0.03034
G1 X45.724 Y32.925 E0.01317
G1 X45.666 Y33.196 E0.00868
G1 X45.542 Y33.602 E0.01332
G1 X45.377 Y33.988 E0.01317
G1 X45.175 Y34.354 E0.01311
G1 X45.020 Y34.583 E0.00868
G1 X44.753 Y34.913 E0.01332
G1 X44.455 Y35.210 E0.01317
G1 X44.131 Y35.473 E0.01311
G1 X43.901 Y35.628 E0.00868
G1 X43.530 Y35.834 E0.01332
G1 X43.143 Y35.998 E0.01317
G1 X42.743 Y36.121 E0.01311
G1 X42.472 Y36.178 E0.00868
G1 X42.051 Y36.230 E0.01332
G1 X41.631 Y36.237 E0.01317
G1 X41.214 Y36.201 E0.01311
G1 X40.942 Y36.153 E0.00868
G1 X40.532 Y36.043 E0.01332
G1 X40.140 Y35.892 E0.01316
G1 X39.766 Y35.702 E0.01316
G1 X39.413 Y35.473 E0.01317
G1 X39.088 Y35.210 E0.01311
G1 X38.889 Y35.018 E0.00868
G1 X38.610 Y34.697 E0.01332
G1 X38.370 Y34.353 E0.01317
G1 X38.166 Y33.986 E0.01316
G1 X38.002 Y33.599 E0.01317
G1 X37.880 Y33.200 E0.01311
G1 X37.822 Y32.929 E0.00868
G1 X37.770 Y32.507 E0.01332
G1 X37.763 Y32.087 E0.01317
G1 X37.799 Y31.665 E0.01328
G1 X37.847 Y31.398 E0.00851
G1 X37.957 Y30.988 E0.01333
G1 X38.107 Y30.595 E0.01317
G1 X38.298 Y30.221 E0.01317
G1 X38.526 Y29.869 E0.01317
G1 X38.793 Y29.540 E0.01328
G1 X38.981 Y29.345 E0.00851
G1 X39.302 Y29.066 E0.01333
G1 X39.646 Y28.825 E0.01317
G1 X40.013 Y28.621 E0.01317
G1 X40.400 Y28.457 E0.01317
G1 X40.805 Y28.333 E0.01328
G1 X41.071 Y28.277 E0.00851
G1 X41.487 Y28.226 E0.01317
G1 X102.499 Y28.216 E1.91297
M73 Q2 S51
M73 P2 R50
G1 X102.724 Y28.243 E0.00712
G1 X102.921 Y28.303 E0.00645
G1 X103.153 Y28.427 E0.00824
G1 X103.313 Y28.557 E0.00647
G1 X103.452 Y28.716 E0.00662
G1 X103.560 Y28.897 E0.00662
G1 X103.634 Y29.089 E0.00645
G1 X103.681 Y29.353 E0.00842
G1 X103.683 Y40.611 E0.35298
G1 X103.639 Y40.755 E0.00472
G1 X103.555 Y40.814 E0.00321
G1 X103.455 Y40.839 E0.00323
G1 X103.101 Y40.840 E0.01112
G1 X102.971 Y40.824 E0.00409
G1 X102.828 Y40.779 E0.00471
G1 X102.697 Y40.705 E0.00471
G1 X100.559 Y38.584 E0.09441
G1 X100.559 Y38.565 E0.00062
G1 X103.299 Y38.565 E0.08591
G1 X102.982 Y38.187 F10800.000
G1 F1200
G1 X102.982 Y29.588 E0.26963
G1 X102.934 Y29.361 E0.00730
G1 X102.802 Y29.150 E0.00777
G1 X102.607 Y28.998 E0.00777
G1 X102.375 Y28.922 E0.00765
G1 X97.062 Y28.917 E0.16659
G1 X97.062 Y30.037 E0.03512
G1 X101.562 Y30.037 E0.14109
G1 X101.562 Y31.917 E0.05895
G1 X46.167 Y31.917 E1.73689
G1 X46.151 Y32.536 E0.01939
G1 X46.096 Y32.987 E0.01426
G1 X46.031 Y33.290 E0.00972
G1 X45.896 Y33.731 E0.01446
G1 X45.717 Y34.154 E0.01441
G1 X45.497 Y34.551 E0.01424
G1 X45.323 Y34.808 E0.00972
G1 X45.033 Y35.166 E0.01446
G1 X44.708 Y35.491 E0.01441
G1 X44.355 Y35.777 E0.01424
G1 X44.098 Y35.950 E0.00972
G1 X43.695 Y36.174 E0.01446
G1 X43.272 Y36.353 E0.01441
G1 X42.838 Y36.486 E0.01424
G1 X42.535 Y36.551 E0.00972
G1 X42.077 Y36.607 E0.01446
G1 X41.618 Y36.614 E0.01441
G1 X41.165 Y36.575 E0.01424
G1 X40.860 Y36.521 E0.00972
G1 X40.415 Y36.402 E0.01446
G1 X39.986 Y36.237 E0.01440
G1 X39.577 Y36.029 E0.01440
G1 X39.191 Y35.778 E0.01441
G1 X38.838 Y35.493 E0.01424
G1 X38.615 Y35.278 E0.00972
G1 X38.313 Y34.930 E0.01446
G1 X38.049 Y34.553 E0.01440
G1 X37.827 Y34.151 E0.01440
G1 X37.647 Y33.729 E0.01441
G1 X37.514 Y33.294 E0.01424
G1 X37.449 Y32.991 E0.00972
G1 X37.393 Y32.534 E0.01446
G1 X37.385 Y32.074 E0.01441
G1 X37.425 Y31.616 E0.01441
G1 X37.478 Y31.316 E0.00954
G1 X37.597 Y30.871 E0.01446
G1 X37.762 Y30.442 E0.01441
G1 X37.971 Y30.032 E0.01441
G1 X38.221 Y29.647 E0.01441
G1 X38.510 Y29.290 E0.01441
G1 X38.722 Y29.071 E0.00954
G1 X39.070 Y28.768 E0.01446
G1 X39.446 Y28.505 E0.01441
G1 X39.848 Y28.282 E0.01441
G1 X40.271 Y28.102 E0.01441
G1 X40.711 Y27.968 E0.01441
G1 X41.008 Y27.905 E0.00954
G1 X41.464 Y27.849 E0.01441
G1 X102.522 Y27.839 E1.91441
G1 X102.803 Y27.873 E0.00888
G1 X103.066 Y27.953 E0.00863
G1 X103.362 Y28.111 E0.01051
G1 X103.576 Y28.284 E0.00865
G1 X103.758 Y28.493 E0.00868
G1 X103.901 Y28.731 E0.00869
G1 X103.999 Y28.988 E0.00863
G1 X104.058 Y29.320 E0.01059
G1 X104.060 Y40.658 E0.35547
G1 X104.006 Y40.873 E0.00698
G1 X103.888 Y41.044 E0.00653
G1 X103.711 Y41.163 E0.00668
G1 X103.502 Y41.216 E0.00675
G1 X103.079 Y41.217 E0.01327
G1 X102.891 Y41.194 E0.00593
G1 X102.677 Y41.126 E0.00704
G1 X102.481 Y41.016 E0.00704
G1 X102.334 Y40.892 E0.00605
G1 X100.182 Y38.740 E0.09540
G1 X100.182 Y38.187 E0.01734
G1 X102.922 Y38.187 E0.08591
G1 X103.381 Y38.161 F10800.000
G1 F8640
G1 X102.945 Y34.896 E-0.76000
G1 E-0.04000 F2100.00000
G1 Z0.800 F10800.000
G1 X43.666 Y32.494
G1 Z0.200
G1 E0.80000 F2100.00000
