;FLAVOR:RepRap
;TIME:2235
;Generated with Cura_SteamEngine 2.3.1
M190 S60
M104 S200
M109 S200
G21 ;metric values
G90 ;absolute positioning
M82 ;set extruder to absolute mode
M107 ;start with the fan off
G28 X0 Y0 ;move X/Y to min endstops
G28 Z0 ;move Z to min endstops
G1 Z15.0 F9000 ;move the platform down 15mm
G92 E0 ;zero the extruded length
G1 F200 E3 ;extrude 3mm of feed stock
G92 E0 ;zero the extruded length again
G1 F9000
M117 Printing...
;LAYER_COUNT:131
;LAYER:0
M107
G1 F1500 E-6.5
G0 F6000 X51.461 Y47.125 Z.3
;TYPE:SKIRT
G1 F1500 E0
G1 F1800 X51.896 Y46.764 E0.0282
G1 X52.377 Y46.467 E0.05641
G1 X52.896 Y46.241 E0.08465
G1 X53.44 Y46.091 E0.1128
G1 X54.229 Y46.012 E0.15236
G1 X65.766 Y46.01 E0.72794
G1 X66.33 Y46.05 E0.75615
G1 X66.883 Y46.169 E0.78437
G1 X67.413 Y46.364 E0.81255
G1 X67.911 Y46.633 E0.84079
G1 X68.365 Y46.969 E0.86896
G1 X68.768 Y47.366 E0.89719
G1 X69.231 Y48.01 E0.93676
G1 X74.998 Y57.999 E1.5122
G1 X75.245 Y58.507 E1.54038
G1 X75.419 Y59.046 E1.56864
G1 X75.514 Y59.603 E1.59683
G1 X75.53 Y60.168 E1.62503
G1 X75.467 Y60.73 E1.65325
G1 X75.324 Y61.277 E1.68145
G1 X74.999 Y61.998 E1.72091
G1 X69.234 Y71.988 E2.29635
G1 X68.917 Y72.457 E2.32459
G1 X68.538 Y72.876 E2.35278
G1 X68.103 Y73.237 E2.38098
G1 X67.622 Y73.534 E2.40918
G1 X67.104 Y73.76 E2.43738
G1 X66.559 Y73.91 E2.46558
G1 X65.769 Y73.989 E2.50519
G1 X54.233 Y73.99 E3.08072
G1 X53.669 Y73.95 E3.10893
G1 X53.117 Y73.831 E3.1371
G1 X52.586 Y73.635 E3.16534
G1 X52.089 Y73.367 E3.19351
G1 X51.634 Y73.031 E3.22173
G1 X51.232 Y72.634 E3.24992
G1 X50.769 Y71.99 E3.28949
G1 X45.002 Y62 E3.86498
G1 X44.754 Y61.491 E3.89322
G1 X44.581 Y60.953 E3.92142
G1 X44.486 Y60.396 E3.94961
G1 X44.47 Y59.831 E3.97781
G1 X44.533 Y59.269 E4.00602
G1 X44.676 Y58.722 E4.03423
G1 X45.002 Y58.001 E4.07371
G1 X50.766 Y48.013 E4.64903
G1 X51.082 Y47.544 E4.67725
G1 X51.461 Y47.125 E4.70543
G0 F6000 X51.778 Y47.376
G1 F1800 X52.197 Y47.041 E4.7322
G1 X52.661 Y46.772 E4.75896
G1 X53.16 Y46.575 E4.78572
G1 X53.682 Y46.454 E4.81245
G1 X54.229 Y46.412 E4.83982
G1 X65.766 Y46.41 E5.41541
G1 X66.301 Y46.45 E5.44217
G1 X66.824 Y46.569 E5.46893
G1 X67.324 Y46.764 E5.49571
G1 X67.789 Y47.031 E5.52246
G1 X68.209 Y47.365 E5.54923
G1 X68.575 Y47.757 E5.57599
G1 X68.885 Y48.21 E5.60337
G1 X74.652 Y58.199 E6.17882
G1 X74.885 Y58.682 E6.20557
G1 X75.043 Y59.194 E6.2323
G1 X75.124 Y59.725 E6.2591
G1 X75.124 Y60.261 E6.28584
G1 X75.046 Y60.791 E6.31257
G1 X74.889 Y61.304 E6.33934
G1 X74.652 Y61.798 E6.36667
G1 X68.887 Y71.788 E6.94211
G1 X68.585 Y72.232 E6.9689
G1 X68.221 Y72.625 E6.99562
G1 X67.802 Y72.96 E7.02239
G1 X67.338 Y73.229 E7.04915
G1 X66.839 Y73.426 E7.07591
G1 X66.317 Y73.547 E7.10264
G1 X65.769 Y73.589 E7.13006
G1 X54.233 Y73.59 E7.7056
G1 X53.699 Y73.55 E7.73231
G1 X53.176 Y73.431 E7.75907
G1 X52.676 Y73.236 E7.78585
G1 X52.211 Y72.969 E7.8126
G1 X51.791 Y72.635 E7.83937
G1 X51.425 Y72.243 E7.86613
G1 X51.115 Y71.79 E7.89351
G1 X45.348 Y61.8 E8.469
G1 X45.115 Y61.317 E8.49576
G1 X44.957 Y60.804 E8.52254
G1 X44.876 Y60.274 E8.54928
G1 X44.876 Y59.738 E8.57603
G1 X44.954 Y59.207 E8.6028
G1 X45.111 Y58.695 E8.62952
G1 X45.348 Y58.201 E8.65685
G1 X51.112 Y48.213 E9.23218
G1 X51.414 Y47.769 E9.25897
G1 X51.778 Y47.376 E9.2857
G0 F6000 X52.093 Y47.63
G1 F1800 X52.495 Y47.323 E9.31093
G1 X52.94 Y47.083 E9.33616
G1 X53.418 Y46.917 E9.3614
G1 X53.915 Y46.827 E9.3866
G1 X54.229 Y46.812 E9.40228
G1 X65.766 Y46.81 E9.97787
G1 X66.27 Y46.85 E10.00309
G1 X66.762 Y46.969 E10.02834
G1 X67.228 Y47.163 E10.05353
G1 X67.659 Y47.429 E10.07879
G1 X68.041 Y47.759 E10.10398
G1 X68.368 Y48.145 E10.12922
G1 X68.538 Y48.41 E10.14493
G1 X74.305 Y58.399 E10.72037
G1 X74.523 Y58.855 E10.74559
G1 X74.666 Y59.34 E10.77081
G1 X74.73 Y59.842 E10.79606
G1 X74.715 Y60.347 E10.82127
G1 X74.62 Y60.844 E10.84651
G1 X74.449 Y61.319 E10.8717
G1 X74.306 Y61.598 E10.88734
G1 X68.541 Y71.588 E11.46278
G1 X68.254 Y72.005 E11.48803
G1 X67.906 Y72.371 E11.51323
G1 X67.504 Y72.678 E11.53846
G1 X67.059 Y72.918 E11.56369
G1 X66.581 Y73.084 E11.58893
G1 X66.084 Y73.173 E11.61412
G1 X65.769 Y73.189 E11.62986
G1 X54.233 Y73.19 E12.20539
G1 X53.729 Y73.15 E12.23062
G1 X53.238 Y73.031 E12.25582
G1 X52.771 Y72.837 E12.28105
G1 X52.341 Y72.571 E12.30628
G1 X51.958 Y72.241 E12.3315
G1 X51.632 Y71.854 E12.35674
G1 X51.462 Y71.59 E12.37241
G1 X45.695 Y61.6 E12.9479
G1 X45.477 Y61.143 E12.97316
G1 X45.334 Y60.658 E12.99838
G1 X45.27 Y60.157 E13.02358
G1 X45.285 Y59.652 E13.04879
G1 X45.38 Y59.155 E13.07403
G1 X45.551 Y58.679 E13.09927
G1 X45.694 Y58.401 E13.11486
G1 X51.458 Y48.413 E13.69019
G1 X51.745 Y47.996 E13.71545
G1 X52.093 Y47.63 E13.74064
G1 F1500 E7.24064
G0 F6000 X53.467 Y49.986
G0 X54.592 Y50.634
G0 X54.803 Y51
;TYPE:WALL-INNER
G1 F1500 E13.74064
G1 F1800 X65.197 Y51 E14.2592
G1 X70.393 Y60 E14.77767
G1 X65.197 Y69 E15.29614
G1 X54.803 Y69 E15.8147
G1 X49.607 Y60 E16.33317
G1 X54.803 Y51 E16.85164
G0 F6000 X54.572 Y50.6
G1 F1800 X65.428 Y50.6 E17.39325
G1 X70.854 Y60 E17.93474
G1 X65.428 Y69.4 E18.47623
G1 X54.572 Y69.4 E19.01784
G1 X49.146 Y60 E19.55933
G1 X54.572 Y50.6 E20.10082
G0 F6000 X54.341 Y50.2
;TYPE:WALL-OUTER
G1 F1800 X65.659 Y50.2 E20.66547
G1 X71.315 Y60 E21.22999
G1 X65.659 Y69.8 E21.7945
G1 X54.341 Y69.8 E22.35915
G1 X48.685 Y60 E22.92366
G1 X54.341 Y50.2 E23.48817
G0 F6000 X54.622 Y50.686
G0 X55.14 Y51.18
;TYPE:SKIN
G1 F1800 X67.906 Y63.947 E24.38892
G0 X67.976 Y64.017
G0 F6000 X67.699 Y64.305
G1 F1800 X54.783 Y51.389 E25.30021
G0 X54.713 Y51.319
G0 F6000 X54.576 Y51.748
G1 F1800 X67.492 Y64.664 E26.21151
G0 X67.562 Y64.734
G0 F6000 X67.285 Y65.022
G1 F1800 X54.37 Y52.107 E27.12273
G0 X54.3 Y52.037
G0 F6000 X54.162 Y52.465
G1 F1800 X67.078 Y65.381 E28.03402
G0 X67.148 Y65.451
G0 F6000 X66.871 Y65.74
G1 F1800 X53.955 Y52.824 E28.94532
G0 X53.885 Y52.754
G0 F6000 X53.748 Y53.182
G1 F1800 X66.664 Y66.098 E29.85661
G0 X66.734 Y66.168
G0 F6000 X66.457 Y66.457
G1 F1800 X53.541 Y53.541 E30.7679
G0 X53.471 Y53.471
G0 F6000 X53.334 Y53.9
G1 F1800 X66.25 Y66.816 E31.6792
G0 X66.32 Y66.886
G0 F6000 X66.043 Y67.175
G1 F1800 X53.127 Y54.259 E32.59049
G0 X53.057 Y54.189
G0 F6000 X52.92 Y54.617
G1 F1800 X65.836 Y67.533 E33.50178
G0 X65.906 Y67.603
G0 F6000 X65.629 Y67.892
G1 F1800 X52.713 Y54.976 E34.41308
G0 X52.643 Y54.906
G0 F6000 X52.506 Y55.335
G1 F1800 X65.422 Y68.251 E35.32437
G0 X65.492 Y68.321
G0 F6000 X65.215 Y68.609
G1 F1800 X52.299 Y55.693 E36.23566
G0 X52.229 Y55.623
G0 F6000 X52.092 Y56.052
G1 F1800 X64.859 Y68.819 E37.13644
G0 X64.929 Y68.889
G0 F6000 X64.293 Y68.819
G1 F1800 X51.885 Y56.41 E38.01193
G0 X51.815 Y56.34
G0 F6000 X51.678 Y56.769
G1 F1800 X63.727 Y68.819 E38.86209
G0 X63.797 Y68.889
G0 F6000 X63.162 Y68.819
G1 F1800 X51.471 Y57.128 E39.68695
G0 X51.401 Y57.058
G0 F6000 X51.264 Y57.487
G1 F1800 X62.596 Y68.819 E40.48649
G0 X62.666 Y68.889
G0 F6000 X62.03 Y68.819
G1 F1800 X51.057 Y57.845 E41.26073
G0 X50.987 Y57.775
G0 F6000 X50.85 Y58.204
G1 F1800 X61.465 Y68.819 E42.00967
G0 X61.535 Y68.889
G0 F6000 X60.899 Y68.819
G1 F1800 X50.642 Y58.562 E42.73336
G0 X50.572 Y58.492
G0 F6000 X50.436 Y58.921
G1 F1800 X60.333 Y68.819 E43.43168
G0 X60.403 Y68.889
G0 F6000 X59.768 Y68.819
G1 F1800 X50.229 Y59.28 E44.10471
G0 X50.159 Y59.21
G0 F6000 X50.022 Y59.638
G1 F1800 X59.202 Y68.819 E44.75244
G0 X59.272 Y68.889
G0 F6000 X58.636 Y68.819
G1 F1800 X49.814 Y59.997 E45.37488
G0 X49.744 Y59.927
G0 F6000 X50.585 Y61.333
G1 F1800 X58.071 Y68.819 E45.90306
G0 X58.141 Y68.889
G0 F6000 X57.505 Y68.819
G1 F1800 X51.357 Y62.67 E46.33687
G0 X51.287 Y62.6
G0 F6000 X52.129 Y64.008
G1 F1800 X56.939 Y68.819 E46.67628
G0 X57.009 Y68.889
G0 F6000 X56.374 Y68.819
G1 F1800 X52.901 Y65.346 E46.92131
G0 X52.831 Y65.276
G0 F6000 X53.674 Y66.685
G1 F1800 X55.808 Y68.819 E47.07188
G0 X55.878 Y68.889
G0 F6000 X55.242 Y68.819
G1 F1800 X54.446 Y68.022 E47.12808
G0 X54.376 Y67.952
G0 F6000 X68.113 Y63.587
G1 F1800 X55.705 Y51.18 E48.00349
G0 X55.635 Y51.11
G0 F6000 X56.271 Y51.18
G1 F1800 X68.32 Y63.229 E48.85362
G0 X68.39 Y63.299
G0 F6000 X68.527 Y62.87
G1 F1800 X56.837 Y51.18 E49.67841
G0 X56.767 Y51.11
G0 F6000 X57.402 Y51.18
G1 F1800 X68.735 Y62.512 E50.47798
G0 X68.805 Y62.582
G0 F6000 X68.941 Y62.153
G1 F1800 X57.968 Y51.18 E51.25218
G0 X57.898 Y51.11
G0 F6000 X58.534 Y51.18
G1 F1800 X69.148 Y61.794 E52.00106
G0 X69.218 Y61.864
G0 F6000 X69.355 Y61.436
G1 F1800 X59.099 Y51.18 E52.72467
G0 X59.029 Y51.11
G0 F6000 X59.665 Y51.18
G1 F1800 X69.563 Y61.077 E53.42299
G0 X69.633 Y61.147
G0 F6000 X69.769 Y60.718
G1 F1800 X60.231 Y51.18 E54.09595
G0 X60.161 Y51.11
G0 F6000 X60.797 Y51.18
G1 F1800 X69.976 Y60.36 E54.74362
G0 X70.046 Y60.43
G0 F6000 X70.183 Y60.001
G1 F1800 X61.362 Y51.18 E55.36598
G0 X61.292 Y51.11
G0 F6000 X61.928 Y51.18
G1 F1800 X69.413 Y58.665 E55.89409
G0 X69.483 Y58.735
G0 F6000 X68.641 Y57.327
G1 F1800 X62.494 Y51.18 E56.3278
G0 X62.424 Y51.11
G0 F6000 X63.059 Y51.18
G1 F1800 X67.869 Y55.99 E56.66717
G0 X67.939 Y56.06
G0 F6000 X67.097 Y54.652
G1 F1800 X63.625 Y51.18 E56.91214
G0 X63.555 Y51.11
G0 F6000 X64.191 Y51.18
G1 F1800 X66.325 Y53.314 E57.0627
G0 X66.395 Y53.384
G0 F6000 X65.553 Y51.976
G1 F1800 X64.756 Y51.18 E57.1189
G0 X64.686 Y51.11
;TIME_ELAPSED:48.518551
;LAYER:1
M106 S255
G0 F6000 X65.197 Y51 Z.475
;TYPE:WALL-INNER
G1 F1800 X70.393 Y60 E57.42134
G1 X65.197 Y69 E57.72378
G1 X54.803 Y69 E58.02627
G1 X49.607 Y60 E58.32871
G1 X54.803 Y51 E58.63116
G1 X65.197 Y51 E58.93365
G0 F6000 X65.428 Y50.6
G1 F1800 X70.854 Y60 E59.24952
G1 X65.428 Y69.4 E59.56539
G1 X54.572 Y69.4 E59.88132
G1 X49.146 Y60 E60.19719
G1 X54.572 Y50.6 E60.51306
G1 X65.428 Y50.6 E60.829
G0 F6000 X65.659 Y50.2
;TYPE:WALL-OUTER
G1 F1350 X71.315 Y60 E61.1583
G1 X65.659 Y69.8 E61.4876
G1 X54.341 Y69.8 E61.81698
G1 X48.685 Y60 E62.14628
G1 X54.341 Y50.2 E62.47557
G1 X65.659 Y50.2 E62.80496
G0 F6000 X65.378 Y50.686
G0 X65.187 Y51.343
;TYPE:SKIN
G1 F1350 X52.273 Y64.257 E63.33646
G0 X52.203 Y64.327
G0 F6000 X52.066 Y63.899
G1 F1350 X64.785 Y51.18 E63.85994
G0 X64.855 Y51.11
G0 F6000 X64.219 Y51.18
G1 F1350 X51.859 Y63.539 E64.36863
G0 X51.789 Y63.609
G0 F6000 X51.652 Y63.181
G1 F1350 X63.653 Y51.18 E64.86256
G0 X63.723 Y51.11
G0 F6000 X63.088 Y51.18
G1 F1350 X51.445 Y62.822 E65.34173
G0 X51.375 Y62.892
G0 F6000 X51.238 Y62.464
G1 F1350 X62.522 Y51.18 E65.80615
G0 X62.592 Y51.11
G0 F6000 X61.956 Y51.18
G1 F1350 X51.031 Y62.105 E66.25579
G0 X50.961 Y62.175
G0 F6000 X50.824 Y61.746
G1 F1350 X61.391 Y51.18 E66.69068
G0 X61.461 Y51.11
G0 F6000 X60.825 Y51.18
G1 F1350 X50.617 Y61.388 E67.11082
G0 X50.547 Y61.458
G0 F6000 X50.41 Y61.029
G1 F1350 X60.259 Y51.18 E67.51617
G0 X60.329 Y51.11
G0 F6000 X59.693 Y51.18
G1 F1350 X50.203 Y60.671 E67.90678
G0 X50.133 Y60.741
G0 F6000 X49.996 Y60.311
G1 F1350 X59.128 Y51.18 E68.28261
G0 X59.198 Y51.11
G0 F6000 X58.562 Y51.18
G1 F1350 X49.911 Y59.831 E68.63866
G0 X49.841 Y59.901
G0 F6000 X50.683 Y58.493
G1 F1350 X57.996 Y51.18 E68.93964
G0 X58.066 Y51.11
G0 F6000 X57.431 Y51.18
G1 F1350 X51.456 Y57.154 E69.18554
G0 X51.386 Y57.224
G0 F6000 X52.229 Y55.816
G1 F1350 X56.865 Y51.18 E69.37634
G0 X56.935 Y51.11
G0 F6000 X56.299 Y51.18
G1 F1350 X53.001 Y54.478 E69.51208
G0 X52.931 Y54.548
G0 F6000 X53.774 Y53.14
G1 F1350 X55.734 Y51.18 E69.59275
G0 X55.804 Y51.11
G0 F6000 X55.168 Y51.18
G1 F1350 X54.546 Y51.801 E69.61833
G0 X54.476 Y51.871
G0 F6000 X65.393 Y51.702
G1 F1350 X52.48 Y64.616 E70.14981
G0 X52.41 Y64.686
G0 F6000 X52.687 Y64.974
G1 F1350 X65.601 Y52.061 E70.6813
G0 X65.671 Y51.991
G0 F6000 X65.808 Y52.419
G1 F1350 X52.894 Y65.333 E71.2128
G0 X52.824 Y65.403
G0 F6000 X53.101 Y65.692
G1 F1350 X66.015 Y52.778 E71.74431
G0 X66.085 Y52.708
G0 F6000 X66.222 Y53.136
G1 F1350 X53.308 Y66.05 E72.27581
G0 X53.238 Y66.12
G0 F6000 X53.515 Y66.409
G1 F1350 X66.429 Y53.496 E72.8073
G0 X66.499 Y53.426
G0 F6000 X66.636 Y53.854
G1 F1350 X53.723 Y66.767 E73.33876
G0 X53.653 Y66.837
G0 F6000 X53.929 Y67.127
G1 F1350 X66.843 Y54.213 E73.87027
G0 X66.913 Y54.143
G0 F6000 X67.05 Y54.571
G1 F1350 X54.136 Y67.485 E74.40177
G0 X54.066 Y67.555
G0 F6000 X54.343 Y67.844
G1 F1350 X67.257 Y54.93 E74.93328
G0 X67.327 Y54.86
G0 F6000 X67.464 Y55.289
G1 F1350 X54.551 Y68.202 E75.46474
G0 X54.481 Y68.272
G0 F6000 X54.757 Y68.561
G1 F1350 X67.671 Y55.647 E75.99625
G0 X67.741 Y55.577
G0 F6000 X67.878 Y56.006
G1 F1350 X55.065 Y68.819 E76.5236
G0 X54.995 Y68.889
G0 F6000 X55.631 Y68.819
G1 F1350 X68.085 Y56.365 E77.03617
G0 X68.155 Y56.295
G0 F6000 X68.292 Y56.724
G1 F1350 X56.197 Y68.819 E77.53397
G0 X56.127 Y68.889
G0 F6000 X56.762 Y68.819
G1 F1350 X68.499 Y57.082 E78.01703
G0 X68.569 Y57.012
G0 F6000 X68.706 Y57.441
G1 F1350 X57.328 Y68.819 E78.48532
G0 X57.258 Y68.889
G0 F6000 X57.894 Y68.819
G1 F1350 X68.913 Y57.8 E78.93883
G0 X68.983 Y57.73
G0 F6000 X69.12 Y58.158
G1 F1350 X58.46 Y68.819 E79.37759
G0 X58.39 Y68.889
G0 F6000 X59.025 Y68.819
G1 F1350 X69.327 Y58.517 E79.80159
G0 X69.397 Y58.447
G0 F6000 X69.534 Y58.875
G1 F1350 X59.591 Y68.819 E80.21084
G0 X59.521 Y68.889
G0 F6000 X60.157 Y68.819
G1 F1350 X69.741 Y59.235 E80.60529
G0 X69.811 Y59.165
G0 F6000 X69.948 Y59.593
G1 F1350 X60.722 Y68.819 E80.98501
G0 X60.652 Y68.889
G0 F6000 X61.288 Y68.819
G1 F1350 X70.155 Y59.952 E81.34995
G0 X70.225 Y59.882
G0 F6000 X69.515 Y61.157
G1 F1350 X61.854 Y68.819 E81.66528
G0 X61.784 Y68.889
G0 F6000 X62.419 Y68.819
G1 F1350 X68.743 Y62.495 E81.92556
G0 X68.813 Y62.425
G0 F6000 X67.971 Y63.833
G1 F1350 X62.985 Y68.819 E82.13077
G0 X62.915 Y68.889
G0 F6000 X63.551 Y68.819
G1 F1350 X67.199 Y65.17 E82.28093
G0 X67.269 Y65.1
G0 F6000 X66.427 Y66.508
G1 F1350 X64.116 Y68.819 E82.37604
G0 X64.046 Y68.889
G0 F6000 X64.682 Y68.819
G1 F1350 X65.655 Y67.846 E82.41609
G0 X65.725 Y67.776
;TIME_ELAPSED:87.328990
;LAYER:2
G0 F6000 X65.725 Y67.776 Z.65
G0 X65.197 Y69
;TYPE:WALL-INNER
G1 F1800 X54.803 Y69 E82.71858
G1 X49.607 Y60 E83.02102
G1 X54.803 Y51 E83.32347
G1 X65.197 Y51 E83.62596
G1 X70.393 Y60 E83.9284
G1 X65.197 Y69 E84.23084
G0 F6000 X65.428 Y69.4
G1 F1800 X54.572 Y69.4 E84.54678
G1 X49.146 Y60 E84.86265
G1 X54.572 Y50.6 E85.17852
G1 X65.428 Y50.6 E85.49445
G1 X70.854 Y60 E85.81032
G1 X65.428 Y69.4 E86.12619
G0 F6000 X65.659 Y69.8
;TYPE:WALL-OUTER
G1 F900 X54.341 Y69.8 E86.45558
G1 X48.685 Y60 E86.78487
G1 X54.341 Y50.2 E87.11417
G1 X65.659 Y50.2 E87.44356
G1 X71.315 Y60 E87.77285
G1 X65.659 Y69.8 E88.10215
G0 F6000 X65.378 Y69.314
G0 X64.859 Y68.819
;TYPE:SKIN
G1 F900 X52.092 Y56.052 E88.62761
G0 X52.022 Y55.982
G0 F6000 X51.885 Y56.41
G1 F900 X64.293 Y68.819 E89.13831
G0 X64.363 Y68.889
G0 F6000 X63.727 Y68.819
G1 F900 X51.678 Y56.769 E89.63423
G0 X51.608 Y56.699
G0 F6000 X51.471 Y57.128
G1 F900 X63.162 Y68.819 E90.1154
G0 X63.232 Y68.889
G0 F6000 X62.596 Y68.819
G1 F900 X51.264 Y57.487 E90.5818
G0 X51.194 Y57.417
G0 F6000 X51.057 Y57.845
G1 F900 X62.03 Y68.819 E91.03344
G0 X62.1 Y68.889
G0 F6000 X61.465 Y68.819
G1 F900 X50.85 Y58.204 E91.47032
G0 X50.78 Y58.134
G0 F6000 X50.642 Y58.562
G1 F900 X60.899 Y68.819 E91.89247
G0 X60.969 Y68.889
G0 F6000 X60.333 Y68.819
G1 F900 X50.436 Y58.921 E92.29983
G0 X50.366 Y58.851
G0 F6000 X50.229 Y59.28
G1 F900 X59.768 Y68.819 E92.69243
G0 X59.838 Y68.889
G0 F6000 X59.202 Y68.819
G1 F900 X50.022 Y59.638 E93.07027
G0 X49.952 Y59.568
G0 F6000 X49.814 Y59.997
G1 F900 X58.636 Y68.819 E93.43336
G0 X58.706 Y68.889
G0 F6000 X58.071 Y68.819
G1 F900 X50.585 Y61.333 E93.74146
G0 X50.515 Y61.263
G0 F6000 X51.357 Y62.67
G1 F900 X57.505 Y68.819 E93.99452
G0 X57.575 Y68.889
G0 F6000 X56.939 Y68.819
G1 F900 X52.129 Y64.008 E94.19251
G0 X52.059 Y63.938
G0 F6000 X52.901 Y65.346
G1 F900 X56.374 Y68.819 E94.33545
G0 X56.444 Y68.889
G0 F6000 X55.808 Y68.819
G1 F900 X53.674 Y66.685 E94.42328
G0 X53.604 Y66.615
G0 F6000 X54.446 Y68.022
G1 F900 X55.242 Y68.819 E94.45606
G0 X55.312 Y68.889
G0 F6000 X65.215 Y68.609
G1 F900 X52.299 Y55.693 E94.98765
G0 X52.229 Y55.623
G0 F6000 X52.506 Y55.335
G1 F900 X65.422 Y68.251 E95.51923
G0 X65.492 Y68.321
G0 F6000 X65.629 Y67.892
G1 F900 X52.713 Y54.976 E96.05082
G0 X52.643 Y54.906
G0 F6000 X52.92 Y54.617
G1 F900 X65.836 Y67.533 E96.58241
G0 X65.906 Y67.603
