;FLAVOR:RepRap
;TIME:2174
;Generated with Cura_SteamEngine 2.3.1
M190 S60
M104 S200
M109 S200
G21 ;metric values
G90 ;absolute positioning
M82 ;set extruder to absolute mode
M107 ;start with the fan off
G28 X0 Y0 ;move X/Y to min endstops
G28 Z0 ;move Z to min endstops
G1 Z15.0 F9000 ;move the platform down 15mm
G92 E0 ;zero the extruded length
G1 F200 E3 ;extrude 3mm of feed stock
G92 E0 ;zero the extruded length again
G1 F9000
;Put printing message on LCD screen
M117 Printing...
;LAYER_COUNT:123
;LAYER:0
M107
G1 F1500 E-6.5
G0 F6000 X49.314 Y49.743 Z.3
;TYPE:SKIRT
G1 F1500 E0
G1 F1800 X50.854 Y48.35 E0.1036
G1 X51.339 Y47.974 E0.13422
G1 X52.4 Y47.276 E0.19758
G1 X52.832 Y47.029 E0.2224
G1 X54.088 Y46.411 E0.29224
G1 X54.561 Y46.215 E0.31778
G1 X55.872 Y45.767 E0.3869
G1 X56.343 Y45.637 E0.41128
G1 X57.596 Y45.374 E0.47516
G1 X58.214 Y45.294 E0.50624
G1 X60.269 Y45.189 E0.6089
G1 X61.032 Y45.223 E0.64701
G1 X63.101 Y45.515 E0.75125
G1 X63.723 Y45.654 E0.78305
G1 X65.021 Y46.055 E0.85083
G1 X65.495 Y46.235 E0.87612
G1 X66.734 Y46.798 E0.94402
G1 X67.184 Y47.039 E0.96949
G1 X68.386 Y47.783 E1.04001
G1 X68.796 Y48.073 E1.06507
G1 X69.835 Y48.913 E1.13172
G1 X70.291 Y49.346 E1.1631
G1 X71.655 Y50.859 E1.26473
G1 X72.026 Y51.339 E1.29499
G1 X72.724 Y52.4 E1.35835
G1 X72.971 Y52.832 E1.38318
G1 X73.589 Y54.088 E1.45302
G1 X73.785 Y54.56 E1.47852
G1 X74.233 Y55.87 E1.54759
G1 X74.363 Y56.343 E1.57206
G1 X74.626 Y57.597 E1.63598
G1 X74.706 Y58.208 E1.66673
G1 X74.812 Y60.229 E1.76769
G1 X74.78 Y60.985 E1.80545
G1 X74.495 Y63.054 E1.90964
G1 X74.358 Y63.673 E1.94127
G1 X73.97 Y64.947 E2.00771
G1 X73.795 Y65.415 E2.03264
G1 X73.235 Y66.667 E2.10107
G1 X73.005 Y67.107 E2.12584
G1 X72.313 Y68.249 E2.19246
G1 X71.936 Y68.771 E2.22458
G1 X70.557 Y70.389 E2.33064
G1 X70.112 Y70.835 E2.36208
G1 X69.122 Y71.681 E2.42705
G1 X68.729 Y71.976 E2.45156
G1 X67.61 Y72.716 E2.51849
G1 X67.055 Y73.024 E2.55016
G1 X65.139 Y73.892 E2.6551
G1 X64.546 Y74.106 E2.68655
G1 X63.262 Y74.458 E2.75297
G1 X62.758 Y74.561 E2.77864
G1 X61.356 Y74.757 E2.84927
G1 X60.872 Y74.795 E2.87349
G1 X59.621 Y74.817 E2.93591
G1 X59.001 Y74.78 E2.9669
G1 X56.942 Y74.494 E3.07061
G1 X56.327 Y74.359 E3.10202
G1 X55.049 Y73.97 E3.16867
G1 X54.579 Y73.794 E3.19371
G1 X53.331 Y73.235 E3.26193
G1 X52.892 Y73.004 E3.28668
G1 X51.749 Y72.311 E3.35336
G1 X51.332 Y72.021 E3.37871
G1 X50.23 Y71.144 E3.44897
G1 X49.757 Y70.7 E3.48134
G1 X48.354 Y69.152 E3.58557
G1 X47.97 Y68.655 E3.6169
G1 X47.249 Y67.552 E3.68264
G1 X47.006 Y67.125 E3.70715
G1 X46.408 Y65.906 E3.77489
G1 X46.219 Y65.452 E3.79943
G1 X45.794 Y64.224 E3.86426
G1 X45.662 Y63.749 E3.88885
G1 X45.379 Y62.42 E3.95665
G1 X45.305 Y61.924 E3.98166
G1 X45.191 Y60.575 E4.04921
G1 X45.181 Y60.062 E4.0748
G1 X45.244 Y58.63 E4.14632
G1 X45.3 Y58.113 E4.17226
G1 X45.537 Y56.765 E4.24054
G1 X45.652 Y56.287 E4.26507
G1 X46.034 Y55.039 E4.33019
G1 X46.205 Y54.583 E4.35448
G1 X46.74 Y53.381 E4.42012
G1 X46.972 Y52.936 E4.44516
G1 X47.701 Y51.732 E4.51538
G1 X47.997 Y51.309 E4.54114
G1 X48.871 Y50.214 E4.61104
G1 X49.314 Y49.743 E4.6433
G0 F6000 X49.582 Y50.039
G1 F1800 X51.122 Y48.646 E4.74689
G1 X51.558 Y48.308 E4.77442
G1 X52.619 Y47.61 E4.83778
G1 X53.009 Y47.388 E4.86017
G1 X54.265 Y46.77 E4.93
G1 X54.69 Y46.593 E4.95297
G1 X56.001 Y46.145 E5.02209
G1 X56.425 Y46.029 E5.04402
G1 X57.678 Y45.766 E5.1079
G1 X58.234 Y45.694 E5.13587
G1 X60.289 Y45.589 E5.23853
G1 X60.976 Y45.619 E5.27283
G1 X63.045 Y45.911 E5.37708
G1 X63.605 Y46.036 E5.40571
G1 X64.903 Y46.437 E5.47348
G1 X65.329 Y46.599 E5.49622
G1 X66.568 Y47.162 E5.56412
G1 X66.974 Y47.379 E5.58708
G1 X68.176 Y48.123 E5.65761
G1 X68.544 Y48.384 E5.68012
G1 X69.583 Y49.224 E5.74678
G1 X69.994 Y49.613 E5.77501
G1 X71.358 Y51.126 E5.87664
G1 X71.692 Y51.558 E5.90388
G1 X72.39 Y52.619 E5.96724
G1 X72.612 Y53.009 E5.98963
G1 X73.23 Y54.265 E6.05947
G1 X73.406 Y54.689 E6.08237
G1 X73.854 Y55.999 E6.15144
G1 X73.971 Y56.425 E6.17348
G1 X74.234 Y57.679 E6.23741
G1 X74.306 Y58.229 E6.26508
G1 X74.412 Y60.25 E6.36605
G1 X74.383 Y60.93 E6.4
G1 X74.098 Y62.999 E6.5042
G1 X73.976 Y63.557 E6.5327
G1 X73.588 Y64.831 E6.59914
G1 X73.43 Y65.252 E6.62158
G1 X72.87 Y66.504 E6.69
G1 X72.663 Y66.9 E6.71229
G1 X71.971 Y68.042 E6.77891
G1 X71.632 Y68.511 E6.80778
G1 X70.253 Y70.129 E6.91385
G1 X69.852 Y70.531 E6.94217
G1 X68.862 Y71.377 E7.00714
G1 X68.509 Y71.643 E7.02919
G1 X67.39 Y72.383 E7.09613
G1 X66.89 Y72.659 E7.12462
G1 X64.974 Y73.527 E7.22956
G1 X64.44 Y73.72 E7.25789
G1 X63.156 Y74.072 E7.32431
G1 X62.702 Y74.165 E7.34743
G1 X61.3 Y74.361 E7.41806
G1 X60.865 Y74.395 E7.43983
G1 X59.614 Y74.417 E7.50225
G1 X59.056 Y74.384 E7.53013
G1 X56.997 Y74.098 E7.63385
G1 X56.444 Y73.976 E7.6621
G1 X55.166 Y73.587 E7.72875
G1 X54.742 Y73.428 E7.75134
G1 X53.494 Y72.869 E7.81956
G1 X53.1 Y72.662 E7.84177
G1 X51.957 Y71.969 E7.90845
G1 X51.581 Y71.708 E7.93129
G1 X50.479 Y70.831 E8.00155
G1 X50.054 Y70.432 E8.03064
G1 X48.651 Y68.884 E8.13487
G1 X48.305 Y68.436 E8.16311
G1 X47.584 Y67.333 E8.22885
G1 X47.365 Y66.949 E8.2509
G1 X46.767 Y65.73 E8.31864
G1 X46.597 Y65.321 E8.34074
G1 X46.172 Y64.093 E8.40557
G1 X46.053 Y63.666 E8.42769
G1 X45.77 Y62.337 E8.49548
G1 X45.704 Y61.89 E8.51802
G1 X45.59 Y60.541 E8.58556
G1 X45.58 Y60.08 E8.60857
G1 X45.643 Y58.648 E8.68008
G1 X45.694 Y58.183 E8.70342
G1 X45.931 Y56.835 E8.7717
G1 X46.035 Y56.404 E8.79382
G1 X46.417 Y55.156 E8.85893
G1 X46.57 Y54.746 E8.88077
G1 X47.105 Y53.544 E8.94641
G1 X47.314 Y53.143 E8.96897
G1 X48.043 Y51.939 E9.03919
G1 X48.309 Y51.558 E9.06237
G1 X49.183 Y50.463 E9.13227
G1 X49.582 Y50.039 E9.16131
G0 F6000 X49.85 Y50.336
G1 F1800 X51.39 Y48.943 E9.26491
G1 X51.778 Y48.643 E9.28938
G1 X52.839 Y47.945 E9.35274
G1 X53.185 Y47.747 E9.37263
G1 X54.441 Y47.129 E9.44247
G1 X54.819 Y46.972 E9.46289
G1 X56.13 Y46.524 E9.53201
G1 X56.508 Y46.42 E9.55157
G1 X57.761 Y46.157 E9.61544
G1 X58.255 Y46.093 E9.64029
G1 X60.31 Y45.988 E9.74295
G1 X60.92 Y46.015 E9.77342
G1 X62.989 Y46.307 E9.87766
G1 X63.487 Y46.419 E9.90313
G1 X64.785 Y46.82 E9.9709
G1 X65.164 Y46.964 E9.99113
G1 X66.403 Y47.527 E10.05903
G1 X66.763 Y47.719 E10.07938
G1 X67.965 Y48.463 E10.14991
G1 X68.293 Y48.696 E10.16998
G1 X69.332 Y49.536 E10.23664
G1 X69.697 Y49.881 E10.2617
G1 X71.061 Y51.394 E10.36333
G1 X71.357 Y51.778 E10.38752
G1 X72.055 Y52.839 E10.45088
G1 X72.253 Y53.185 E10.47076
G1 X72.871 Y54.441 E10.5406
G1 X73.028 Y54.819 E10.56102
G1 X73.476 Y56.129 E10.63009
G1 X73.58 Y56.507 E10.64965
G1 X73.843 Y57.761 E10.71358
G1 X73.907 Y58.25 E10.73818
G1 X74.013 Y60.271 E10.83915
G1 X73.987 Y60.876 E10.86936
G1 X73.702 Y62.945 E10.97356
G1 X73.593 Y63.44 E10.99884
G1 X73.205 Y64.714 E11.06529
G1 X73.065 Y65.089 E11.08526
G1 X72.505 Y66.341 E11.15368
G1 X72.321 Y66.692 E11.17345
G1 X71.629 Y67.834 E11.24007
G1 X71.327 Y68.252 E11.2658
G1 X69.948 Y69.87 E11.37186
G1 X69.592 Y70.227 E11.39702
G1 X68.602 Y71.073 E11.46199
G1 X68.288 Y71.309 E11.48158
G1 X67.169 Y72.049 E11.54851
G1 X66.725 Y72.295 E11.57384
G1 X64.809 Y73.163 E11.67878
G1 X64.334 Y73.334 E11.70396
G1 X63.05 Y73.686 E11.77039
G1 X62.647 Y73.769 E11.79091
G1 X61.245 Y73.965 E11.86154
G1 X60.858 Y73.996 E11.88091
G1 X59.607 Y74.018 E11.94333
G1 X59.111 Y73.988 E11.96812
G1 X57.052 Y73.702 E12.07183
G1 X56.56 Y73.593 E12.09697
G1 X55.282 Y73.204 E12.16362
G1 X54.906 Y73.063 E12.18366
G1 X53.658 Y72.504 E12.25188
G1 X53.307 Y72.32 E12.27165
G1 X52.164 Y71.627 E12.33834
G1 X51.83 Y71.395 E12.35863
G1 X50.728 Y70.518 E12.42889
G1 X50.35 Y70.163 E12.45476
G1 X48.947 Y68.615 E12.55899
G1 X48.639 Y68.217 E12.5841
G1 X47.918 Y67.114 E12.64984
G1 X47.724 Y66.772 E12.66946
G1 X47.126 Y65.553 E12.7372
G1 X46.975 Y65.191 E12.75677
G1 X46.55 Y63.963 E12.8216
G1 X46.444 Y63.582 E12.84133
G1 X46.161 Y62.253 E12.90912
G1 X46.102 Y61.856 E12.92914
G1 X45.988 Y60.507 E12.99669
G1 X45.98 Y60.097 E13.01714
G1 X46.043 Y58.665 E13.08866
G1 X46.088 Y58.252 E13.10938
G1 X46.325 Y56.904 E13.17767
G1 X46.417 Y56.521 E13.19732
G1 X46.799 Y55.273 E13.26243
G1 X46.936 Y54.909 E13.28184
G1 X47.471 Y53.707 E13.34748
G1 X47.657 Y53.351 E13.36751
G1 X48.386 Y52.147 E13.43774
G1 X48.622 Y51.808 E13.45834
G1 X49.496 Y50.713 E13.52824
G1 X49.85 Y50.336 E13.55404
G1 F1500 E7.05404
G0 F6000 X51.654 Y52.087
G0 X52.576 Y53.01
G0 X52.83 Y53.266
;TYPE:WALL-INNER
G1 F1500 E13.55404
G1 F1800 X53.273 Y52.824 E13.58526
G1 X53.738 Y52.413 E13.61622
G1 X54.226 Y52.037 E13.64696
G1 X54.749 Y51.682 E13.6785
G1 X55.268 Y51.376 E13.70855
G1 X55.807 Y51.101 E13.73874
G1 X56.376 Y50.855 E13.76967
G1 X56.978 Y50.64 E13.80156
G1 X57.553 Y50.472 E13.83145
G1 X58.173 Y50.335 E13.86313
G1 X58.788 Y50.236 E13.8942
G1 X59.37 Y50.183 E13.92336
G1 X60.006 Y50.162 E13.95511
G1 X60.64 Y50.184 E13.98676
G1 X61.228 Y50.24 E14.01622
G1 X61.868 Y50.341 E14.04855
G1 X62.43 Y50.467 E14.07728
G1 X63.064 Y50.653 E14.11025
G1 X63.618 Y50.852 E14.13961
G1 X64.188 Y51.1 E14.17063
G1 X64.752 Y51.387 E14.2022
G1 X65.26 Y51.688 E14.23166
G1 X65.792 Y52.048 E14.26371
G1 X66.269 Y52.418 E14.29382
G1 X66.734 Y52.83 E14.32482
G1 X67.176 Y53.273 E14.35604
G1 X67.587 Y53.738 E14.387
G1 X67.963 Y54.225 E14.4177
G1 X68.319 Y54.75 E14.44934
G1 X68.616 Y55.252 E14.47844
G1 X68.899 Y55.807 E14.50952
G1 X69.161 Y56.414 E14.54251
G1 X69.349 Y56.937 E14.57023
G1 X69.525 Y57.542 E14.60167
G1 X69.667 Y58.182 E14.63438
G1 X69.762 Y58.78 E14.66458
G1 X69.817 Y59.359 E14.6936
G1 X69.838 Y59.994 E14.7253
G1 X69.817 Y60.634 E14.75725
G1 X69.765 Y61.21 E14.7861
G1 X69.668 Y61.817 E14.81677
G1 X69.528 Y62.447 E14.84896
G1 X69.365 Y63.011 E14.87825
G1 X69.143 Y63.631 E14.91111
G1 X68.912 Y64.168 E14.94027
G1 X68.632 Y64.719 E14.97111
G1 X68.315 Y65.257 E15.00226
G1 X67.973 Y65.761 E15.03265
G1 X67.584 Y66.265 E15.06441
G1 X67.177 Y66.726 E15.09509
G1 X66.744 Y67.16 E15.12568
G1 X66.264 Y67.584 E15.15763
G1 X65.795 Y67.949 E15.18728
G1 X65.268 Y68.307 E15.21907
G1 X64.753 Y68.612 E15.24893
G1 X64.189 Y68.899 E15.2805
G1 X63.619 Y69.147 E15.31151
G1 X63.065 Y69.346 E15.34088
G1 X62.431 Y69.532 E15.37384
G1 X61.869 Y69.658 E15.40258
G1 X61.229 Y69.759 E15.4349
G1 X60.64 Y69.815 E15.46442
G1 X60.005 Y69.837 E15.49612
G1 X59.371 Y69.818 E15.52776
G1 X58.789 Y69.765 E15.55692
G1 X58.174 Y69.666 E15.588
G1 X57.549 Y69.528 E15.61993
G1 X56.975 Y69.36 E15.64977
G1 X56.381 Y69.148 E15.68123
G1 X55.815 Y68.903 E15.712
G1 X55.258 Y68.62 E15.74317
G1 X54.737 Y68.311 E15.77339
G1 X54.219 Y67.96 E15.80461
G1 X53.748 Y67.596 E15.83431
G1 X53.274 Y67.177 E15.86587
G1 X52.831 Y66.735 E15.89709
G1 X52.419 Y66.27 E15.92809
G1 X52.049 Y65.793 E15.9582
G1 X51.685 Y65.257 E15.99053
G1 X51.38 Y64.74 E16.02048
G1 X51.09 Y64.168 E16.05247
G1 X50.853 Y63.619 E16.0823
G1 X50.646 Y63.045 E16.11275
G1 X50.465 Y62.422 E16.14511
G1 X50.34 Y61.857 E16.17398
G1 X50.241 Y61.231 E16.2056
G1 X50.185 Y60.642 E16.23512
G1 X50.162 Y59.997 E16.26732
G1 X50.184 Y59.345 E16.29987
G1 X50.24 Y58.766 E16.32889
G1 X50.343 Y58.12 E16.36152
G1 X50.464 Y57.579 E16.38918
G1 X50.645 Y56.956 E16.42155
G1 X50.856 Y56.371 E16.45257
G1 X51.089 Y55.833 E16.48182
G1 X51.387 Y55.246 E16.51467
G1 X51.688 Y54.738 E16.54413
G1 X52.056 Y54.198 E16.57673
G1 X52.418 Y53.731 E16.60621
G1 X52.83 Y53.266 E16.6372
G0 F6000 X52.547 Y52.983
G1 F1800 X53 Y52.531 E16.66913
G1 X53.48 Y52.107 E16.70108
G1 X53.988 Y51.715 E16.73309
G1 X54.536 Y51.343 E16.76614
G1 X55.069 Y51.029 E16.797
G1 X55.639 Y50.738 E16.82893
G1 X56.236 Y50.48 E16.86138
G1 X56.848 Y50.261 E16.89381
G1 X57.459 Y50.083 E16.92556
G1 X58.092 Y49.943 E16.9579
G1 X58.734 Y49.84 E16.99034
G1 X59.353 Y49.783 E17.02135
G1 X60.007 Y49.762 E17.054
G1 X60.658 Y49.784 E17.08649
G1 X61.281 Y49.843 E17.11771
G1 X61.937 Y49.947 E17.15085
G1 X62.54 Y50.082 E17.18168
G1 X63.177 Y50.269 E17.2148
G1 X63.778 Y50.485 E17.24666
G1 X64.357 Y50.737 E17.27817
G1 X64.941 Y51.034 E17.31085
G1 X65.484 Y51.356 E17.34235
G1 X66.022 Y51.721 E17.37478
G1 X66.52 Y52.107 E17.40622
G1 X67.017 Y52.547 E17.43933
G1 X67.469 Y53 E17.47126
G1 X67.893 Y53.48 E17.50321
G1 X68.289 Y53.993 E17.53554
G1 X68.65 Y54.525 E17.56762
G1 X68.972 Y55.07 E17.5992
G1 X69.262 Y55.639 E17.63106
G1 X69.528 Y56.255 E17.66454
G1 X69.733 Y56.825 E17.69476
G1 X69.916 Y57.455 E17.72749
G1 X70.058 Y58.095 E17.7602
G1 X70.159 Y58.729 E17.79222
G1 X70.217 Y59.346 E17.82314
G1 X70.238 Y59.994 E17.85549
G1 X70.217 Y60.649 E17.88818
G1 X70.161 Y61.265 E17.91904
G1 X70.059 Y61.904 E17.95133
G1 X69.918 Y62.54 E17.98383
G1 X69.742 Y63.146 E18.01531
G1 X69.52 Y63.766 E18.04816
G1 X69.269 Y64.349 E18.07983
G1 X68.977 Y64.922 E18.11192
G1 X68.658 Y65.463 E18.14325
G1 X68.29 Y66.006 E18.17598
G1 X67.896 Y66.516 E18.20813
G1 X67.47 Y66.999 E18.24026
G1 X67.018 Y67.452 E18.27218
G1 X66.525 Y67.888 E18.30502
G1 X66.025 Y68.276 E18.33659
G1 X65.487 Y68.642 E18.36906
G1 X64.942 Y68.965 E18.40066
G1 X64.358 Y69.262 E18.43335
G1 X63.779 Y69.514 E18.46485
G1 X63.178 Y69.73 E18.49672
G1 X62.541 Y69.917 E18.52984
G1 X61.938 Y70.052 E18.56067
G1 X61.282 Y70.156 E18.5938
G1 X60.659 Y70.215 E18.62502
G1 X60.006 Y70.237 E18.65762
G1 X59.354 Y70.218 E18.69016
G1 X58.735 Y70.161 E18.72118
G1 X58.09 Y70.058 E18.75376
G1 X57.458 Y69.918 E18.78606
G1 X56.85 Y69.74 E18.81766
G1 X56.236 Y69.521 E18.85019
G1 X55.64 Y69.263 E18.88259
G1 X55.07 Y68.973 E18.91449
G1 X54.528 Y68.652 E18.94592
G1 X53.986 Y68.285 E18.97858
G1 X53.488 Y67.9 E19.00998
G1 X53.001 Y67.47 E19.04239
G1 X52.548 Y67.018 E19.07432
G1 X52.108 Y66.521 E19.10744
G1 X51.722 Y66.023 E19.13887
G1 X51.354 Y65.482 E19.17151
G1 X51.028 Y64.93 E19.2035
G1 X50.733 Y64.349 E19.23601
G1 X50.482 Y63.768 E19.26758
G1 X50.265 Y63.166 E19.29951
G1 X50.081 Y62.534 E19.33235
G1 X49.946 Y61.928 E19.36332
G1 X49.844 Y61.282 E19.39595
G1 X49.785 Y60.661 E19.42707
G1 X49.762 Y59.998 E19.46017
G1 X49.784 Y59.332 E19.49341
G1 X49.843 Y58.717 E19.52424
G1 X49.948 Y58.057 E19.55758
G1 X50.08 Y57.467 E19.58774
G1 X50.264 Y56.835 E19.62058
G1 X50.485 Y56.222 E19.65309
G1 X50.732 Y55.652 E19.68408
G1 X51.034 Y55.058 E19.71733
G1 X51.353 Y54.519 E19.74858
G1 X51.725 Y53.973 E19.78154
G1 X52.107 Y53.48 E19.81265
G1 X52.547 Y52.983 E19.84577
G0 F6000 X52.255 Y52.709
;TYPE:WALL-OUTER
G1 F1800 X52.727 Y52.238 E19.87904
G1 X53.229 Y51.795 E19.91244
G1 X53.748 Y51.394 E19.94516
G1 X54.311 Y51.012 E19.9791
G1 X54.882 Y50.675 E20.01218
G1 X55.471 Y50.375 E20.04516
G1 X56.096 Y50.105 E20.07913
G1 X56.718 Y49.882 E20.11209
G1 X57.368 Y49.693 E20.14586
G1 X58.008 Y49.551 E20.17857
G1 X58.68 Y49.444 E20.21252
G1 X59.336 Y49.383 E20.24539
G1 X60.007 Y49.362 E20.27888
G1 X60.677 Y49.384 E20.31232
G1 X61.334 Y49.446 E20.34525
G1 X62.006 Y49.553 E20.3792
G1 X62.65 Y49.697 E20.41212
G1 X63.294 Y49.886 E20.4456
G1 X63.927 Y50.114 E20.47917
G1 X64.532 Y50.377 E20.51208
G1 X65.13 Y50.681 E20.54555
G1 X65.705 Y51.022 E20.5789
G1 X66.252 Y51.394 E20.6119
G1 X66.78 Y51.803 E20.64523
G1 X67.291 Y52.255 E20.67926
G1 X67.762 Y52.727 E20.71253
G1 X68.205 Y53.229 E20.74593
G1 X68.606 Y53.748 E20.77865
G1 X68.988 Y54.311 E20.8126
G1 X69.322 Y54.876 E20.84534
G1 X69.625 Y55.471 E20.87865
G1 X69.895 Y56.096 E20.91262
G1 X70.117 Y56.713 E20.94533
G1 X70.307 Y57.368 E20.97936
G1 X70.449 Y58.008 E21.01206
G1 X70.556 Y58.68 E21.04601
G1 X70.617 Y59.333 E21.07873
G1 X70.638 Y59.994 E21.11173
G1 X70.617 Y60.665 E21.14522
G1 X70.557 Y61.319 E21.17799
G1 X70.45 Y61.991 E21.21193
G1 X70.308 Y62.631 E21.24464
G1 X70.119 Y63.281 E21.27841
G1 X69.896 Y63.903 E21.31138
G1 X69.627 Y64.527 E21.34528
G1 X69.329 Y65.112 E21.37803
G1 X68.989 Y65.688 E21.4114
G1 X68.607 Y66.251 E21.44535
G1 X68.206 Y66.77 E21.47807
G1 X67.763 Y67.272 E21.51147
G1 X67.292 Y67.744 E21.54474
G1 X66.783 Y68.194 E21.57863
G1 X66.255 Y68.603 E21.61195
G1 X65.706 Y68.977 E21.64509
G1 X65.131 Y69.318 E21.67845
G1 X64.533 Y69.622 E21.71191
G1 X63.928 Y69.885 E21.74483
G1 X63.295 Y70.113 E21.77839
G1 X62.651 Y70.302 E21.81188
G1 X62.007 Y70.446 E21.8448
G1 X61.335 Y70.553 E21.87875
G1 X60.678 Y70.615 E21.91167
G1 X60.008 Y70.637 E21.94512
G1 X59.337 Y70.618 E21.97861
G1 X58.681 Y70.557 E22.01148
G1 X58.009 Y70.45 E22.04542
