;FLAVOR:RepRap
;TIME:2278
;Generated with Cura_SteamEngine 2.3.1
M190 S60
M104 S200
M109 S200
G21 ;metric values
G90 ;absolute positioning
M82 ;set extruder to absolute mode
M107 ;start with the fan off
G28 X0 Y0 ;move X/Y to min endstops
G28 Z0 ;move Z to min endstops
G1 Z15.0 F9000 ;move the platform down 15mm
G92 E0 ;zero the extruded length
G1 F200 E3 ;extrude 3mm of feed stock
G92 E0 ;zero the extruded length again
G1 F9000
;Put printing message on LCD screen
M117 Printing...
;LAYER_COUNT:114
;LAYER:0
M107
G1 F1500 E-6.5
G0 F6000 X47.365 Y47.007 Z.3
;TYPE:SKIRT
G1 F1500 E0
G1 F1800 X47.815 Y46.665 E0.0282
G1 X48.308 Y46.389 E0.05639
G1 X48.836 Y46.185 E0.08463
G1 X49.386 Y46.058 E0.11279
G1 X50.009 Y46.009 E0.14397
G1 X69.991 Y46.01 E1.14087
G1 X70.555 Y46.05 E1.16908
G1 X71.108 Y46.169 E1.1973
G1 X71.638 Y46.365 E1.22549
G1 X72.136 Y46.633 E1.25371
G1 X72.59 Y46.97 E1.28192
G1 X72.993 Y47.366 E1.3101
G1 X73.336 Y47.816 E1.33833
G1 X73.611 Y48.309 E1.3665
G1 X73.815 Y48.837 E1.39474
G1 X73.942 Y49.388 E1.42295
G1 X73.991 Y50.01 E1.45407
G1 X73.991 Y69.991 E2.45093
G1 X73.951 Y70.555 E2.47914
G1 X73.832 Y71.108 E2.50736
G1 X73.636 Y71.638 E2.53555
G1 X73.368 Y72.135 E2.56372
G1 X73.032 Y72.59 E2.59194
G1 X72.635 Y72.993 E2.62016
G1 X72.185 Y73.335 E2.64836
G1 X71.692 Y73.611 E2.67655
G1 X71.164 Y73.815 E2.70479
G1 X70.614 Y73.942 E2.73295
G1 X69.991 Y73.991 E2.76413
G1 X50.009 Y73.991 E3.76104
G1 X49.445 Y73.951 E3.78924
G1 X48.892 Y73.832 E3.81747
G1 X48.362 Y73.636 E3.84566
G1 X47.865 Y73.368 E3.87383
G1 X47.41 Y73.032 E3.90205
G1 X47.007 Y72.635 E3.93027
G1 X46.665 Y72.185 E3.95847
G1 X46.389 Y71.692 E3.98666
G1 X46.185 Y71.164 E4.0149
G1 X46.058 Y70.614 E4.04306
G1 X46.009 Y69.991 E4.07424
G1 X46.009 Y50.009 E5.07114
G1 X46.049 Y49.445 E5.09935
G1 X46.168 Y48.892 E5.12757
G1 X46.364 Y48.362 E5.15576
G1 X46.632 Y47.865 E5.18393
G1 X46.968 Y47.41 E5.21215
G1 X47.365 Y47.007 E5.24037
G0 F6000 X47.756 Y47.201
G1 F1800 X48.198 Y46.898 E5.26711
G1 X48.681 Y46.663 E5.29391
G1 X49.192 Y46.503 E5.32062
G1 X49.722 Y46.42 E5.34739
G1 X50.009 Y46.409 E5.36172
G1 X69.991 Y46.41 E6.35862
G1 X70.526 Y46.45 E6.38539
G1 X71.049 Y46.569 E6.41215
G1 X71.548 Y46.764 E6.43888
G1 X72.013 Y47.032 E6.46565
G1 X72.433 Y47.365 E6.49239
G1 X72.799 Y47.757 E6.51915
G1 X73.103 Y48.199 E6.54591
G1 X73.337 Y48.682 E6.57269
G1 X73.497 Y49.194 E6.59945
G1 X73.58 Y49.723 E6.62617
G1 X73.591 Y50.01 E6.64049
G1 X73.591 Y69.991 E7.63735
G1 X73.551 Y70.526 E7.66412
G1 X73.432 Y71.049 E7.69088
G1 X73.237 Y71.548 E7.7176
G1 X72.969 Y72.013 E7.74438
G1 X72.636 Y72.433 E7.77112
G1 X72.244 Y72.799 E7.79788
G1 X71.802 Y73.102 E7.82461
G1 X71.319 Y73.337 E7.85141
G1 X70.808 Y73.497 E7.87812
G1 X70.278 Y73.58 E7.90489
G1 X69.991 Y73.591 E7.91922
G1 X50.009 Y73.591 E8.91612
G1 X49.474 Y73.551 E8.94289
G1 X48.951 Y73.432 E8.96965
G1 X48.452 Y73.237 E8.99638
G1 X47.987 Y72.969 E9.02315
G1 X47.567 Y72.636 E9.04989
G1 X47.201 Y72.244 E9.07665
G1 X46.898 Y71.802 E9.10339
G1 X46.663 Y71.319 E9.13018
G1 X46.503 Y70.808 E9.1569
G1 X46.42 Y70.278 E9.18366
G1 X46.409 Y69.991 E9.19799
G1 X46.409 Y50.009 E10.1949
G1 X46.449 Y49.474 E10.22166
G1 X46.568 Y48.951 E10.24842
G1 X46.763 Y48.452 E10.27515
G1 X47.031 Y47.987 E10.30193
G1 X47.364 Y47.567 E10.32867
G1 X47.756 Y47.201 E10.35542
G0 F6000 X48.145 Y47.408
G1 F1800 X48.578 Y47.147 E10.38065
G1 X49.046 Y46.957 E10.40585
G1 X49.539 Y46.844 E10.43108
G1 X50.009 Y46.809 E10.45459
G1 X69.991 Y46.81 E11.4515
G1 X70.495 Y46.85 E11.47672
G1 X70.987 Y46.969 E11.50198
G1 X71.453 Y47.164 E11.52718
G1 X71.883 Y47.429 E11.55238
G1 X72.266 Y47.76 E11.57763
G1 X72.592 Y48.146 E11.60284
G1 X72.853 Y48.579 E11.62806
G1 X73.043 Y49.048 E11.65331
G1 X73.156 Y49.54 E11.6785
G1 X73.191 Y50.01 E11.70201
G1 X73.191 Y69.991 E12.69887
G1 X73.151 Y70.495 E12.72409
G1 X73.032 Y70.986 E12.74929
G1 X72.838 Y71.453 E12.77452
G1 X72.572 Y71.883 E12.79975
G1 X72.242 Y72.266 E12.82497
G1 X71.855 Y72.592 E12.85022
G1 X71.422 Y72.853 E12.87544
G1 X70.954 Y73.043 E12.90064
G1 X70.461 Y73.156 E12.92587
G1 X69.991 Y73.191 E12.94939
G1 X50.009 Y73.191 E13.94629
G1 X49.505 Y73.151 E13.97152
G1 X49.014 Y73.032 E13.99672
G1 X48.547 Y72.838 E14.02195
G1 X48.117 Y72.572 E14.04718
G1 X47.734 Y72.242 E14.0724
G1 X47.408 Y71.855 E14.09764
G1 X47.147 Y71.422 E14.12287
G1 X46.957 Y70.954 E14.14807
G1 X46.844 Y70.461 E14.1733
G1 X46.809 Y69.991 E14.19681
G1 X46.809 Y50.009 E15.19372
G1 X46.849 Y49.505 E15.21894
G1 X46.968 Y49.014 E15.24415
G1 X47.162 Y48.547 E15.26938
G1 X47.428 Y48.117 E15.2946
G1 X47.758 Y47.734 E15.31983
G1 X48.145 Y47.408 E15.34507
G1 F1500 E8.84507
G0 F6000 X50.628 Y49.335
G0 X50.628 Y50.628
G0 X51 Y51
;TYPE:WALL-INNER
G1 F1500 E15.34507
G1 F1800 X69 Y51 E16.24309
G1 X69 Y69 E17.14112
G1 X51 Y69 E18.03914
G1 X51 Y51 E18.93716
G0 F6000 X50.6 Y50.6
G1 F1800 X69.4 Y50.6 E19.8751
G1 X69.4 Y69.4 E20.81304
G1 X50.6 Y69.4 E21.75097
G1 X50.6 Y50.6 E22.68891
G0 F6000 X50.2 Y50.2
;TYPE:WALL-OUTER
G1 F1800 X69.8 Y50.2 E23.66676
G1 X69.8 Y69.8 E24.6446
G1 X50.2 Y69.8 E25.62245
G1 X50.2 Y50.2 E26.6003
G0 F6000 X50.67 Y50.67
G0 X51.179 Y51.179
;TYPE:SKIN
G1 F1800 X68.819 Y68.819 E27.8449
G0 X68.889 Y68.889
G0 F6000 X68.819 Y68.254
G1 F1800 X51.745 Y51.179 E29.0496
G0 X51.675 Y51.109
G0 F6000 X52.311 Y51.179
G1 F1800 X68.819 Y67.688 E30.21436
G0 X68.889 Y67.758
G0 F6000 X68.819 Y67.122
G1 F1800 X52.876 Y51.179 E31.33922
G0 X52.806 Y51.109
G0 F6000 X53.442 Y51.179
G1 F1800 X68.819 Y66.557 E32.42419
G0 X68.889 Y66.627
G0 F6000 X68.819 Y65.991
G1 F1800 X54.008 Y51.179 E33.46922
G0 X53.938 Y51.109
G0 F6000 X54.573 Y51.179
G1 F1800 X68.819 Y65.425 E34.47435
G0 X68.889 Y65.495
G0 F6000 X68.819 Y64.86
G1 F1800 X55.139 Y51.179 E35.43959
G0 X55.069 Y51.109
G0 F6000 X55.705 Y51.179
G1 F1800 X68.819 Y64.294 E36.36489
G0 X68.889 Y64.364
G0 F6000 X68.819 Y63.728
G1 F1800 X56.27 Y51.179 E37.25028
G0 X56.2 Y51.109
G0 F6000 X56.836 Y51.179
G1 F1800 X68.819 Y63.163 E38.09579
G0 X68.889 Y63.233
G0 F6000 X68.819 Y62.597
G1 F1800 X57.402 Y51.179 E38.90135
G0 X57.332 Y51.109
G0 F6000 X57.967 Y51.179
G1 F1800 X68.819 Y62.031 E39.66702
G0 X68.889 Y62.101
G0 F6000 X68.819 Y61.465
G1 F1800 X58.533 Y51.179 E40.39275
G0 X58.463 Y51.109
G0 F6000 X59.099 Y51.179
G1 F1800 X68.819 Y60.9 E41.07859
G0 X68.889 Y60.97
G0 F6000 X68.819 Y60.334
G1 F1800 X59.664 Y51.179 E41.72452
G0 X59.594 Y51.109
G0 F6000 X60.23 Y51.179
G1 F1800 X68.819 Y59.768 E42.33052
G0 X68.889 Y59.838
G0 F6000 X68.819 Y59.203
G1 F1800 X60.796 Y51.179 E42.89662
G0 X60.726 Y51.109
G0 F6000 X61.362 Y51.179
G1 F1800 X68.819 Y58.637 E43.42279
G0 X68.889 Y58.707
G0 F6000 X68.819 Y58.071
G1 F1800 X61.927 Y51.179 E43.90906
G0 X61.857 Y51.109
G0 F6000 X62.493 Y51.179
G1 F1800 X68.819 Y57.506 E44.35543
G0 X68.889 Y57.576
G0 F6000 X68.819 Y56.94
G1 F1800 X63.059 Y51.179 E44.76186
G0 X62.989 Y51.109
G0 F6000 X63.624 Y51.179
G1 F1800 X68.819 Y56.374 E45.1284
G0 X68.889 Y56.444
G0 F6000 X68.819 Y55.809
G1 F1800 X64.19 Y51.179 E45.45503
G0 X64.12 Y51.109
G0 F6000 X64.756 Y51.179
G1 F1800 X68.819 Y55.243 E45.74173
G0 X68.889 Y55.313
G0 F6000 X68.819 Y54.677
G1 F1800 X65.321 Y51.179 E45.98854
G0 X65.251 Y51.109
G0 F6000 X65.887 Y51.179
G1 F1800 X68.819 Y54.112 E46.19544
G0 X68.889 Y54.182
G0 F6000 X68.819 Y53.546
G1 F1800 X66.453 Y51.179 E46.36241
G0 X66.383 Y51.109
G0 F6000 X67.018 Y51.179
G1 F1800 X68.819 Y52.98 E46.48948
G0 X68.889 Y53.05
G0 F6000 X68.819 Y52.414
G1 F1800 X67.584 Y51.179 E46.57662
G0 X67.514 Y51.109
G0 F6000 X68.15 Y51.179
G1 F1800 X68.819 Y51.849 E46.62385
G0 X68.889 Y51.919
G0 F6000 X68.819 Y51.283
G1 F1800 X68.715 Y51.179 E46.63119
G0 F6000 X51.179 Y51.745
G1 F1800 X68.253 Y68.819 E47.83585
G0 X68.323 Y68.889
G0 F6000 X67.687 Y68.819
G1 F1800 X51.179 Y52.311 E49.00058
G0 X51.109 Y52.241
G0 F6000 X51.179 Y52.876
G1 F1800 X67.122 Y68.819 E50.12545
G0 X67.192 Y68.889
G0 F6000 X66.556 Y68.819
G1 F1800 X51.179 Y53.442 E51.21038
G0 X51.109 Y53.372
G0 F6000 X51.179 Y54.008
G1 F1800 X65.99 Y68.819 E52.25537
G0 X66.06 Y68.889
G0 F6000 X65.425 Y68.819
G1 F1800 X51.179 Y54.573 E53.2605
G0 X51.109 Y54.503
G0 F6000 X51.179 Y55.139
G1 F1800 X64.859 Y68.819 E54.2257
G0 X64.929 Y68.889
G0 F6000 X64.293 Y68.819
G1 F1800 X51.179 Y55.705 E55.15097
G0 X51.109 Y55.635
G0 F6000 X51.179 Y56.27
G1 F1800 X63.727 Y68.819 E56.03633
G0 X63.797 Y68.889
G0 F6000 X63.162 Y68.819
G1 F1800 X51.179 Y56.836 E56.8818
G0 X51.109 Y56.766
G0 F6000 X51.179 Y57.402
G1 F1800 X62.596 Y68.819 E57.68733
G0 X62.666 Y68.889
G0 F6000 X62.03 Y68.819
G1 F1800 X51.179 Y57.967 E58.45296
G0 X51.109 Y57.897
G0 F6000 X51.179 Y58.533
G1 F1800 X61.465 Y68.819 E59.17869
G0 X61.535 Y68.889
G0 F6000 X60.899 Y68.819
G1 F1800 X51.179 Y59.099 E59.86449
G0 X51.109 Y59.029
G0 F6000 X51.179 Y59.664
G1 F1800 X60.333 Y68.819 E60.51039
G0 X60.403 Y68.889
G0 F6000 X59.768 Y68.819
G1 F1800 X51.179 Y60.23 E61.11639
G0 X51.109 Y60.16
G0 F6000 X51.179 Y60.796
G1 F1800 X59.202 Y68.819 E61.68246
G0 X59.272 Y68.889
G0 F6000 X58.636 Y68.819
G1 F1800 X51.179 Y61.362 E62.20859
G0 X51.109 Y61.292
G0 F6000 X51.179 Y61.927
G1 F1800 X58.071 Y68.819 E62.69486
G0 X58.141 Y68.889
G0 F6000 X57.505 Y68.819
G1 F1800 X51.179 Y62.493 E63.14119
G0 X51.109 Y62.423
G0 F6000 X51.179 Y63.059
G1 F1800 X56.939 Y68.819 E63.54759
G0 X57.009 Y68.889
G0 F6000 X56.374 Y68.819
G1 F1800 X51.179 Y63.624 E63.91412
G0 X51.109 Y63.554
G0 F6000 X51.179 Y64.19
G1 F1800 X55.808 Y68.819 E64.24072
G0 X55.878 Y68.889
G0 F6000 X55.242 Y68.819
G1 F1800 X51.179 Y64.756 E64.52739
G0 X51.109 Y64.686
G0 F6000 X51.179 Y65.321
G1 F1800 X54.677 Y68.819 E64.77419
G0 X54.747 Y68.889
G0 F6000 X54.111 Y68.819
G1 F1800 X51.179 Y65.887 E64.98106
G0 X51.109 Y65.817
G0 F6000 X51.179 Y66.453
G1 F1800 X53.545 Y68.819 E65.148
G0 X53.615 Y68.889
G0 F6000 X52.979 Y68.819
G1 F1800 X51.179 Y67.018 E65.27503
G0 X51.109 Y66.948
G0 F6000 X51.179 Y67.584
G1 F1800 X52.414 Y68.819 E65.36217
G0 X52.484 Y68.889
G0 F6000 X51.848 Y68.819
G1 F1800 X51.179 Y68.15 E65.40937
G0 X51.109 Y68.08
G0 F6000 X51.179 Y68.715
G1 F1800 X51.282 Y68.819 E65.41667
;TIME_ELAPSED:54.486353
;LAYER:1
M106 S255
G0 F6000 X51 Y69 Z.475
;TYPE:WALL-INNER
G1 F1800 X51 Y51 E65.94052
G1 X69 Y51 E66.46437
G1 X69 Y69 E66.98821
G1 X51 Y69 E67.51206
G0 F6000 X50.6 Y69.4
G1 F1800 X50.6 Y50.6 E68.05919
G1 X69.4 Y50.6 E68.60632
G1 X69.4 Y69.4 E69.15345
G1 X50.6 Y69.4 E69.70058
G0 F6000 X50.2 Y69.8
;TYPE:WALL-OUTER
G1 F1350 X50.2 Y50.2 E70.27099
G1 X69.8 Y50.2 E70.8414
G1 X69.8 Y69.8 E71.41181
G1 X50.2 Y69.8 E71.98222
G0 F6000 X50.67 Y69.33
G0 X51.179 Y68.745
;TYPE:SKIN
G1 F1350 X68.745 Y51.179 E72.70519
G0 X68.815 Y51.109
G0 F6000 X68.819 Y51.671
G1 F1350 X51.671 Y68.819 E73.41096
G0 X51.601 Y68.889
G0 F6000 X52.236 Y68.819
G1 F1350 X68.819 Y52.237 E74.09345
G0 X68.889 Y52.167
G0 F6000 X68.819 Y52.803
G1 F1350 X52.802 Y68.819 E74.75264
G0 X52.732 Y68.889
G0 F6000 X53.368 Y68.819
G1 F1350 X68.819 Y53.368 E75.38857
G0 X68.889 Y53.298
G0 F6000 X68.819 Y53.934
G1 F1350 X53.933 Y68.819 E76.00121
G0 X53.863 Y68.889
G0 F6000 X54.499 Y68.819
G1 F1350 X68.819 Y54.5 E76.59057
G0 X68.889 Y54.43
G0 F6000 X68.819 Y55.065
G1 F1350 X55.065 Y68.819 E77.15664
G0 X54.995 Y68.889
G0 F6000 X55.63 Y68.819
G1 F1350 X68.819 Y55.631 E77.69945
G0 X68.889 Y55.561
G0 F6000 X68.819 Y56.197
G1 F1350 X56.196 Y68.819 E78.21896
G0 X56.126 Y68.889
G0 F6000 X56.762 Y68.819
G1 F1350 X68.819 Y56.762 E78.71519
G0 X68.889 Y56.692
G0 F6000 X68.819 Y57.328
G1 F1350 X57.327 Y68.819 E79.18815
G0 X57.257 Y68.889
G0 F6000 X57.893 Y68.819
G1 F1350 X68.819 Y57.894 E79.63781
G0 X68.889 Y57.824
G0 F6000 X68.819 Y58.46
G1 F1350 X58.459 Y68.819 E80.06418
G0 X58.389 Y68.889
G0 F6000 X59.025 Y68.819
G1 F1350 X68.819 Y59.025 E80.46728
G0 X68.889 Y58.955
G0 F6000 X68.819 Y59.591
G1 F1350 X59.59 Y68.819 E80.8471
G0 X59.52 Y68.889
G0 F6000 X60.156 Y68.819
G1 F1350 X68.819 Y60.157 E81.20362
G0 X68.889 Y60.087
G0 F6000 X68.819 Y60.722
G1 F1350 X60.722 Y68.819 E81.53687
G0 X60.652 Y68.889
G0 F6000 X61.287 Y68.819
G1 F1350 X68.819 Y61.288 E81.84685
G0 X68.889 Y61.218
G0 F6000 X68.819 Y61.854
G1 F1350 X61.853 Y68.819 E82.13353
G0 X61.783 Y68.889
G0 F6000 X62.419 Y68.819
G1 F1350 X68.819 Y62.419 E82.39694
G0 X68.889 Y62.349
G0 F6000 X68.819 Y62.985
G1 F1350 X62.984 Y68.819 E82.63707
G0 X62.914 Y68.889
G0 F6000 X63.55 Y68.819
G1 F1350 X68.819 Y63.551 E82.85391
G0 X68.889 Y63.481
G0 F6000 X68.819 Y64.116
G1 F1350 X64.116 Y68.819 E83.04747
G0 X64.046 Y68.889
G0 F6000 X64.681 Y68.819
G1 F1350 X68.819 Y64.682 E83.21776
G0 X68.889 Y64.612
G0 F6000 X68.819 Y65.248
G1 F1350 X65.247 Y68.819 E83.36475
G0 X65.177 Y68.889
G0 F6000 X65.813 Y68.819
G1 F1350 X68.819 Y65.813 E83.48847
G0 X68.889 Y65.743
G0 F6000 X68.819 Y66.379
G1 F1350 X66.378 Y68.819 E83.58891
G0 X66.308 Y68.889
G0 F6000 X66.944 Y68.819
G1 F1350 X68.819 Y66.945 E83.66606
G0 X68.889 Y66.875
G0 F6000 X68.819 Y67.511
G1 F1350 X67.51 Y68.819 E83.71992
G0 X67.44 Y68.889
G0 F6000 X68.075 Y68.819
G1 F1350 X68.819 Y68.076 E83.75052
G0 X68.889 Y68.006
G0 F6000 X68.819 Y68.642
G1 F1350 X68.641 Y68.819 E83.75782
G0 F6000 X51.179 Y68.179
G1 F1350 X68.179 Y51.179 E84.4575
G0 X68.249 Y51.109
G0 F6000 X67.614 Y51.179
G1 F1350 X51.179 Y67.614 E85.13392
G0 X51.109 Y67.684
G0 F6000 X51.179 Y67.048
G1 F1350 X67.048 Y51.179 E85.78704
G0 X67.118 Y51.109
G0 F6000 X66.482 Y51.179
G1 F1350 X51.179 Y66.482 E86.41688
G0 X51.109 Y66.552
G0 F6000 X51.179 Y65.917
G1 F1350 X65.917 Y51.179 E87.02345
G0 X65.987 Y51.109
G0 F6000 X65.351 Y51.179
G1 F1350 X51.179 Y65.351 E87.60673
G0 X51.109 Y65.421
G0 F6000 X51.179 Y64.785
G1 F1350 X64.785 Y51.179 E88.16672
G0 X64.855 Y51.109
G0 F6000 X64.22 Y51.179
G1 F1350 X51.179 Y64.22 E88.70345
G0 X51.109 Y64.29
G0 F6000 X51.179 Y63.654
G1 F1350 X63.654 Y51.179 E89.21689
G0 X63.724 Y51.109
G0 F6000 X63.088 Y51.179
G1 F1350 X51.179 Y63.088 E89.70703
G0 X51.109 Y63.158
G0 F6000 X51.179 Y62.523
G1 F1350 X62.523 Y51.179 E90.17392
G0 X62.593 Y51.109
G0 F6000 X61.957 Y51.179
G1 F1350 X51.179 Y61.957 E90.61751
G0 X51.109 Y62.027
G0 F6000 X51.179 Y61.391
G1 F1350 X61.391 Y51.179 E91.03781
G0 X61.461 Y51.109
G0 F6000 X60.826 Y51.179
G1 F1350 X51.179 Y60.826 E91.43486
G0 X51.109 Y60.896
G0 F6000 X51.179 Y60.26
G1 F1350 X60.26 Y51.179 E91.80861
G0 X60.33 Y51.109
G0 F6000 X59.694 Y51.179
G1 F1350 X51.179 Y59.694 E92.15906
G0 X51.109 Y59.764
G0 F6000 X51.179 Y59.128
G1 F1350 X59.128 Y51.179 E92.48622
G0 X59.198 Y51.109
G0 F6000 X58.563 Y51.179
G1 F1350 X51.179 Y58.563 E92.79013
G0 X51.109 Y58.633
G0 F6000 X51.179 Y57.997
G1 F1350 X57.997 Y51.179 E93.07074
G0 X58.067 Y51.109
G0 F6000 X57.431 Y51.179
G1 F1350 X51.179 Y57.431 E93.32805
G0 X51.109 Y57.501
G0 F6000 X51.179 Y56.866
G1 F1350 X56.866 Y51.179 E93.56211
G0 X56.936 Y51.109
G0 F6000 X56.3 Y51.179
G1 F1350 X51.179 Y56.3 E93.77288
G0 X51.109 Y56.37
G0 F6000 X51.179 Y55.734
G1 F1350 X55.734 Y51.179 E93.96035
G0 X55.804 Y51.109
G0 F6000 X55.169 Y51.179
G1 F1350 X51.179 Y55.169 E94.12457
G0 X51.109 Y55.239
G0 F6000 X51.179 Y54.603
G1 F1350 X54.603 Y51.179 E94.26549
G0 X54.673 Y51.109
G0 F6000 X54.037 Y51.179
G1 F1350 X51.179 Y54.037 E94.38312
G0 X51.109 Y54.107
G0 F6000 X51.179 Y53.472
G1 F1350 X53.472 Y51.179 E94.47749
G0 X53.542 Y51.109
G0 F6000 X52.906 Y51.179
G1 F1350 X51.179 Y52.906 E94.54857
G0 X51.109 Y52.976
G0 F6000 X51.179 Y52.34
G1 F1350 X52.34 Y51.179 E94.59636
G0 X52.41 Y51.109
G0 F6000 X51.775 Y51.179
G1 F1350 X51.179 Y51.775 E94.62089
G0 X51.109 Y51.845
;TIME_ELAPSED:99.448367
;LAYER:2
G0 F6000 X51.109 Y51.845 Z.65
G0 X51 Y51
;TYPE:WALL-INNER
G1 F1800 X69 Y51 E95.14473
G1 X69 Y69 E95.66858
G1 X51 Y69 E96.19243
G1 X51 Y51 E96.71628
G0 F6000 X50.6 Y50.6
G1 F1800 X69.4 Y50.6 E97.2634
G1 X69.4 Y69.4 E97.81053
G1 X50.6 Y69.4 E98.35766
G1 X50.6 Y50.6 E98.90479
G0 F6000 X50.2 Y50.2
;TYPE:WALL-OUTER
G1 F900 X69.8 Y50.2 E99.4752
G1 X69.8 Y69.8 E100.04561
G1 X50.2 Y69.8 E100.61603
G1 X50.2 Y50.2 E101.18644
G0 F6000 X50.67 Y50.67
G0 X51.179 Y51.179
;TYPE:SKIN
G1 F900 X68.819 Y68.819 E101.91245
G0 X68.889 Y68.889
G0 F6000 X68.819 Y68.254
G1 F900 X51.745 Y51.179 E102.61519
G0 X51.675 Y51.109
G0 F6000 X52.311 Y51.179
