;FLAVOR:RepRap
;TIME:2486
;Generated with Cura_SteamEngine 2.3.1
M190 S60
M104 S200
M109 S200
G21 ;metric values
G90 ;absolute positioning
M82 ;set extruder to absolute mode
M107 ;start with the fan off
G28 X0 Y0 ;move X/Y to min endstops
G28 Z0 ;move Z to min endstops
G1 Z15.0 F9000 ;move the platform down 15mm
G92 E0 ;zero the extruded length
G1 F200 E3 ;extrude 3mm of feed stock
G92 E0 ;zero the extruded length again
G1 F9000
;Put printing message on LCD screen
M117 Printing...
;LAYER_COUNT:142
;LAYER:0
M107
G1 F1500 E-6.5
G0 F6000 X50.942 Y50.999 Z.3
;TYPE:SKIRT
G1 F1500 E0
G1 F1800 X51.48 Y50.469 E0.03768
G1 X52.204 Y49.87 E0.08456
G1 X52.588 Y49.586 E0.10839
G1 X53.356 Y49.08 E0.15427
G1 X53.946 Y48.753 E0.18792
G1 X55.46 Y48.06 E0.27099
G1 X56.116 Y47.821 E0.30583
G1 X57.083 Y47.553 E0.35589
G1 X57.56 Y47.449 E0.38025
G1 X58.456 Y47.305 E0.42552
G1 X59.047 Y47.25 E0.45513
G1 X60.244 Y47.221 E0.51487
G1 X60.929 Y47.258 E0.54909
G1 X62.416 Y47.455 E0.62393
G1 X63.131 Y47.611 E0.66044
G1 X64.361 Y47.989 E0.72464
G1 X65.05 Y48.267 E0.7617
G1 X66.455 Y48.976 E0.84022
G1 X66.949 Y49.267 E0.86882
G1 X67.519 Y49.655 E0.90322
G1 X67.981 Y50.016 E0.93248
G1 X69.066 Y50.989 E1.00518
G1 X69.655 Y51.634 E1.04876
G1 X70.744 Y53.094 E1.13963
G1 X71.109 Y53.672 E1.17374
G1 X71.529 Y54.468 E1.21864
G1 X71.781 Y55.041 E1.24987
G1 X72.23 Y56.298 E1.31646
G1 X72.422 Y57.028 E1.35412
G1 X72.7 Y58.635 E1.43548
G1 X72.764 Y59.335 E1.47055
G1 X72.777 Y60.477 E1.52753
G1 X72.722 Y61.219 E1.56465
G1 X72.468 Y62.814 E1.64523
G1 X72.291 Y63.532 E1.68212
G1 X71.977 Y64.46 E1.731
G1 X71.777 Y64.951 E1.75745
G1 X71.213 Y66.128 E1.82256
G1 X70.867 Y66.726 E1.85703
G1 X70.155 Y67.758 E1.91958
G1 X69.701 Y68.313 E1.95536
G1 X68.657 Y69.396 E2.0304
G1 X68.173 Y69.829 E2.0628
G1 X67.383 Y70.437 E2.11254
G1 X66.899 Y70.76 E2.14157
G1 X65.872 Y71.353 E2.20073
G1 X65.323 Y71.621 E2.23121
G1 X64.271 Y72.047 E2.28784
G1 X63.766 Y72.217 E2.31442
G1 X62.873 Y72.458 E2.36057
G1 X62.392 Y72.56 E2.3851
G1 X61.502 Y72.696 E2.43002
G1 X60.796 Y72.746 E2.46533
G1 X58.993 Y72.729 E2.55528
G1 X58.266 Y72.661 E2.59171
G1 X57.268 Y72.484 E2.64228
G1 X56.78 Y72.369 E2.66729
G1 X55.877 Y72.1 E2.7143
G1 X55.192 Y71.832 E2.751
G1 X53.597 Y71.048 E2.83966
G1 X52.975 Y70.675 E2.87585
G1 X52.054 Y70.015 E2.93238
G1 X51.594 Y69.637 E2.96208
G1 X50.863 Y68.946 E3.01227
G1 X50.474 Y68.526 E3.04083
G1 X49.769 Y67.66 E3.09654
G1 X49.428 Y67.178 E3.12599
G1 X48.79 Y66.135 E3.18699
G1 X48.472 Y65.509 E3.22202
G1 X47.915 Y64.151 E3.29525
G1 X47.689 Y63.428 E3.33304
G1 X47.4 Y62.116 E3.40007
G1 X47.302 Y61.384 E3.43691
G1 X47.225 Y59.812 E3.51543
G1 X47.252 Y59.066 E3.55268
G1 X47.398 Y57.864 E3.61309
G1 X47.51 Y57.279 E3.6428
G1 X47.774 Y56.272 E3.69474
G1 X47.962 Y55.711 E3.72426
G1 X48.441 Y54.549 E3.78696
G1 X48.711 Y54.005 E3.81726
G1 X49.249 Y53.085 E3.87043
G1 X49.704 Y52.446 E3.90957
G1 X50.942 Y50.999 E4.00458
G0 F6000 X51.246 Y51.259
G1 F1800 X51.735 Y50.777 E4.03883
G1 X52.459 Y50.178 E4.08571
G1 X52.808 Y49.92 E4.10736
G1 X53.576 Y49.414 E4.15325
G1 X54.112 Y49.117 E4.18382
G1 X55.626 Y48.424 E4.26689
G1 X56.223 Y48.206 E4.2986
G1 X57.19 Y47.938 E4.34866
G1 X57.623 Y47.844 E4.37077
G1 X58.519 Y47.7 E4.41604
G1 X59.057 Y47.65 E4.443
G1 X60.254 Y47.621 E4.50273
G1 X60.876 Y47.655 E4.53381
G1 X62.363 Y47.852 E4.60865
G1 X63.013 Y47.993 E4.64183
G1 X64.243 Y48.371 E4.70603
G1 X64.87 Y48.624 E4.73976
G1 X66.275 Y49.333 E4.81827
G1 X66.724 Y49.597 E4.84426
G1 X67.294 Y49.985 E4.87866
G1 X67.714 Y50.314 E4.90528
G1 X68.799 Y51.287 E4.97799
G1 X69.334 Y51.873 E5.01757
G1 X70.423 Y53.333 E5.10845
G1 X70.755 Y53.858 E5.13944
G1 X71.175 Y54.654 E5.18434
G1 X71.404 Y55.175 E5.21273
G1 X71.853 Y56.432 E5.27932
G1 X72.027 Y57.096 E5.31357
G1 X72.305 Y58.703 E5.39493
G1 X72.364 Y59.339 E5.4268
G1 X72.377 Y60.481 E5.48378
G1 X72.327 Y61.156 E5.51755
G1 X72.073 Y62.751 E5.59812
G1 X71.912 Y63.404 E5.63168
G1 X71.598 Y64.332 E5.68055
G1 X71.416 Y64.779 E5.70463
G1 X70.852 Y65.956 E5.76975
G1 X70.537 Y66.499 E5.80106
G1 X69.825 Y67.531 E5.86362
G1 X69.413 Y68.035 E5.89609
G1 X68.369 Y69.118 E5.97114
G1 X67.929 Y69.512 E6.00061
G1 X67.139 Y70.12 E6.05034
G1 X66.699 Y70.414 E6.07674
G1 X65.672 Y71.007 E6.13591
G1 X65.173 Y71.251 E6.16362
G1 X64.121 Y71.677 E6.22025
G1 X63.662 Y71.831 E6.2444
G1 X62.769 Y72.072 E6.29055
G1 X62.331 Y72.164 E6.31287
G1 X61.441 Y72.3 E6.35779
G1 X60.799 Y72.346 E6.3899
G1 X58.996 Y72.329 E6.47986
G1 X58.335 Y72.268 E6.51298
G1 X57.337 Y72.091 E6.56354
G1 X56.894 Y71.986 E6.58626
G1 X55.991 Y71.717 E6.63327
G1 X55.368 Y71.473 E6.66665
G1 X53.773 Y70.689 E6.75531
G1 X53.208 Y70.35 E6.78819
G1 X52.287 Y69.69 E6.84472
G1 X51.869 Y69.346 E6.87172
G1 X51.138 Y68.655 E6.92191
G1 X50.784 Y68.273 E6.94789
G1 X50.079 Y67.407 E7.0036
G1 X49.769 Y66.969 E7.03037
G1 X49.131 Y65.926 E7.09137
G1 X48.842 Y65.357 E7.12321
G1 X48.285 Y63.999 E7.19644
G1 X48.08 Y63.341 E7.23082
G1 X47.791 Y62.029 E7.29785
G1 X47.702 Y61.365 E7.33127
G1 X47.625 Y59.793 E7.40979
G1 X47.649 Y59.115 E7.44364
G1 X47.795 Y57.913 E7.50405
G1 X47.897 Y57.381 E7.53107
G1 X48.161 Y56.374 E7.58301
G1 X48.332 Y55.864 E7.60985
G1 X48.811 Y54.702 E7.67255
G1 X49.056 Y54.207 E7.70011
G1 X49.594 Y53.287 E7.75328
G1 X50.008 Y52.706 E7.78887
G1 X51.246 Y51.259 E7.88388
G0 F6000 X51.55 Y51.519
G1 F1800 X51.99 Y51.085 E7.91471
G1 X52.714 Y50.486 E7.96159
G1 X53.028 Y50.254 E7.98107
G1 X53.796 Y49.748 E8.02695
G1 X54.279 Y49.481 E8.05449
G1 X55.793 Y48.788 E8.13756
G1 X56.33 Y48.592 E8.16608
G1 X57.297 Y48.324 E8.21614
G1 X57.687 Y48.239 E8.23605
G1 X58.583 Y48.095 E8.28133
G1 X59.067 Y48.05 E8.30558
G1 X60.264 Y48.021 E8.36532
G1 X60.824 Y48.051 E8.3933
G1 X62.311 Y48.248 E8.46813
G1 X62.896 Y48.376 E8.49801
G1 X64.126 Y48.754 E8.5622
G1 X64.69 Y48.981 E8.59254
G1 X66.095 Y49.69 E8.67105
G1 X66.499 Y49.928 E8.69444
G1 X67.069 Y50.316 E8.72884
G1 X67.446 Y50.612 E8.75276
G1 X68.531 Y51.585 E8.82547
G1 X69.014 Y52.113 E8.86117
G1 X70.103 Y53.573 E8.95204
G1 X70.401 Y54.045 E8.97989
G1 X70.821 Y54.841 E9.02479
G1 X71.027 Y55.31 E9.05034
G1 X71.476 Y56.567 E9.11694
G1 X71.633 Y57.164 E9.14773
G1 X71.911 Y58.771 E9.2291
G1 X71.964 Y59.344 E9.25781
G1 X71.977 Y60.486 E9.31479
G1 X71.932 Y61.093 E9.34515
G1 X71.678 Y62.688 E9.42573
G1 X71.533 Y63.276 E9.45594
G1 X71.219 Y64.204 E9.50482
G1 X71.056 Y64.606 E9.52646
G1 X70.492 Y65.783 E9.59158
G1 X70.208 Y66.271 E9.61975
G1 X69.496 Y67.303 E9.6823
G1 X69.125 Y67.757 E9.71155
G1 X68.081 Y68.84 E9.7866
G1 X67.685 Y69.195 E9.81313
G1 X66.895 Y69.803 E9.86286
G1 X66.499 Y70.068 E9.88664
G1 X65.472 Y70.661 E9.9458
G1 X65.023 Y70.88 E9.97072
G1 X63.971 Y71.306 E10.02735
G1 X63.558 Y71.445 E10.04909
G1 X62.665 Y71.686 E10.09524
G1 X62.271 Y71.769 E10.11532
G1 X61.381 Y71.905 E10.16024
G1 X60.803 Y71.946 E10.18915
G1 X59 Y71.929 E10.27911
G1 X58.405 Y71.874 E10.30892
G1 X57.407 Y71.697 E10.35948
G1 X57.008 Y71.602 E10.37995
G1 X56.105 Y71.333 E10.42695
G1 X55.545 Y71.114 E10.45695
G1 X53.95 Y70.33 E10.54562
G1 X53.441 Y70.025 E10.57523
G1 X52.52 Y69.365 E10.63176
G1 X52.144 Y69.055 E10.65607
G1 X51.413 Y68.364 E10.70625
G1 X51.094 Y68.021 E10.72962
G1 X50.389 Y67.155 E10.78533
G1 X50.11 Y66.761 E10.80942
G1 X49.472 Y65.718 E10.87042
G1 X49.212 Y65.205 E10.89911
G1 X48.655 Y63.847 E10.97234
G1 X48.47 Y63.255 E11.00328
G1 X48.181 Y61.943 E11.07031
G1 X48.101 Y61.345 E11.10041
G1 X48.024 Y59.773 E11.17893
G1 X48.046 Y59.163 E11.20938
G1 X48.192 Y57.961 E11.26979
G1 X48.284 Y57.482 E11.29413
G1 X48.548 Y56.475 E11.34606
G1 X48.702 Y56.016 E11.37022
G1 X49.181 Y54.854 E11.43292
G1 X49.401 Y54.409 E11.45769
G1 X49.939 Y53.489 E11.51086
G1 X50.312 Y52.966 E11.54291
G1 X51.55 Y51.519 E11.63791
G0 F6000 X51.853 Y51.779
G1 F1800 X52.245 Y51.393 E11.66536
G1 X52.969 Y50.794 E11.71224
G1 X53.248 Y50.588 E11.72954
G1 X54.016 Y50.082 E11.77543
G1 X54.445 Y49.844 E11.7999
G1 X55.959 Y49.151 E11.88297
G1 X56.436 Y48.977 E11.90831
G1 X57.403 Y48.709 E11.95837
G1 X57.75 Y48.634 E11.97608
G1 X58.646 Y48.49 E12.02136
G1 X59.076 Y48.45 E12.0429
G1 X60.273 Y48.421 E12.10264
G1 X60.771 Y48.448 E12.12752
G1 X62.258 Y48.645 E12.20235
G1 X62.778 Y48.758 E12.2289
G1 X64.008 Y49.136 E12.2931
G1 X64.51 Y49.338 E12.3201
G1 X65.915 Y50.047 E12.39861
G1 X66.274 Y50.259 E12.41941
G1 X66.844 Y50.647 E12.45381
G1 X67.179 Y50.91 E12.47506
G1 X68.264 Y51.883 E12.54777
G1 X68.693 Y52.352 E12.57948
G1 X69.782 Y53.812 E12.67035
G1 X70.047 Y54.232 E12.69513
G1 X70.467 Y55.028 E12.74003
G1 X70.651 Y55.445 E12.76277
G1 X71.1 Y56.702 E12.82936
G1 X71.239 Y57.233 E12.85674
G1 X71.517 Y58.84 E12.93811
G1 X71.564 Y59.349 E12.96361
G1 X71.577 Y60.491 E13.02059
G1 X71.537 Y61.03 E13.04755
G1 X71.283 Y62.625 E13.12813
G1 X71.154 Y63.148 E13.15501
G1 X70.84 Y64.076 E13.20388
G1 X70.695 Y64.433 E13.22311
G1 X70.131 Y65.61 E13.28822
G1 X69.879 Y66.044 E13.31326
G1 X69.167 Y67.076 E13.37581
G1 X68.837 Y67.48 E13.40183
G1 X67.793 Y68.563 E13.47688
G1 X67.441 Y68.878 E13.50045
G1 X66.651 Y69.486 E13.55018
G1 X66.299 Y69.721 E13.5713
G1 X65.272 Y70.314 E13.63046
G1 X64.873 Y70.509 E13.65262
G1 X63.821 Y70.935 E13.70925
G1 X63.454 Y71.058 E13.72856
G1 X62.561 Y71.299 E13.7747
G1 X62.21 Y71.373 E13.7926
G1 X61.32 Y71.509 E13.83752
G1 X60.807 Y71.546 E13.86318
G1 X59.004 Y71.529 E13.95313
G1 X58.475 Y71.48 E13.97964
G1 X57.477 Y71.303 E14.0302
G1 X57.122 Y71.219 E14.0484
G1 X56.219 Y70.95 E14.09541
G1 X55.721 Y70.755 E14.12209
G1 X54.126 Y69.971 E14.21076
G1 X53.674 Y69.7 E14.23706
G1 X52.753 Y69.04 E14.29358
G1 X52.419 Y68.764 E14.3152
G1 X51.688 Y68.073 E14.36539
G1 X51.404 Y67.768 E14.38618
G1 X50.699 Y66.902 E14.44189
G1 X50.451 Y66.552 E14.46329
G1 X49.813 Y65.509 E14.52429
G1 X49.582 Y65.053 E14.54979
G1 X49.025 Y63.695 E14.62302
G1 X48.861 Y63.169 E14.65051
G1 X48.572 Y61.857 E14.71753
G1 X48.501 Y61.326 E14.74426
G1 X48.424 Y59.754 E14.82278
G1 X48.443 Y59.211 E14.84989
G1 X48.589 Y58.009 E14.9103
G1 X48.671 Y57.583 E14.93194
G1 X48.935 Y56.576 E14.98388
G1 X49.072 Y56.168 E15.00535
G1 X49.551 Y55.006 E15.06805
G1 X49.747 Y54.611 E15.09005
G1 X50.285 Y53.691 E15.14322
G1 X50.615 Y53.226 E15.17167
G1 X51.853 Y51.779 E15.26668
G0 F6000 X54.37 Y54.041
;TYPE:SUPPORT
G1 F1800 X54.77 Y53.687 E15.29333
G1 X55.196 Y53.357 E15.32021
G1 X55.608 Y53.076 E15.34509
G1 X56.051 Y52.812 E15.37082
G1 X56.48 Y52.595 E15.39481
G1 X57.01 Y52.366 E15.42361
G1 X57.446 Y52.21 E15.44671
G1 X57.983 Y52.052 E15.47464
G1 X58.443 Y51.948 E15.49817
G1 X59.02 Y51.856 E15.52732
G1 X59.455 Y51.819 E15.5491
G1 X60.004 Y51.802 E15.5765
G1 X60.545 Y51.818 E15.6035
G1 X61.013 Y51.86 E15.62695
G1 X61.506 Y51.939 E15.65186
G1 X62.006 Y52.05 E15.67741
G1 X62.556 Y52.212 E15.70601
G1 X63.015 Y52.378 E15.73037
G1 X63.487 Y52.581 E15.756
G1 X63.985 Y52.834 E15.78387
G1 X64.373 Y53.065 E15.80639
G1 X64.801 Y53.351 E15.83208
G1 X65.24 Y53.694 E15.85987
G1 X65.616 Y54.029 E15.88499
G1 X65.975 Y54.381 E15.91008
G1 X66.3 Y54.755 E15.9348
G1 X66.638 Y55.194 E15.96244
G1 X66.932 Y55.626 E15.98851
G1 X67.191 Y56.058 E16.01364
G1 X67.405 Y56.472 E16.03689
G1 X67.621 Y56.983 E16.06457
G1 X67.769 Y57.387 E16.08603
G1 X67.954 Y58.013 E16.1186
G1 X68.052 Y58.459 E16.14138
G1 X68.131 Y58.936 E16.1655
G1 X68.182 Y59.47 E16.19227
G1 X68.199 Y59.97 E16.21723
G1 X68.187 Y60.517 E16.24452
G1 X68.145 Y60.966 E16.26702
G1 X68.049 Y61.579 E16.29798
G1 X68.05 Y61.579 E16.29803
G1 X67.957 Y62.006 E16.31983
G1 X67.819 Y62.461 E16.34355
G1 X67.623 Y63.006 E16.37244
G1 X67.401 Y63.525 E16.40061
G1 X67.205 Y63.908 E16.42207
G1 X66.916 Y64.404 E16.45071
G1 X66.636 Y64.815 E16.47552
G1 X66.324 Y65.215 E16.50083
G1 X65.963 Y65.63 E16.52827
G1 X65.63 Y65.962 E16.55173
G1 X65.23 Y66.315 E16.57835
G1 X64.793 Y66.652 E16.60588
G1 X64.416 Y66.909 E16.62864
G1 X63.914 Y67.206 E16.65774
G1 X63.513 Y67.409 E16.68017
G1 X63.008 Y67.628 E16.70763
G1 X62.558 Y67.789 E16.73147
G1 X62.018 Y67.948 E16.75956
G1 X61.537 Y68.053 E16.78412
G1 X61.019 Y68.132 E16.81026
G1 X60.495 Y68.183 E16.83653
G1 X60.004 Y68.199 E16.86104
G1 X59.519 Y68.183 E16.88525
G1 X58.935 Y68.126 E16.91452
G1 X58.457 Y68.052 E16.93865
G1 X57.948 Y67.939 E16.96466
G1 X57.445 Y67.791 E16.99082
G1 X57.006 Y67.634 E17.01408
G1 X56.496 Y67.413 E17.04181
G1 X56.055 Y67.186 E17.06656
G1 X55.623 Y66.929 E17.09164
G1 X55.169 Y66.622 E17.11898
G1 X54.723 Y66.28 E17.14702
G1 X54.409 Y66.001 E17.16798
G1 X54.043 Y65.637 E17.19373
G1 X53.657 Y65.194 E17.22304
G1 X53.381 Y64.833 E17.24571
G1 X53.048 Y64.345 E17.27519
G1 X52.842 Y63.995 E17.29545
G1 X52.843 Y63.995 E17.2955
G1 X52.564 Y63.454 E17.32587
G1 X52.359 Y62.979 E17.35168
G1 X52.222 Y62.588 E17.37235
G1 X52.048 Y61.998 E17.40304
G1 X51.952 Y61.564 E17.42521
G1 X51.871 Y61.041 E17.45162
G1 X51.818 Y60.475 E17.47998
G1 X51.802 Y59.958 E17.50578
G1 X51.818 Y59.433 E17.53199
G1 X51.856 Y59.028 E17.55228
G1 X51.96 Y58.39 E17.58453
G1 X52.042 Y58.021 E17.60339
G1 X52.211 Y57.444 E17.63339
G1 X52.367 Y57.005 E17.65663
G1 X52.578 Y56.522 E17.68293
G1 X52.83 Y56.02 E17.71095
G1 X53.061 Y55.633 E17.73344
G1 X53.368 Y55.177 E17.76086
G1 X53.665 Y54.797 E17.78492
G1 X54.057 Y54.349 E17.81462
G1 X54.369 Y54.04 E17.83653
G1 X54.37 Y54.041 E17.8366
G0 F6000 X58.467 Y57.889
G1 F1800 X58.064 Y58.273 E17.86437
G1 X57.847 Y58.547 E17.88181
G1 X57.662 Y58.878 E17.90073
G1 X57.613 Y59.004 E17.90747
G1 X57.488 Y59.253 E17.92137
G1 X57.41 Y59.846 E17.95121
G1 X57.41 Y60.078 E17.96279
G1 X57.421 Y60.311 E17.97442
G1 X57.431 Y60.362 E17.97702
G1 X57.431 Y60.691 E17.99343
G1 X57.87 Y61.492 E18.039
G1 X58.093 Y61.753 E18.05613
G1 X58.469 Y62.116 E18.0822
G1 X58.891 Y62.342 E18.10608
G1 X59.354 Y62.525 E18.13092
G1 X59.89 Y62.593 E18.15788
G1 X60.207 Y62.586 E18.1737
G1 X60.435 Y62.557 E18.18516
G1 X60.651 Y62.51 E18.19619
G1 X60.78 Y62.471 E18.20292
G1 X61.021 Y62.39 E18.2156
G1 X61.526 Y62.114 E18.24431
G1 X61.89 Y61.772 E18.26923
G1 X62.024 Y61.62 E18.27934
G1 X62.107 Y61.508 E18.28629
G1 X62.294 Y61.233 E18.30289
G1 X62.525 Y60.641 E18.33459
G1 X62.59 Y60.14 E18.35979
G1 X62.59 Y59.865 E18.37351
G1 X62.564 Y59.609 E18.38635
G1 X62.531 Y59.45 E18.39445
G1 X62.482 Y59.236 E18.40541
G1 X62.406 Y59.042 E18.4158
G1 X62.346 Y58.901 E18.42345
G1 X62.167 Y58.572 E18.44213
G1 X61.949 Y58.282 E18.46023
G1 X61.496 Y57.858 E18.49119
G1 X61.254 Y57.737 E18.50469
G1 X61.118 Y57.661 E18.51246
G1 X60.642 Y57.476 E18.53794
G1 X60.105 Y57.405 E18.56496
G1 X59.668 Y57.421 E18.58678
G1 X59.372 Y57.486 E18.6019
G1 X59.236 Y57.523 E18.60893
G1 X58.972 Y57.616 E18.62289
G1 X58.467 Y57.889 E18.65153
G0 F6000 X58.652 Y57.607
G1 F1800 X58.652 Y52.075 E18.92753
G1 F1500 E12.42753
G0 F6000 X61.318 Y52.071
G1 F1500 E18.92753
G1 F1800 X61.318 Y57.588 E19.20277
G1 F1500 E12.70277
G0 F6000 X62.393 Y58.652
G1 F1500 E19.20277
G1 F1800 X67.922 Y58.652 E19.47861
G1 F1500 E12.97861
G0 F6000 X67.928 Y61.318
G1 F1500 E19.47861
G1 F1800 X62.429 Y61.318 E19.75296
G1 F1500 E13.25296
G0 F6000 X61.318 Y62.409
G1 F1500 E19.75296
G1 F1800 X61.318 Y67.925 E20.02815
G1 F1500 E13.52815
G0 F6000 X58.652 Y67.921
G1 F1500 E20.02815
G1 F1800 X58.652 Y62.396 E20.3038
G1 F1500 E13.8038
G0 F6000 X57.591 Y61.318
G1 F1500 E20.3038
G1 F1800 X52.074 Y61.318 E20.57904
G1 F1500 E14.07904
G0 F6000 X52.081 Y58.652
G1 F1500 E20.57904
G1 F1800 X57.605 Y58.652 E20.85463
G0 F6000 X53.038 Y55.986
G1 F1800 X66.962 Y55.986 E21.54931
G0 F6000 X66.65 Y55.497
G1 F1800 X66.65 Y64.512 E21.99907
G0 F6000 X66.974 Y63.984
G1 F1800 X53.021 Y63.984 E22.69518
G0 F6000 X53.32 Y64.459
G1 F1800 X53.32 Y55.535 E23.1404
G0 F6000 X55.534 Y53.32
G1 F1800 X64.467 Y53.32 E23.58607
G0 F6000 X63.984 Y53.021
G1 F1800 X63.984 Y66.98 E24.28249
G0 F6000 X64.511 Y66.65
G1 F1800 X55.494 Y66.65 E24.73235
G0 F6000 X55.986 Y66.958
G1 F1800 X55.986 Y53.036 E25.42692
G1 F1500 E18.92692
G0 F6000 X58.841 Y57.958
G0 X59.456 Y59.107
G0 X59.642 Y59.416
;TYPE:WALL-INNER
G1 F1500 E25.42692
G1 F1800 X59.712 Y59.379 E25.43087
G1 X59.796 Y59.348 E25.43534
G1 X59.888 Y59.325 E25.44007
G1 X59.96 Y59.317 E25.44368
G1 X60.134 Y59.329 E25.45239
G1 X60.3 Y59.385 E25.46113
G1 X60.376 Y59.428 E25.46548
