;FLAVOR:RepRap
;TIME:2641
;Generated with Cura_SteamEngine 2.3.1
M190 S60
M104 S200
M109 S200
G21 ;metric values
G90 ;absolute positioning
M82 ;set extruder to absolute mode
M107 ;start with the fan off
G28 X0 Y0 ;move X/Y to min endstops
G28 Z0 ;move Z to min endstops
G1 Z15.0 F9000 ;move the platform down 15mm
G92 E0 ;zero the extruded length
G1 F200 E3 ;extrude 3mm of feed stock
G92 E0 ;zero the extruded length again
G1 F9000
;Put printing message on LCD screen
M117 Printing...
;LAYER_COUNT:178
;LAYER:0
M107
G1 F1500 E-6.5
G0 F6000 X46.342 Y46.075 Z.3
;TYPE:SKIRT
G1 F1500 E0
G1 F1800 X46.687 Y45.743 E0.02389
G1 X48.013 Y44.611 E0.11087
G1 X48.385 Y44.329 E0.13416
G1 X49.931 Y43.294 E0.22698
G1 X50.36 Y43.044 E0.25175
G1 X52.163 Y42.138 E0.35242
G1 X52.55 Y41.968 E0.37351
G1 X53.682 Y41.542 E0.43385
G1 X54.063 Y41.42 E0.45381
G1 X55.943 Y40.92 E0.55086
G1 X56.408 Y40.826 E0.57453
G1 X58.097 Y40.586 E0.65964
G1 X58.568 Y40.547 E0.68322
G1 X60.53 Y40.502 E0.78113
G1 X61.034 Y40.522 E0.8063
G1 X62.966 Y40.722 E0.9032
G1 X63.356 Y40.782 E0.92289
G1 X64.494 Y41.015 E0.98084
G1 X64.886 Y41.116 E1.00103
G1 X66.75 Y41.699 E1.09847
G1 X67.222 Y41.881 E1.12371
G1 X68.996 Y42.694 E1.22107
G1 X69.442 Y42.933 E1.24631
G1 X71.118 Y43.975 E1.34477
G1 X71.524 Y44.264 E1.36963
G1 X73.013 Y45.47 E1.46523
G1 X73.381 Y45.809 E1.49019
G1 X74.728 Y47.213 E1.58726
G1 X75.036 Y47.574 E1.61094
G1 X76.093 Y48.976 E1.69853
G1 X76.358 Y49.376 E1.72247
G1 X77.331 Y51.052 E1.81916
G1 X77.513 Y51.404 E1.83893
G1 X77.995 Y52.464 E1.89702
G1 X78.142 Y52.836 E1.91698
G1 X78.759 Y54.657 E2.0129
G1 X78.885 Y55.116 E2.03665
G1 X79.249 Y56.843 E2.1247
G1 X79.32 Y57.317 E2.14861
G1 X79.492 Y59.27 E2.24642
G1 X79.504 Y59.773 E2.27153
G1 X79.43 Y61.717 E2.36858
G1 X79.38 Y62.217 E2.39365
G1 X79.066 Y64.118 E2.48978
G1 X78.98 Y64.512 E2.5099
G1 X78.656 Y65.708 E2.57172
G1 X78.527 Y66.101 E2.59235
G1 X77.832 Y67.904 E2.68876
G1 X77.621 Y68.363 E2.71396
G1 X76.672 Y70.123 E2.81372
G1 X76.407 Y70.549 E2.83875
G1 X75.307 Y72.09 E2.93321
G1 X74.993 Y72.476 E2.95803
G1 X73.66 Y73.923 E3.05619
G1 X73.317 Y74.254 E3.07997
G1 X72.002 Y75.378 E3.16627
G1 X71.63 Y75.66 E3.18956
G1 X70.071 Y76.705 E3.2832
G1 X69.64 Y76.956 E3.30808
G1 X67.837 Y77.862 E3.40875
G1 X67.45 Y78.032 E3.42984
G1 X66.318 Y78.458 E3.49018
G1 X65.937 Y78.58 E3.51014
G1 X64.057 Y79.08 E3.60719
G1 X63.592 Y79.174 E3.63086
G1 X61.903 Y79.414 E3.71597
G1 X61.432 Y79.453 E3.73955
G1 X59.47 Y79.498 E3.83746
G1 X58.966 Y79.478 E3.86263
G1 X57.034 Y79.278 E3.95953
G1 X56.644 Y79.218 E3.97922
G1 X55.506 Y78.985 E4.03717
G1 X55.114 Y78.884 E4.05736
G1 X53.25 Y78.301 E4.1548
G1 X52.778 Y78.119 E4.18004
G1 X51.004 Y77.306 E4.2774
G1 X50.557 Y77.067 E4.30269
G1 X48.88 Y76.024 E4.40121
G1 X48.475 Y75.735 E4.42604
G1 X46.986 Y74.529 E4.52163
G1 X46.618 Y74.19 E4.54659
G1 X45.272 Y72.787 E4.64359
G1 X44.964 Y72.426 E4.66727
G1 X43.907 Y71.024 E4.75487
G1 X43.642 Y70.624 E4.7788
G1 X42.669 Y68.948 E4.87549
G1 X42.487 Y68.596 E4.89526
G1 X42.005 Y67.536 E4.95335
G1 X41.857 Y67.163 E4.97337
G1 X41.24 Y65.341 E5.06934
G1 X41.115 Y64.883 E5.09303
G1 X40.751 Y63.157 E5.18103
G1 X40.68 Y62.681 E5.20504
G1 X40.507 Y60.705 E5.304
G1 X40.495 Y60.2 E5.32921
G1 X40.57 Y58.279 E5.42512
G1 X40.62 Y57.783 E5.44999
G1 X40.934 Y55.882 E5.54612
G1 X41.02 Y55.488 E5.56624
G1 X41.344 Y54.292 E5.62805
G1 X41.473 Y53.899 E5.64869
G1 X42.168 Y52.096 E5.74509
G1 X42.379 Y51.637 E5.7703
G1 X43.328 Y49.877 E5.87006
G1 X43.593 Y49.451 E5.89509
G1 X44.693 Y47.91 E5.98954
G1 X45.007 Y47.524 E6.01437
G1 X46.342 Y46.075 E6.11266
G0 F6000 X46.636 Y46.346
G1 F1800 X46.947 Y46.047 E6.13419
G1 X48.273 Y44.915 E6.22117
G1 X48.607 Y44.661 E6.2421
G1 X50.153 Y43.626 E6.33492
G1 X50.54 Y43.401 E6.35726
G1 X52.343 Y42.495 E6.45793
G1 X52.691 Y42.343 E6.47687
G1 X53.823 Y41.917 E6.53722
G1 X54.166 Y41.807 E6.55519
G1 X56.046 Y41.307 E6.65224
G1 X56.465 Y41.222 E6.67357
G1 X58.154 Y40.982 E6.75868
G1 X58.577 Y40.947 E6.77986
G1 X60.539 Y40.902 E6.87777
G1 X60.993 Y40.92 E6.90043
G1 X62.925 Y41.12 E6.99734
G1 X63.276 Y41.174 E7.01506
G1 X64.414 Y41.407 E7.07301
G1 X64.767 Y41.498 E7.0912
G1 X66.631 Y42.081 E7.18863
G1 X67.056 Y42.244 E7.21134
G1 X68.83 Y43.057 E7.3087
G1 X69.231 Y43.273 E7.33142
G1 X70.907 Y44.315 E7.42988
G1 X71.272 Y44.574 E7.45221
G1 X72.761 Y45.78 E7.54781
G1 X73.093 Y46.086 E7.57033
G1 X74.44 Y47.49 E7.6674
G1 X74.717 Y47.815 E7.68871
G1 X75.774 Y49.217 E7.7763
G1 X76.012 Y49.577 E7.79783
G1 X76.985 Y51.253 E7.89452
G1 X77.149 Y51.57 E7.91233
G1 X77.631 Y52.63 E7.97042
G1 X77.764 Y52.965 E7.9884
G1 X78.381 Y54.786 E8.08433
G1 X78.494 Y55.199 E8.10569
G1 X78.858 Y56.926 E8.19374
G1 X78.921 Y57.352 E8.21523
G1 X79.093 Y59.305 E8.31304
G1 X79.104 Y59.758 E8.33565
G1 X79.03 Y61.702 E8.4327
G1 X78.985 Y62.152 E8.45526
G1 X78.671 Y64.053 E8.55139
G1 X78.594 Y64.407 E8.56947
G1 X78.27 Y65.603 E8.63128
G1 X78.154 Y65.957 E8.64987
G1 X77.459 Y67.76 E8.74627
G1 X77.269 Y68.174 E8.769
G1 X76.32 Y69.934 E8.86876
G1 X76.081 Y70.317 E8.89128
G1 X74.981 Y71.858 E8.98574
G1 X74.699 Y72.205 E9.00805
G1 X73.366 Y73.652 E9.1062
G1 X73.057 Y73.95 E9.12762
G1 X71.742 Y75.074 E9.21392
G1 X71.407 Y75.327 E9.23487
G1 X69.848 Y76.372 E9.3285
G1 X69.46 Y76.599 E9.35093
G1 X67.657 Y77.505 E9.4516
G1 X67.309 Y77.657 E9.47055
G1 X66.177 Y78.083 E9.53089
G1 X65.834 Y78.193 E9.54886
G1 X63.954 Y78.693 E9.64591
G1 X63.535 Y78.778 E9.66724
G1 X61.846 Y79.018 E9.75235
G1 X61.423 Y79.053 E9.77353
G1 X59.461 Y79.098 E9.87144
G1 X59.007 Y79.08 E9.89411
G1 X57.075 Y78.88 E9.99101
G1 X56.724 Y78.826 E10.00873
G1 X55.586 Y78.593 E10.06668
G1 X55.233 Y78.502 E10.08487
G1 X53.369 Y77.919 E10.18231
G1 X52.944 Y77.756 E10.20502
G1 X51.17 Y76.943 E10.30237
G1 X50.769 Y76.727 E10.3251
G1 X49.092 Y75.684 E10.42362
G1 X48.727 Y75.425 E10.44595
G1 X47.238 Y74.219 E10.54155
G1 X46.906 Y73.913 E10.56407
G1 X45.56 Y72.51 E10.66107
G1 X45.283 Y72.185 E10.68238
G1 X44.226 Y70.783 E10.76998
G1 X43.988 Y70.423 E10.79151
G1 X43.015 Y68.747 E10.88819
G1 X42.851 Y68.43 E10.906
G1 X42.369 Y67.37 E10.96409
G1 X42.236 Y67.035 E10.98207
G1 X41.619 Y65.213 E11.07804
G1 X41.506 Y64.801 E11.09936
G1 X41.142 Y63.075 E11.18736
G1 X41.079 Y62.646 E11.209
G1 X40.906 Y60.67 E11.30796
G1 X40.895 Y60.216 E11.33061
G1 X40.97 Y58.295 E11.42652
G1 X41.015 Y57.848 E11.44894
G1 X41.329 Y55.947 E11.54506
G1 X41.406 Y55.593 E11.56314
G1 X41.73 Y54.397 E11.62496
G1 X41.846 Y54.043 E11.64354
G1 X42.541 Y52.24 E11.73995
G1 X42.731 Y51.826 E11.76267
G1 X43.68 Y50.066 E11.86243
G1 X43.919 Y49.683 E11.88495
G1 X45.019 Y48.142 E11.97941
G1 X45.301 Y47.795 E12.00172
G1 X46.636 Y46.346 E12.10002
G0 F6000 X46.931 Y46.617
G1 F1800 X47.206 Y46.351 E12.1191
G1 X48.532 Y45.219 E12.20609
G1 X48.83 Y44.994 E12.22471
G1 X50.376 Y43.959 E12.31753
G1 X50.719 Y43.759 E12.33734
G1 X52.522 Y42.853 E12.43801
G1 X52.832 Y42.717 E12.4549
G1 X53.964 Y42.291 E12.51524
G1 X54.269 Y42.194 E12.53121
G1 X56.149 Y41.694 E12.62827
G1 X56.521 Y41.618 E12.64721
G1 X58.21 Y41.378 E12.73232
G1 X58.587 Y41.347 E12.75119
G1 X60.549 Y41.302 E12.8491
G1 X60.952 Y41.318 E12.86922
G1 X62.884 Y41.518 E12.96613
G1 X63.196 Y41.566 E12.98187
G1 X64.334 Y41.799 E13.03983
G1 X64.647 Y41.88 E13.05596
G1 X66.511 Y42.463 E13.1534
G1 X66.889 Y42.608 E13.17359
G1 X68.663 Y43.421 E13.27095
G1 X69.02 Y43.612 E13.29115
G1 X70.696 Y44.654 E13.38961
G1 X71.02 Y44.885 E13.40946
G1 X72.509 Y46.091 E13.50506
G1 X72.804 Y46.363 E13.52508
G1 X74.151 Y47.767 E13.62215
G1 X74.397 Y48.056 E13.64108
G1 X75.454 Y49.458 E13.72868
G1 X75.666 Y49.777 E13.74779
G1 X76.639 Y51.453 E13.84447
G1 X76.785 Y51.735 E13.86032
G1 X77.267 Y52.795 E13.91841
G1 X77.385 Y53.093 E13.9344
G1 X78.002 Y54.914 E14.03032
G1 X78.102 Y55.281 E14.0493
G1 X78.466 Y57.008 E14.13735
G1 X78.523 Y57.387 E14.15647
G1 X78.695 Y59.34 E14.25429
G1 X78.705 Y59.743 E14.2744
G1 X78.631 Y61.687 E14.37146
G1 X78.59 Y62.086 E14.39147
G1 X78.276 Y63.987 E14.48759
G1 X78.208 Y64.303 E14.50372
G1 X77.884 Y65.499 E14.56554
G1 X77.781 Y65.813 E14.58203
G1 X77.086 Y67.616 E14.67843
G1 X76.917 Y67.984 E14.69863
G1 X75.968 Y69.744 E14.79839
G1 X75.756 Y70.084 E14.81838
G1 X74.656 Y71.625 E14.91284
G1 X74.405 Y71.934 E14.9327
G1 X73.072 Y73.381 E15.03085
G1 X72.797 Y73.645 E15.04987
G1 X71.482 Y74.769 E15.13618
G1 X71.185 Y74.995 E15.1548
G1 X69.626 Y76.04 E15.24843
G1 X69.281 Y76.241 E15.26835
G1 X67.478 Y77.147 E15.36902
G1 X67.168 Y77.283 E15.38591
G1 X66.036 Y77.709 E15.44626
G1 X65.731 Y77.806 E15.46222
G1 X63.851 Y78.306 E15.55928
G1 X63.479 Y78.382 E15.57822
G1 X61.79 Y78.622 E15.66333
G1 X61.413 Y78.653 E15.6822
G1 X59.451 Y78.698 E15.78011
G1 X59.048 Y78.682 E15.80023
G1 X57.116 Y78.482 E15.89714
G1 X56.804 Y78.434 E15.91289
G1 X55.666 Y78.201 E15.97084
G1 X55.353 Y78.12 E15.98697
G1 X53.489 Y77.537 E16.08441
G1 X53.111 Y77.392 E16.10461
G1 X51.337 Y76.579 E16.20196
G1 X50.98 Y76.387 E16.22219
G1 X49.303 Y75.344 E16.32071
G1 X48.979 Y75.114 E16.34054
G1 X47.49 Y73.908 E16.43613
G1 X47.195 Y73.636 E16.45615
G1 X45.849 Y72.233 E16.55315
G1 X45.603 Y71.944 E16.57209
G1 X44.546 Y70.542 E16.65968
G1 X44.334 Y70.223 E16.67879
G1 X43.361 Y68.547 E16.77548
G1 X43.215 Y68.265 E16.79132
G1 X42.733 Y67.205 E16.84941
G1 X42.615 Y66.906 E16.86545
G1 X41.998 Y65.084 E16.96142
G1 X41.898 Y64.718 E16.98035
G1 X41.534 Y62.992 E17.06836
G1 X41.477 Y62.611 E17.08757
G1 X41.304 Y60.635 E17.18654
G1 X41.294 Y60.231 E17.2067
G1 X41.369 Y58.31 E17.30261
G1 X41.41 Y57.914 E17.32247
G1 X41.724 Y56.013 E17.4186
G1 X41.792 Y55.697 E17.43472
G1 X42.116 Y54.501 E17.49654
G1 X42.219 Y54.187 E17.51303
G1 X42.914 Y52.384 E17.60943
G1 X43.083 Y52.016 E17.62964
G1 X44.032 Y50.256 E17.72939
G1 X44.244 Y49.916 E17.74938
G1 X45.344 Y48.375 E17.84384
G1 X45.596 Y48.066 E17.86374
G1 X46.931 Y46.617 E17.96203
G1 F1500 E11.46203
G0 F6000 X48.714 Y48.403
G0 X49.637 Y49.325
G0 X50.053 Y49.419
;TYPE:WALL-INNER
G1 F1500 E17.96203
G1 F1800 X50.749 Y48.805 E18.00834
G1 X51.459 Y48.253 E18.0532
G1 X52.222 Y47.736 E18.09918
G1 X53.009 Y47.271 E18.14479
G1 X53.807 Y46.863 E18.1895
G1 X54.659 Y46.494 E18.23583
G1 X55.511 Y46.189 E18.28097
G1 X56.408 Y45.928 E18.32758
G1 X57.259 Y45.738 E18.37108
G1 X58.192 Y45.591 E18.41821
G1 X59.075 Y45.507 E18.46246
G1 X60 Y45.476 E18.50863
G1 X60.925 Y45.507 E18.55481
G1 X61.808 Y45.591 E18.59906
G1 X62.741 Y45.738 E18.64618
G1 X63.592 Y45.928 E18.68968
G1 X64.489 Y46.189 E18.73629
G1 X65.341 Y46.494 E18.78144
G1 X66.193 Y46.863 E18.82776
G1 X66.991 Y47.271 E18.87247
G1 X67.778 Y47.736 E18.91808
G1 X68.541 Y48.253 E18.96406
G1 X69.251 Y48.805 E19.00893
G1 X69.947 Y49.419 E19.05523
G1 X70.581 Y50.052 E19.09993
G1 X71.203 Y50.758 E19.14687
G1 X71.747 Y51.459 E19.19114
G1 X72.265 Y52.222 E19.23715
G1 X72.732 Y53.012 E19.28293
G1 X73.137 Y53.806 E19.3274
G1 X73.516 Y54.683 E19.37507
G1 X73.804 Y55.484 E19.41753
G1 X74.076 Y56.42 E19.46616
G1 X74.26 Y57.249 E19.50853
G1 X74.409 Y58.192 E19.55616
G1 X74.493 Y59.059 E19.59962
G1 X74.524 Y59.993 E19.64624
G1 X74.493 Y60.925 E19.69276
G1 X74.409 Y61.808 E19.73701
G1 X74.262 Y62.741 E19.78414
G1 X74.076 Y63.58 E19.82701
G1 X73.813 Y64.484 E19.87398
G1 X73.508 Y65.336 E19.91913
G1 X73.138 Y66.192 E19.96565
G1 X72.732 Y66.988 E20.01023
G1 X72.265 Y67.778 E20.05602
G1 X71.747 Y68.541 E20.10203
G1 X71.203 Y69.242 E20.1463
G1 X70.581 Y69.948 E20.19324
G1 X69.947 Y70.581 E20.23794
G1 X69.251 Y71.195 E20.28424
G1 X68.541 Y71.747 E20.32911
G1 X67.778 Y72.264 E20.37509
G1 X66.991 Y72.729 E20.42069
G1 X66.193 Y73.137 E20.46541
G1 X65.356 Y73.5 E20.51093
G1 X64.473 Y73.815 E20.5577
G1 X63.621 Y74.065 E20.602
G1 X62.713 Y74.266 E20.64839
G1 X61.808 Y74.409 E20.6941
G1 X60.925 Y74.493 E20.73836
G1 X60 Y74.524 E20.78453
G1 X59.075 Y74.493 E20.8307
G1 X58.192 Y74.409 E20.87496
G1 X57.287 Y74.266 E20.92067
G1 X56.379 Y74.065 E20.96706
G1 X55.527 Y73.815 E21.01136
G1 X54.644 Y73.5 E21.05813
G1 X53.807 Y73.137 E21.10365
G1 X53.009 Y72.729 E21.14837
G1 X52.222 Y72.264 E21.19397
G1 X51.459 Y71.747 E21.23995
G1 X50.749 Y71.195 E21.28482
G1 X50.053 Y70.581 E21.33112
G1 X49.42 Y69.948 E21.37579
G1 X48.797 Y69.242 E21.42276
G1 X48.253 Y68.541 E21.46703
G1 X47.735 Y67.778 E21.51304
G1 X47.268 Y66.988 E21.55882
G1 X46.862 Y66.192 E21.6034
G1 X46.492 Y65.336 E21.64993
G1 X46.187 Y64.484 E21.69508
G1 X45.924 Y63.58 E21.74205
G1 X45.738 Y62.741 E21.78492
G1 X45.591 Y61.808 E21.83204
G1 X45.507 Y60.925 E21.8763
G1 X45.476 Y60.006 E21.92217
G1 X45.507 Y59.059 E21.96944
G1 X45.591 Y58.192 E22.0129
G1 X45.74 Y57.249 E22.06053
G1 X45.924 Y56.42 E22.1029
G1 X46.196 Y55.484 E22.15152
G1 X46.484 Y54.683 E22.19399
G1 X46.863 Y53.806 E22.24166
G1 X47.268 Y53.012 E22.28612
G1 X47.735 Y52.222 E22.33191
G1 X48.253 Y51.459 E22.37792
G1 X48.797 Y50.758 E22.42219
G1 X49.42 Y50.052 E22.46916
G1 X50.053 Y49.419 E22.51382
G0 F6000 X49.779 Y49.127
G1 F1800 X50.488 Y48.501 E22.56101
G1 X51.229 Y47.926 E22.6078
G1 X52.004 Y47.4 E22.65453
G1 X52.814 Y46.921 E22.70148
G1 X53.638 Y46.5 E22.74765
G1 X54.519 Y46.119 E22.79553
G1 X55.381 Y45.81 E22.84122
G1 X56.302 Y45.542 E22.88907
G1 X57.191 Y45.344 E22.93451
G1 X58.139 Y45.194 E22.9824
G1 X59.056 Y45.107 E23.02835
G1 X60 Y45.076 E23.07547
G1 X60.944 Y45.107 E23.12259
G1 X61.861 Y45.194 E23.16855
G1 X62.809 Y45.344 E23.21643
G1 X63.698 Y45.542 E23.26187
G1 X64.619 Y45.81 E23.30973
G1 X65.481 Y46.119 E23.35541
G1 X66.362 Y46.5 E23.4033
G1 X67.186 Y46.921 E23.44946
G1 X67.996 Y47.4 E23.49641
G1 X68.771 Y47.926 E23.54314
G1 X69.512 Y48.501 E23.58994
G1 X70.221 Y49.127 E23.63712
G1 X70.873 Y49.779 E23.68312
G1 X71.503 Y50.493 E23.73063
G1 X72.074 Y51.229 E23.7771
G1 X72.6 Y52.004 E23.82383
G1 X73.082 Y52.818 E23.87103
G1 X73.5 Y53.638 E23.91695
G1 X73.883 Y54.524 E23.9651
G1 X74.188 Y55.372 E24.01006
G1 X74.46 Y56.308 E24.05869
G1 X74.655 Y57.186 E24.10356
G1 X74.806 Y58.139 E24.1517
G1 X74.893 Y59.046 E24.19716
G1 X74.924 Y59.993 E24.24443
G1 X74.893 Y60.944 E24.2919
G1 X74.806 Y61.861 E24.33786
G1 X74.656 Y62.809 E24.38574
G1 X74.46 Y63.692 E24.43087
G1 X74.19 Y64.619 E24.47904
G1 X73.883 Y65.476 E24.52445
G1 X73.501 Y66.36 E24.5725
G1 X73.082 Y67.182 E24.61853
G1 X72.6 Y67.996 E24.66572
G1 X72.074 Y68.771 E24.71245
G1 X71.503 Y69.507 E24.75893
G1 X70.873 Y70.221 E24.80643
G1 X70.221 Y70.873 E24.85244
G1 X69.512 Y71.499 E24.89962
G1 X68.771 Y72.074 E24.94642
G1 X67.996 Y72.6 E24.99314
G1 X67.186 Y73.079 E25.04009
G1 X66.362 Y73.5 E25.08626
G1 X65.496 Y73.875 E25.13334
G1 X64.604 Y74.194 E25.1806
G1 X63.715 Y74.454 E25.22681
G1 X62.793 Y74.658 E25.27392
G1 X61.861 Y74.806 E25.321
G1 X60.944 Y74.893 E25.36696
G1 X60 Y74.924 E25.41408
G1 X59.056 Y74.893 E25.4612
G1 X58.139 Y74.806 E25.50716
G1 X57.207 Y74.658 E25.55424
G1 X56.285 Y74.454 E25.60135
G1 X55.396 Y74.194 E25.64756
G1 X54.504 Y73.875 E25.69482
G1 X53.638 Y73.5 E25.7419
G1 X52.814 Y73.079 E25.78807
G1 X52.004 Y72.6 E25.83501
G1 X51.229 Y72.074 E25.88174
G1 X50.488 Y71.499 E25.92854
G1 X49.779 Y70.873 E25.97572
G1 X49.127 Y70.221 E26.02173
G1 X48.497 Y69.507 E26.06923
G1 X47.926 Y68.771 E26.11571
G1 X47.4 Y67.996 E26.16243
G1 X46.918 Y67.182 E26.20963
G1 X46.499 Y66.36 E26.25566
G1 X46.117 Y65.476 E26.30371
G1 X45.81 Y64.619 E26.34912
G1 X45.54 Y63.692 E26.39729
G1 X45.344 Y62.809 E26.44242
G1 X45.194 Y61.861 E26.4903
G1 X45.107 Y60.944 E26.53626
G1 X45.076 Y60.006 E26.58308
G1 X45.107 Y59.046 E26.631
G1 X45.194 Y58.139 E26.67646
G1 X45.345 Y57.186 E26.7246
G1 X45.54 Y56.308 E26.76947
G1 X45.812 Y55.372 E26.8181
G1 X46.117 Y54.524 E26.86306
G1 X46.5 Y53.638 E26.91121
G1 X46.918 Y52.818 E26.95713
G1 X47.4 Y52.004 E27.00433
G1 X47.926 Y51.229 E27.05106
G1 X48.497 Y50.493 E27.09753
G1 X49.127 Y49.779 E27.14504
G1 X49.779 Y49.127 E27.19104
G0 F6000 X49.506 Y48.834
;TYPE:WALL-OUTER
G1 F1800 X50.228 Y48.197 E27.23907
G1 X50.999 Y47.599 E27.28775
G1 X51.785 Y47.065 E27.33516
G1 X52.619 Y46.571 E27.38352
G1 X53.47 Y46.137 E27.43118
G1 X54.365 Y45.75 E27.47983
G1 X55.265 Y45.427 E27.52753
G1 X56.196 Y45.156 E27.57591
G1 X57.123 Y44.95 E27.62328
G1 X58.086 Y44.797 E27.67193
G1 X59.037 Y44.707 E27.71959
