;FLAVOR:RepRap
;TIME:2330
;Generated with Cura_SteamEngine 2.3.1
M190 S60
M104 S200
M109 S200
G21 ;metric values
G90 ;absolute positioning
M82 ;set extruder to absolute mode
M107 ;start with the fan off
G28 X0 Y0 ;move X/Y to min endstops
G28 Z0 ;move Z to min endstops
G1 Z15.0 F9000 ;move the platform down 15mm
G92 E0 ;zero the extruded length
G1 F200 E3 ;extrude 3mm of feed stock
G92 E0 ;zero the extruded length again
G1 F9000
M117 Printing...
;LAYER_COUNT:90
;LAYER:0
M107
G1 F1500 E-6.5
G0 F6000 X49.032 Y41.537 Z.3
;TYPE:SKIRT
G1 F1500 E0
G1 F1800 X49.429 Y41.134 E0.02822
G1 X49.879 Y40.792 E0.05642
G1 X50.372 Y40.516 E0.08461
G1 X50.9 Y40.312 E0.11285
G1 X51.45 Y40.185 E0.14101
G1 X52.073 Y40.136 E0.17219
G1 X67.927 Y40.137 E0.96315
G1 X68.491 Y40.177 E0.99136
G1 X69.044 Y40.296 E1.01958
G1 X69.574 Y40.492 E1.04777
G1 X70.072 Y40.761 E1.07601
G1 X70.526 Y41.097 E1.10419
G1 X70.929 Y41.493 E1.13237
G1 X71.272 Y41.943 E1.1606
G1 X71.547 Y42.436 E1.18877
G1 X71.751 Y42.964 E1.21701
G1 X71.878 Y43.515 E1.24522
G1 X71.927 Y44.137 E1.27634
G1 X71.927 Y75.864 E2.85921
G1 X71.887 Y76.428 E2.88742
G1 X71.768 Y76.981 E2.91564
G1 X71.572 Y77.511 E2.94383
G1 X71.304 Y78.008 E2.972
G1 X70.968 Y78.463 E3.00022
G1 X70.571 Y78.866 E3.02844
G1 X70.121 Y79.208 E3.05664
G1 X69.628 Y79.484 E3.08483
G1 X69.1 Y79.688 E3.11307
G1 X68.55 Y79.815 E3.14123
G1 X67.927 Y79.864 E3.17241
G1 X52.073 Y79.864 E3.96337
G1 X51.509 Y79.824 E3.99158
G1 X50.956 Y79.705 E4.0198
G1 X50.426 Y79.509 E4.04799
G1 X49.929 Y79.241 E4.07616
G1 X49.474 Y78.905 E4.10438
G1 X49.071 Y78.508 E4.1326
G1 X48.729 Y78.058 E4.1608
G1 X48.453 Y77.565 E4.18899
G1 X48.249 Y77.037 E4.21723
G1 X48.122 Y76.487 E4.24539
G1 X48.073 Y75.864 E4.27657
G1 X48.073 Y44.136 E5.85949
G1 X48.113 Y43.572 E5.88769
G1 X48.232 Y43.019 E5.91591
G1 X48.428 Y42.489 E5.94411
G1 X48.696 Y41.992 E5.97228
G1 X49.032 Y41.537 E6.0005
G0 F6000 X49.428 Y41.694
G1 F1800 X49.82 Y41.328 E6.02725
G1 X50.262 Y41.025 E6.05399
G1 X50.745 Y40.79 E6.08079
G1 X51.256 Y40.63 E6.1075
G1 X51.786 Y40.547 E6.13426
G1 X52.073 Y40.536 E6.14859
G1 X67.927 Y40.537 E6.93955
G1 X68.462 Y40.577 E6.96632
G1 X68.985 Y40.696 E6.99308
G1 X69.484 Y40.891 E7.01981
G1 X69.949 Y41.159 E7.04658
G1 X70.369 Y41.492 E7.07332
G1 X70.735 Y41.884 E7.10008
G1 X71.039 Y42.326 E7.12684
G1 X71.273 Y42.809 E7.15362
G1 X71.433 Y43.321 E7.18038
G1 X71.516 Y43.85 E7.2071
G1 X71.527 Y44.137 E7.22142
G1 X71.527 Y75.864 E8.80429
G1 X71.487 Y76.399 E8.83106
G1 X71.368 Y76.922 E8.85782
G1 X71.173 Y77.421 E8.88454
G1 X70.905 Y77.886 E8.91132
G1 X70.572 Y78.306 E8.93806
G1 X70.18 Y78.672 E8.96482
G1 X69.738 Y78.975 E8.99155
G1 X69.255 Y79.21 E9.01835
G1 X68.744 Y79.37 E9.04507
G1 X68.214 Y79.453 E9.07183
G1 X67.927 Y79.464 E9.08616
G1 X52.073 Y79.464 E9.87712
G1 X51.538 Y79.424 E9.90388
G1 X51.015 Y79.305 E9.93064
G1 X50.516 Y79.11 E9.95737
G1 X50.051 Y78.842 E9.98415
G1 X49.631 Y78.509 E10.01089
G1 X49.265 Y78.117 E10.03765
G1 X48.962 Y77.675 E10.06438
G1 X48.727 Y77.192 E10.09118
G1 X48.567 Y76.681 E10.11789
G1 X48.484 Y76.151 E10.14466
G1 X48.473 Y75.864 E10.15899
G1 X48.473 Y44.136 E11.7419
G1 X48.513 Y43.601 E11.76867
G1 X48.632 Y43.078 E11.79543
G1 X48.827 Y42.579 E11.82216
G1 X49.095 Y42.114 E11.84893
G1 X49.428 Y41.694 E11.87567
G0 F6000 X49.822 Y41.861
G1 F1800 X50.209 Y41.535 E11.90092
G1 X50.642 Y41.274 E11.92614
G1 X51.11 Y41.084 E11.95134
G1 X51.603 Y40.971 E11.97657
G1 X52.073 Y40.936 E12.00009
G1 X67.927 Y40.937 E12.79105
G1 X68.431 Y40.977 E12.81627
G1 X68.923 Y41.096 E12.84152
G1 X69.389 Y41.291 E12.86673
G1 X69.819 Y41.556 E12.89193
G1 X70.202 Y41.887 E12.91718
G1 X70.528 Y42.273 E12.94239
G1 X70.789 Y42.706 E12.96761
G1 X70.979 Y43.175 E12.99286
G1 X71.092 Y43.667 E13.01804
G1 X71.127 Y44.137 E13.04156
G1 X71.127 Y75.864 E14.62442
G1 X71.087 Y76.368 E14.64965
G1 X70.968 Y76.859 E14.67485
G1 X70.774 Y77.326 E14.70008
G1 X70.508 Y77.756 E14.72531
G1 X70.178 Y78.139 E14.75053
G1 X69.791 Y78.465 E14.77577
G1 X69.358 Y78.726 E14.801
G1 X68.89 Y78.916 E14.8262
G1 X68.397 Y79.029 E14.85143
G1 X67.927 Y79.064 E14.87494
G1 X52.073 Y79.064 E15.6659
G1 X51.569 Y79.024 E15.69113
G1 X51.078 Y78.905 E15.71633
G1 X50.611 Y78.711 E15.74156
G1 X50.181 Y78.445 E15.76679
G1 X49.798 Y78.115 E15.79201
G1 X49.472 Y77.728 E15.81725
G1 X49.211 Y77.295 E15.84248
G1 X49.021 Y76.827 E15.86768
G1 X48.908 Y76.334 E15.89291
G1 X48.873 Y75.864 E15.91642
G1 X48.873 Y44.136 E17.49934
G1 X48.913 Y43.632 E17.52456
G1 X49.032 Y43.141 E17.54977
G1 X49.226 Y42.674 E17.575
G1 X49.492 Y42.244 E17.60022
G1 X49.822 Y41.861 E17.62545
G1 F1500 E11.12545
G0 F6000 X52.692 Y43.462
G0 X52.692 Y44.755
G0 X53.064 Y45.127
;TYPE:WALL-INNER
G1 F1500 E17.62545
G1 F1800 X66.936 Y45.127 E18.31752
G1 X66.936 Y74.873 E19.80156
G1 X53.064 Y74.873 E20.49363
G1 X53.064 Y45.127 E21.97767
G0 F6000 X52.664 Y44.727
G1 F1800 X67.336 Y44.727 E22.70966
G1 X67.336 Y75.273 E24.2336
G1 X52.664 Y75.273 E24.96559
G1 X52.664 Y44.727 E26.48954
G0 F6000 X52.264 Y44.327
;TYPE:WALL-OUTER
G1 F1800 X67.736 Y44.327 E27.26144
G1 X67.736 Y75.673 E28.8253
G1 X52.264 Y75.673 E29.5972
G1 X52.264 Y44.327 E31.16106
G0 F6000 X52.734 Y44.797
G0 X53.243 Y45.324
;TYPE:SKIN
G1 F1800 X66.755 Y58.836 E32.1144
G0 X66.825 Y58.906
G0 F6000 X66.755 Y59.401
G1 F1800 X53.243 Y45.889 E33.06775
G0 X53.173 Y45.819
G0 F6000 X53.243 Y46.455
G1 F1800 X66.755 Y59.967 E34.02109
G0 X66.825 Y60.037
G0 F6000 X66.755 Y60.533
G1 F1800 X53.243 Y47.021 E34.97444
G0 X53.173 Y46.951
G0 F6000 X53.243 Y47.586
G1 F1800 X66.755 Y61.098 E35.92778
G0 X66.825 Y61.168
G0 F6000 X66.755 Y61.664
G1 F1800 X53.243 Y48.152 E36.88112
G0 X53.173 Y48.082
G0 F6000 X53.243 Y48.718
G1 F1800 X66.755 Y62.23 E37.83447
G0 X66.825 Y62.3
G0 F6000 X66.755 Y62.796
G1 F1800 X53.243 Y49.283 E38.78785
G0 X53.173 Y49.213
G0 F6000 X53.243 Y49.849
G1 F1800 X66.755 Y63.361 E39.74119
G0 X66.825 Y63.431
G0 F6000 X66.755 Y63.927
G1 F1800 X53.243 Y50.415 E40.69454
G0 X53.173 Y50.345
G0 F6000 X53.243 Y50.98
G1 F1800 X66.755 Y64.493 E41.64792
G0 X66.825 Y64.563
G0 F6000 X66.755 Y65.058
G1 F1800 X53.243 Y51.546 E42.60126
G0 X53.173 Y51.476
G0 F6000 X53.243 Y52.112
G1 F1800 X66.755 Y65.624 E43.55461
G0 X66.825 Y65.694
G0 F6000 X66.755 Y66.19
G1 F1800 X53.243 Y52.678 E44.50795
G0 X53.173 Y52.608
G0 F6000 X53.243 Y53.243
G1 F1800 X66.755 Y66.755 E45.4613
G0 X66.825 Y66.825
G0 F6000 X66.755 Y67.321
G1 F1800 X53.243 Y53.809 E46.41464
G0 X53.173 Y53.739
G0 F6000 X53.243 Y54.375
G1 F1800 X66.755 Y67.887 E47.36799
G0 X66.825 Y67.957
G0 F6000 X66.755 Y68.452
G1 F1800 X53.243 Y54.94 E48.32133
G0 X53.173 Y54.87
G0 F6000 X53.243 Y55.506
G1 F1800 X66.755 Y69.018 E49.27467
G0 X66.825 Y69.088
G0 F6000 X66.755 Y69.584
G1 F1800 X53.243 Y56.072 E50.22802
G0 X53.173 Y56.002
G0 F6000 X53.243 Y56.637
G1 F1800 X66.755 Y70.149 E51.18136
G0 X66.825 Y70.219
G0 F6000 X66.755 Y70.715
G1 F1800 X53.243 Y57.203 E52.13471
G0 X53.173 Y57.133
G0 F6000 X53.243 Y57.769
G1 F1800 X66.755 Y71.281 E53.08805
G0 X66.825 Y71.351
G0 F6000 X66.755 Y71.846
G1 F1800 X53.243 Y58.334 E54.0414
G0 X53.173 Y58.264
G0 F6000 X53.243 Y58.9
G1 F1800 X66.755 Y72.412 E54.99474
G0 X66.825 Y72.482
G0 F6000 X66.755 Y72.978
G1 F1800 X53.243 Y59.466 E55.94809
G0 X53.173 Y59.396
G0 F6000 X53.243 Y60.031
G1 F1800 X66.755 Y73.544 E56.90147
G0 X66.825 Y73.614
G0 F6000 X66.755 Y74.109
G1 F1800 X53.243 Y60.597 E57.85481
G0 X53.173 Y60.527
G0 F6000 X53.243 Y61.163
G1 F1800 X66.755 Y74.675 E58.80816
G0 X66.825 Y74.745
G0 F6000 X66.207 Y74.692
G1 F1800 X53.243 Y61.729 E59.7228
G0 X53.173 Y61.659
G0 F6000 X53.243 Y62.294
G1 F1800 X65.641 Y74.692 E60.59755
G0 X65.711 Y74.762
G0 F6000 X65.075 Y74.692
G1 F1800 X53.243 Y62.86 E61.43236
G0 X53.173 Y62.79
G0 F6000 X53.243 Y63.426
G1 F1800 X64.51 Y74.692 E62.22727
G0 X64.58 Y74.762
G0 F6000 X63.944 Y74.692
G1 F1800 X53.243 Y63.991 E62.98228
G0 X53.173 Y63.921
G0 F6000 X53.243 Y64.557
G1 F1800 X63.378 Y74.692 E63.69736
G0 X63.448 Y74.762
G0 F6000 X62.813 Y74.692
G1 F1800 X53.243 Y65.123 E64.37254
G0 X53.173 Y65.053
G0 F6000 X53.243 Y65.688
G1 F1800 X62.247 Y74.692 E65.00782
G0 X62.317 Y74.762
G0 F6000 X61.681 Y74.692
G1 F1800 X53.243 Y66.254 E65.60317
G0 X53.173 Y66.184
G0 F6000 X53.243 Y66.82
G1 F1800 X61.115 Y74.692 E66.15858
G0 X61.185 Y74.762
G0 F6000 X60.55 Y74.692
G1 F1800 X53.243 Y67.385 E66.67413
G0 X53.173 Y67.315
G0 F6000 X53.243 Y67.951
G1 F1800 X59.984 Y74.692 E67.14974
G0 X60.054 Y74.762
G0 F6000 X59.418 Y74.692
G1 F1800 X53.243 Y68.517 E67.58542
G0 X53.173 Y68.447
G0 F6000 X53.243 Y69.082
G1 F1800 X58.853 Y74.692 E67.98124
G0 X58.923 Y74.762
G0 F6000 X58.287 Y74.692
G1 F1800 X53.243 Y69.648 E68.33712
G0 X53.173 Y69.578
G0 F6000 X53.243 Y70.214
G1 F1800 X57.721 Y74.692 E68.65307
G0 X57.791 Y74.762
G0 F6000 X57.156 Y74.692
G1 F1800 X53.243 Y70.779 E68.92915
G0 X53.173 Y70.709
G0 F6000 X53.243 Y71.345
G1 F1800 X56.59 Y74.692 E69.1653
G0 X56.66 Y74.762
G0 F6000 X56.024 Y74.692
G1 F1800 X53.243 Y71.911 E69.36151
G0 X53.173 Y71.841
G0 F6000 X53.243 Y72.477
G1 F1800 X55.459 Y74.692 E69.51783
G0 X55.529 Y74.762
G0 F6000 X54.893 Y74.692
G1 F1800 X53.243 Y73.042 E69.63425
G0 X53.173 Y72.972
G0 F6000 X53.243 Y73.608
G1 F1800 X54.327 Y74.692 E69.71073
G0 X54.397 Y74.762
G0 F6000 X53.762 Y74.692
G1 F1800 X53.243 Y74.174 E69.74731
G0 F6000 X66.755 Y58.27
G1 F1800 X53.792 Y45.307 E70.66192
G0 X53.722 Y45.237
G0 F6000 X54.358 Y45.307
G1 F1800 X66.755 Y57.704 E71.5366
G0 X66.825 Y57.774
G0 F6000 X66.755 Y57.139
G1 F1800 X54.923 Y45.307 E72.37141
G0 X54.853 Y45.237
G0 F6000 X55.489 Y45.307
G1 F1800 X66.755 Y56.573 E73.16629
G0 X66.825 Y56.643
G0 F6000 X66.755 Y56.007
G1 F1800 X56.055 Y45.307 E73.92123
G0 X55.985 Y45.237
G0 F6000 X56.62 Y45.307
G1 F1800 X66.755 Y55.442 E74.63631
G0 X66.825 Y55.512
G0 F6000 X66.755 Y54.876
G1 F1800 X57.186 Y45.307 E75.31145
G0 X57.116 Y45.237
G0 F6000 X57.752 Y45.307
G1 F1800 X66.755 Y54.31 E75.94666
G0 X66.825 Y54.38
G0 F6000 X66.755 Y53.745
G1 F1800 X58.317 Y45.307 E76.54201
G0 X58.247 Y45.237
G0 F6000 X58.883 Y45.307
G1 F1800 X66.755 Y53.179 E77.09742
G0 X66.825 Y53.249
G0 F6000 X66.755 Y52.613
G1 F1800 X59.449 Y45.307 E77.6129
G0 X59.379 Y45.237
G0 F6000 X60.014 Y45.307
G1 F1800 X66.755 Y52.048 E78.08851
G0 X66.825 Y52.118
G0 F6000 X66.755 Y51.482
G1 F1800 X60.58 Y45.307 E78.52419
G0 X60.51 Y45.237
G0 F6000 X61.146 Y45.307
G1 F1800 X66.755 Y50.916 E78.91994
G0 X66.825 Y50.986
G0 F6000 X66.755 Y50.35
G1 F1800 X61.712 Y45.307 E79.27575
G0 X61.642 Y45.237
G0 F6000 X62.277 Y45.307
G1 F1800 X66.755 Y49.785 E79.5917
G0 X66.825 Y49.855
G0 F6000 X66.755 Y49.219
G1 F1800 X62.843 Y45.307 E79.86771
G0 X62.773 Y45.237
G0 F6000 X63.409 Y45.307
G1 F1800 X66.755 Y48.653 E80.10379
G0 X66.825 Y48.723
G0 F6000 X66.755 Y48.088
G1 F1800 X63.974 Y45.307 E80.3
G0 X63.904 Y45.237
G0 F6000 X64.54 Y45.307
G1 F1800 X66.755 Y47.522 E80.45628
G0 X66.825 Y47.592
G0 F6000 X66.755 Y46.956
G1 F1800 X65.106 Y45.307 E80.57263
G0 X65.036 Y45.237
G0 F6000 X65.671 Y45.307
G1 F1800 X66.755 Y46.391 E80.64911
G0 X66.825 Y46.461
G0 F6000 X66.755 Y45.825
G1 F1800 X66.237 Y45.307 E80.68566
;TIME_ELAPSED:64.986933
;LAYER:1
M106 S255
G0 F6000 X66.936 Y45.127 Z.475
;TYPE:WALL-INNER
G1 F1800 X66.936 Y74.873 E81.55134
G1 X53.064 Y74.873 E81.95505
G1 X53.064 Y45.127 E82.82074
G1 X66.936 Y45.127 E83.22445
G0 F6000 X67.336 Y44.727
G1 F1800 X67.336 Y75.273 E84.11342
G1 X52.664 Y75.273 E84.54041
G1 X52.664 Y44.727 E85.42938
G1 X67.336 Y44.727 E85.85638
G0 F6000 X67.736 Y44.327
;TYPE:WALL-OUTER
G1 F1350 X67.736 Y75.673 E86.76863
G1 X52.264 Y75.673 E87.2189
G1 X52.264 Y44.327 E88.13115
G1 X67.736 Y44.327 E88.58143
G0 F6000 X67.266 Y44.797
G0 X66.698 Y45.307
;TYPE:SKIN
G1 F1350 X53.244 Y58.761 E89.13516
G0 X53.174 Y58.831
G0 F6000 X53.244 Y59.326
G1 F1350 X66.755 Y45.816 E89.69122
G0 X66.825 Y45.746
G0 F6000 X66.755 Y46.381
G1 F1350 X53.244 Y59.892 E90.24729
G0 X53.174 Y59.962
G0 F6000 X53.244 Y60.458
G1 F1350 X66.755 Y46.947 E90.80337
G0 X66.825 Y46.877
G0 F6000 X66.755 Y47.513
G1 F1350 X53.244 Y61.024 E91.35945
G0 X53.174 Y61.094
G0 F6000 X53.244 Y61.589
G1 F1350 X66.755 Y48.079 E91.9155
G0 X66.825 Y48.009
G0 F6000 X66.755 Y48.644
G1 F1350 X53.244 Y62.155 E92.47158
G0 X53.174 Y62.225
G0 F6000 X53.244 Y62.721
G1 F1350 X66.755 Y49.21 E93.02765
G0 X66.825 Y49.14
G0 F6000 X66.755 Y49.776
G1 F1350 X53.244 Y63.286 E93.58371
G0 X53.174 Y63.356
G0 F6000 X53.244 Y63.852
G1 F1350 X66.755 Y50.341 E94.13979
G0 X66.825 Y50.271
G0 F6000 X66.755 Y50.907
G1 F1350 X53.244 Y64.418 E94.69586
G0 X53.174 Y64.488
G0 F6000 X53.244 Y64.983
G1 F1350 X66.755 Y51.473 E95.25192
G0 X66.825 Y51.403
G0 F6000 X66.755 Y52.038
G1 F1350 X53.244 Y65.549 E95.808
G0 X53.174 Y65.619
G0 F6000 X53.244 Y66.115
G1 F1350 X66.755 Y52.604 E96.36407
G0 X66.825 Y52.534
G0 F6000 X66.755 Y53.17
G1 F1350 X53.244 Y66.68 E96.92013
G0 X53.174 Y66.75
G0 F6000 X53.244 Y67.246
G1 F1350 X66.755 Y53.735 E97.47621
G0 X66.825 Y53.665
G0 F6000 X66.755 Y54.301
G1 F1350 X53.244 Y67.812 E98.03228
G0 X53.174 Y67.882
G0 F6000 X53.244 Y68.377
G1 F1350 X66.755 Y54.867 E98.58834
G0 X66.825 Y54.797
G0 F6000 X66.755 Y55.432
G1 F1350 X53.244 Y68.943 E99.14441
G0 X53.174 Y69.013
G0 F6000 X53.244 Y69.509
G1 F1350 X66.755 Y55.998 E99.70049
G0 X66.825 Y55.928
G0 F6000 X66.755 Y56.564
G1 F1350 X53.244 Y70.074 E100.25655
G0 X53.174 Y70.144
G0 F6000 X53.244 Y70.64
G1 F1350 X66.755 Y57.129 E100.81262
G0 X66.825 Y57.059
G0 F6000 X66.755 Y57.695
G1 F1350 X53.244 Y71.206 E101.3687
G0 X53.174 Y71.276
G0 F6000 X53.244 Y71.772
G1 F1350 X66.755 Y58.261 E101.92478
G0 X66.825 Y58.191
G0 F6000 X66.755 Y58.827
G1 F1350 X53.244 Y72.337 E102.48083
G0 X53.174 Y72.407
G0 F6000 X53.244 Y72.903
G1 F1350 X66.755 Y59.392 E103.03691
G0 X66.825 Y59.322
G0 F6000 X66.755 Y59.958
G1 F1350 X53.244 Y73.469 E103.59299
G0 X53.174 Y73.539
G0 F6000 X53.244 Y74.034
G1 F1350 X66.755 Y60.524 E104.14904
G0 X66.825 Y60.454
G0 F6000 X66.755 Y61.089
G1 F1350 X53.244 Y74.6 E104.70512
G0 X53.174 Y74.67
G0 F6000 X53.718 Y74.692
G1 F1350 X66.755 Y61.655 E105.24169
G0 X66.825 Y61.585
G0 F6000 X66.755 Y62.221
G1 F1350 X54.283 Y74.692 E105.75498
G0 X54.213 Y74.762
G0 F6000 X54.849 Y74.692
G1 F1350 X66.755 Y62.786 E106.245
G0 X66.825 Y62.716
G0 F6000 X66.755 Y63.352
G1 F1350 X55.415 Y74.692 E106.71172
G0 X55.345 Y74.762
G0 F6000 X55.98 Y74.692
G1 F1350 X66.755 Y63.918 E107.15517
G0 X66.825 Y63.848
G0 F6000 X66.755 Y64.483
G1 F1350 X56.546 Y74.692 E107.57535
G0 X56.476 Y74.762
G0 F6000 X57.112 Y74.692
G1 F1350 X66.755 Y65.049 E107.97223
G0 X66.825 Y64.979
G0 F6000 X66.755 Y65.615
G1 F1350 X57.677 Y74.692 E108.34583
G0 X57.607 Y74.762
G0 F6000 X58.243 Y74.692
G1 F1350 X66.755 Y66.18 E108.69616
G0 X66.825 Y66.11
G0 F6000 X66.755 Y66.746
G1 F1350 X58.809 Y74.692 E109.0232
G0 X58.739 Y74.762
G0 F6000 X59.375 Y74.692
G1 F1350 X66.755 Y67.312 E109.32694
G0 X66.825 Y67.242
G0 F6000 X66.755 Y67.878
G1 F1350 X59.94 Y74.692 E109.60741
G0 X59.87 Y74.762
G0 F6000 X60.506 Y74.692
G1 F1350 X66.755 Y68.443 E109.8646
G0 X66.825 Y68.373
G0 F6000 X66.755 Y69.009
G1 F1350 X61.072 Y74.692 E110.0985
G0 X61.002 Y74.762
G0 F6000 X61.637 Y74.692
G1 F1350 X66.755 Y69.575 E110.30912
G0 X66.825 Y69.505
G0 F6000 X66.755 Y70.14
G1 F1350 X62.203 Y74.692 E110.49647
G0 X62.133 Y74.762
G0 F6000 X62.769 Y74.692
G1 F1350 X66.755 Y70.706 E110.66052
G0 X66.825 Y70.636
G0 F6000 X66.755 Y71.272
G1 F1350 X63.334 Y74.692 E110.8013
G0 X63.264 Y74.762
G0 F6000 X63.9 Y74.692
G1 F1350 X66.755 Y71.837 E110.9188
G0 X66.825 Y71.767
G0 F6000 X66.755 Y72.403
G1 F1350 X64.466 Y74.692 E111.01301
G0 X64.396 Y74.762
G0 F6000 X65.031 Y74.692
G1 F1350 X66.755 Y72.969 E111.08395
G0 X66.825 Y72.899
G0 F6000 X66.755 Y73.534
G1 F1350 X65.597 Y74.692 E111.13161
G0 X65.527 Y74.762
G0 F6000 X66.163 Y74.692
G1 F1350 X66.755 Y74.1 E111.15597
G0 X66.825 Y74.03
G0 F6000 X53.244 Y58.195
G1 F1350 X66.132 Y45.307 E111.68641
G0 X66.202 Y45.237
G0 F6000 X65.567 Y45.307
G1 F1350 X53.244 Y57.629 E112.19357
G0 X53.174 Y57.699
G0 F6000 X53.244 Y57.064
G1 F1350 X65.001 Y45.307 E112.67745
G0 X65.071 Y45.237
G0 F6000 X64.435 Y45.307
G1 F1350 X53.244 Y56.498 E113.13805
G0 X53.174 Y56.568
G0 F6000 X53.244 Y55.932
