;FLAVOR:RepRap
;TIME:3117
;Generated with Cura_SteamEngine 2.3.1
M190 S60
M104 S200
M109 S200
G21 ;metric values
G90 ;absolute positioning
M82 ;set extruder to absolute mode
M107 ;start with the fan off
G28 X0 Y0 ;move X/Y to min endstops
G28 Z0 ;move Z to min endstops
G1 Z15.0 F9000 ;move the platform down 15mm
G92 E0 ;zero the extruded length
G1 F200 E3 ;extrude 3mm of feed stock
G92 E0 ;zero the extruded length again
G1 F9000
M117 Printing...
;LAYER_COUNT:68
;LAYER:0
M107
G1 F1500 E-6.5
G0 F6000 X45.963 Y46.701 Z.3
;TYPE:SKIRT
G1 F1500 E0
G1 F1800 X47.071 Y45.621 E0.07719
G1 X47.434 Y45.307 E0.10114
G1 X49.101 Y44.033 E0.20581
G1 X49.543 Y43.74 E0.23227
G1 X51.262 Y42.756 E0.33109
G1 X51.587 Y42.588 E0.34934
G1 X52.406 Y42.214 E0.39426
G1 X52.728 Y42.084 E0.41158
G1 X54.339 Y41.511 E0.49689
G1 X54.721 Y41.396 E0.51679
G1 X56.027 Y41.074 E0.5839
G1 X56.415 Y40.999 E0.60362
G1 X58.055 Y40.763 E0.68628
G1 X58.518 Y40.723 E0.70946
G1 X60.468 Y40.671 E0.80678
G1 X60.976 Y40.69 E0.83215
G1 X62.864 Y40.88 E0.92681
G1 X63.232 Y40.935 E0.94538
G1 X64.253 Y41.135 E0.99728
G1 X64.643 Y41.232 E1.01733
G1 X66.536 Y41.805 E1.11601
G1 X67.002 Y41.978 E1.14081
G1 X68.725 Y42.744 E1.23488
G1 X69.177 Y42.981 E1.26034
G1 X70.875 Y44.013 E1.35948
G1 X71.323 Y44.329 E1.38683
G1 X73.042 Y45.728 E1.4974
G1 X73.4 Y46.058 E1.52169
G1 X74.473 Y47.174 E1.59893
G1 X74.772 Y47.523 E1.62186
G1 X75.944 Y49.062 E1.71837
G1 X76.226 Y49.484 E1.74369
G1 X77.208 Y51.184 E1.84164
G1 X77.391 Y51.542 E1.86169
G1 X77.84 Y52.539 E1.91625
G1 X77.974 Y52.878 E1.93443
G1 X78.563 Y54.586 E2.02457
G1 X78.695 Y55.059 E2.04907
G1 X79.084 Y56.89 E2.14246
G1 X79.156 Y57.37 E2.16667
G1 X79.322 Y59.257 E2.26118
G1 X79.334 Y59.768 E2.28668
G1 X79.255 Y61.743 E2.38529
G1 X79.204 Y62.24 E2.41022
G1 X78.887 Y64.145 E2.50656
G1 X78.797 Y64.552 E2.52736
G1 X78.482 Y65.694 E2.58646
G1 X78.357 Y66.072 E2.60633
G1 X77.67 Y67.849 E2.70138
G1 X77.466 Y68.295 E2.72584
G1 X76.586 Y69.939 E2.81887
G1 X76.314 Y70.375 E2.84451
G1 X75.118 Y72.05 E2.94719
G1 X74.803 Y72.438 E2.97213
G1 X73.581 Y73.763 E3.06205
G1 X73.247 Y74.086 E3.08523
G1 X71.916 Y75.229 E3.17276
G1 X71.545 Y75.512 E3.19604
G1 X70.047 Y76.521 E3.28615
G1 X69.605 Y76.778 E3.31166
G1 X67.711 Y77.728 E3.41737
G1 X67.248 Y77.925 E3.44247
G1 X65.583 Y78.512 E3.53055
G1 X65.231 Y78.619 E3.54891
G1 X64.168 Y78.887 E3.6036
G1 X63.751 Y78.968 E3.62479
G1 X61.704 Y79.258 E3.72794
G1 X61.188 Y79.298 E3.75376
G1 X59.251 Y79.32 E3.8504
G1 X58.761 Y79.295 E3.87488
G1 X56.921 Y79.089 E3.96725
G1 X56.438 Y79.005 E3.99171
G1 X54.665 Y78.582 E4.08265
G1 X54.198 Y78.44 E4.107
G1 X52.317 Y77.74 E4.20713
G1 X51.849 Y77.531 E4.2327
G1 X50.156 Y76.64 E4.32815
G1 X49.74 Y76.387 E4.35244
G1 X48.204 Y75.322 E4.44569
G1 X47.821 Y75.02 E4.47002
G1 X46.472 Y73.817 E4.5602
G1 X46.181 Y73.53 E4.58059
G1 X45.281 Y72.545 E4.64716
G1 X45.025 Y72.235 E4.66722
G1 X43.984 Y70.836 E4.75421
G1 X43.723 Y70.438 E4.77796
G1 X42.78 Y68.794 E4.87251
G1 X42.601 Y68.442 E4.89222
G1 X42.135 Y67.404 E4.94898
G1 X42.002 Y67.068 E4.96701
G1 X41.46 Y65.493 E5.05011
G1 X41.357 Y65.145 E5.06822
G1 X41.084 Y64.033 E5.12534
G1 X41.01 Y63.65 E5.1448
G1 X40.757 Y61.896 E5.23322
G1 X40.717 Y61.42 E5.25705
G1 X40.671 Y59.478 E5.35396
G1 X40.69 Y58.98 E5.37882
G1 X40.876 Y57.141 E5.47104
G1 X40.935 Y56.752 E5.49067
G1 X41.17 Y55.588 E5.54991
G1 X41.274 Y55.183 E5.57077
G1 X41.867 Y53.293 E5.6696
G1 X42.048 Y52.824 E5.69468
G1 X42.854 Y51.065 E5.79121
G1 X43.08 Y50.641 E5.81518
G1 X43.992 Y49.153 E5.90225
G1 X44.288 Y48.732 E5.92793
G1 X45.641 Y47.054 E6.03547
G1 X45.963 Y46.701 E6.0593
G0 F6000 X46.242 Y46.987
G1 F1800 X47.35 Y45.907 E6.1365
G1 X47.677 Y45.625 E6.15804
G1 X49.344 Y44.351 E6.26272
G1 X49.742 Y44.087 E6.28654
G1 X51.461 Y43.103 E6.38536
G1 X51.754 Y42.952 E6.40181
G1 X52.573 Y42.578 E6.44672
G1 X52.862 Y42.461 E6.46228
G1 X54.473 Y41.888 E6.54759
G1 X54.817 Y41.785 E6.5655
G1 X56.123 Y41.463 E6.63261
G1 X56.472 Y41.395 E6.65035
G1 X58.112 Y41.159 E6.73301
G1 X58.529 Y41.123 E6.75389
G1 X60.479 Y41.071 E6.85121
G1 X60.935 Y41.088 E6.87398
G1 X62.823 Y41.278 E6.96865
G1 X63.155 Y41.327 E6.98539
G1 X64.176 Y41.527 E7.0373
G1 X64.527 Y41.614 E7.05534
G1 X66.42 Y42.187 E7.15401
G1 X66.839 Y42.343 E7.17632
G1 X68.562 Y43.109 E7.27039
G1 X68.97 Y43.323 E7.29337
G1 X70.668 Y44.355 E7.39251
G1 X71.07 Y44.639 E7.41706
G1 X72.789 Y46.038 E7.52764
G1 X73.112 Y46.335 E7.54953
G1 X74.185 Y47.451 E7.62677
G1 X74.454 Y47.765 E7.64739
G1 X75.626 Y49.304 E7.7439
G1 X75.879 Y49.684 E7.76668
G1 X76.861 Y51.384 E7.86463
G1 X77.026 Y51.707 E7.88272
G1 X77.475 Y52.704 E7.93727
G1 X77.596 Y53.008 E7.9536
G1 X78.185 Y54.716 E8.04373
G1 X78.303 Y55.142 E8.06579
G1 X78.692 Y56.973 E8.15918
G1 X78.757 Y57.406 E8.18102
G1 X78.923 Y59.293 E8.27553
G1 X78.934 Y59.752 E8.29843
G1 X78.855 Y61.727 E8.39704
G1 X78.809 Y62.174 E8.41946
G1 X78.492 Y64.079 E8.51581
G1 X78.411 Y64.445 E8.53451
G1 X78.096 Y65.587 E8.59362
G1 X77.984 Y65.928 E8.61152
G1 X77.297 Y67.705 E8.70657
G1 X77.113 Y68.106 E8.72858
G1 X76.233 Y69.75 E8.82161
G1 X75.989 Y70.143 E8.84469
G1 X74.793 Y71.818 E8.94737
G1 X74.509 Y72.167 E8.96982
G1 X73.287 Y73.492 E9.05975
G1 X72.986 Y73.782 E9.0806
G1 X71.655 Y74.925 E9.16813
G1 X71.321 Y75.18 E9.18909
G1 X69.823 Y76.189 E9.2792
G1 X69.426 Y76.421 E9.30214
G1 X67.532 Y77.371 E9.40786
G1 X67.115 Y77.548 E9.43046
G1 X65.45 Y78.135 E9.51853
G1 X65.133 Y78.231 E9.53506
G1 X64.07 Y78.499 E9.58975
G1 X63.695 Y78.572 E9.60881
G1 X61.648 Y78.862 E9.71196
G1 X61.184 Y78.898 E9.73518
G1 X59.247 Y78.92 E9.83182
G1 X58.805 Y78.898 E9.8539
G1 X56.965 Y78.692 E9.94627
G1 X56.531 Y78.616 E9.96825
G1 X54.758 Y78.193 E10.05919
G1 X54.337 Y78.065 E10.08114
G1 X52.456 Y77.365 E10.18127
G1 X52.035 Y77.177 E10.20428
G1 X50.342 Y76.286 E10.29972
G1 X49.968 Y76.058 E10.32158
G1 X48.432 Y74.993 E10.41483
G1 X48.087 Y74.722 E10.43671
G1 X46.738 Y73.519 E10.52689
G1 X46.476 Y73.26 E10.54527
G1 X45.576 Y72.275 E10.61183
G1 X45.346 Y71.996 E10.62987
G1 X44.305 Y70.597 E10.71687
G1 X44.07 Y70.239 E10.73824
G1 X43.127 Y68.595 E10.83279
G1 X42.966 Y68.278 E10.85053
G1 X42.5 Y67.24 E10.9073
G1 X42.38 Y66.937 E10.92356
G1 X41.838 Y65.362 E11.00665
G1 X41.746 Y65.049 E11.02293
G1 X41.473 Y63.937 E11.08006
G1 X41.406 Y63.593 E11.09754
G1 X41.153 Y61.839 E11.18595
G1 X41.117 Y61.41 E11.20743
G1 X41.071 Y59.468 E11.30435
G1 X41.088 Y59.021 E11.32666
G1 X41.274 Y57.182 E11.41888
G1 X41.327 Y56.832 E11.43654
G1 X41.562 Y55.668 E11.49578
G1 X41.656 Y55.302 E11.51464
G1 X42.249 Y53.412 E11.61346
G1 X42.411 Y52.99 E11.63601
G1 X43.217 Y51.231 E11.73254
G1 X43.421 Y50.85 E11.75411
G1 X44.333 Y49.362 E11.84118
G1 X44.6 Y48.983 E11.86431
G1 X45.953 Y47.305 E11.97184
G1 X46.242 Y46.987 E11.99328
G0 F6000 X46.521 Y47.273
G1 F1800 X47.629 Y46.193 E12.07048
G1 X47.92 Y45.942 E12.08965
G1 X49.587 Y44.668 E12.19432
G1 X49.94 Y44.434 E12.21545
G1 X51.659 Y43.45 E12.31427
G1 X51.92 Y43.316 E12.32891
G1 X52.739 Y42.942 E12.37383
G1 X52.996 Y42.838 E12.38766
G1 X54.607 Y42.265 E12.47296
G1 X54.913 Y42.173 E12.48891
G1 X56.219 Y41.851 E12.55601
G1 X56.529 Y41.791 E12.57177
G1 X58.169 Y41.555 E12.65443
G1 X58.54 Y41.523 E12.67301
G1 X60.49 Y41.471 E12.77033
G1 X60.895 Y41.486 E12.79055
G1 X62.783 Y41.676 E12.88522
G1 X63.078 Y41.72 E12.9001
G1 X64.099 Y41.92 E12.952
G1 X64.411 Y41.997 E12.96803
G1 X66.304 Y42.57 E13.06671
G1 X66.677 Y42.709 E13.08657
G1 X68.4 Y43.475 E13.18064
G1 X68.762 Y43.664 E13.20101
G1 X70.46 Y44.696 E13.30015
G1 X70.818 Y44.949 E13.32202
G1 X72.537 Y46.348 E13.43259
G1 X72.824 Y46.612 E13.45205
G1 X73.897 Y47.728 E13.52928
G1 X74.136 Y48.007 E13.54761
G1 X75.308 Y49.546 E13.64412
G1 X75.533 Y49.884 E13.66438
G1 X76.515 Y51.584 E13.76233
G1 X76.662 Y51.871 E13.77841
G1 X77.111 Y52.868 E13.83297
G1 X77.218 Y53.139 E13.8475
G1 X77.807 Y54.847 E13.93764
G1 X77.912 Y55.225 E13.95721
G1 X78.301 Y57.056 E14.0506
G1 X78.359 Y57.441 E14.07002
G1 X78.525 Y59.328 E14.16453
G1 X78.534 Y59.736 E14.18489
G1 X78.455 Y61.711 E14.2835
G1 X78.415 Y62.108 E14.30341
G1 X78.098 Y64.013 E14.39976
G1 X78.026 Y64.339 E14.41641
G1 X77.711 Y65.481 E14.47551
G1 X77.611 Y65.784 E14.49143
G1 X76.924 Y67.561 E14.58648
G1 X76.76 Y67.917 E14.60604
G1 X75.88 Y69.561 E14.69907
G1 X75.663 Y69.911 E14.71961
G1 X74.467 Y71.586 E14.8223
G1 X74.215 Y71.895 E14.84219
G1 X72.993 Y73.22 E14.93211
G1 X72.726 Y73.479 E14.95067
G1 X71.395 Y74.622 E15.0382
G1 X71.098 Y74.848 E15.05682
G1 X69.6 Y75.857 E15.14693
G1 X69.247 Y76.063 E15.16732
G1 X67.353 Y77.013 E15.27303
G1 X66.982 Y77.171 E15.29315
G1 X65.317 Y77.758 E15.38123
G1 X65.035 Y77.843 E15.39592
G1 X63.972 Y78.111 E15.45062
G1 X63.639 Y78.176 E15.46754
G1 X61.592 Y78.466 E15.57069
G1 X61.179 Y78.498 E15.59135
G1 X59.242 Y78.52 E15.688
G1 X58.85 Y78.5 E15.70758
G1 X57.01 Y78.294 E15.79995
G1 X56.623 Y78.227 E15.81955
G1 X54.85 Y77.804 E15.91048
G1 X54.477 Y77.69 E15.92994
G1 X52.596 Y76.99 E16.03007
G1 X52.222 Y76.823 E16.05051
G1 X50.529 Y75.932 E16.14596
G1 X50.196 Y75.73 E16.16539
G1 X48.66 Y74.665 E16.25864
G1 X48.353 Y74.423 E16.27814
G1 X47.004 Y73.22 E16.36831
G1 X46.772 Y72.991 E16.38458
G1 X45.872 Y72.006 E16.45114
G1 X45.667 Y71.757 E16.46724
G1 X44.626 Y70.358 E16.55423
G1 X44.417 Y70.04 E16.57322
G1 X43.474 Y68.396 E16.66777
G1 X43.331 Y68.115 E16.6835
G1 X42.865 Y67.077 E16.74027
G1 X42.758 Y66.807 E16.75476
G1 X42.216 Y65.232 E16.83786
G1 X42.134 Y64.954 E16.85232
G1 X41.861 Y63.842 E16.90944
G1 X41.802 Y63.536 E16.92499
G1 X41.549 Y61.782 E17.0134
G1 X41.517 Y61.401 E17.03248
G1 X41.471 Y59.459 E17.12939
G1 X41.486 Y59.061 E17.14926
G1 X41.672 Y57.222 E17.24148
G1 X41.719 Y56.911 E17.25717
G1 X41.954 Y55.747 E17.31642
G1 X42.038 Y55.422 E17.33316
G1 X42.631 Y53.532 E17.43199
G1 X42.775 Y53.157 E17.45203
G1 X43.581 Y51.398 E17.54856
G1 X43.762 Y51.059 E17.56773
G1 X44.674 Y49.571 E17.6548
G1 X44.911 Y49.234 E17.67536
G1 X46.264 Y47.556 E17.7829
G1 X46.521 Y47.273 E17.80197
G0 F6000 X48.984 Y49.595
;TYPE:SUPPORT
G1 F1800 X49.594 Y48.987 E17.84494
G1 X50.351 Y48.317 E17.89537
G1 X51.088 Y47.744 E17.94195
G1 X51.885 Y47.206 E17.98992
G1 X52.685 Y46.729 E18.03639
G1 X53.572 Y46.281 E18.08597
G1 X54.43 Y45.907 E18.13266
G1 X55.294 Y45.601 E18.17839
G1 X56.245 Y45.319 E18.22788
G1 X57.144 Y45.12 E18.27381
G1 X58.123 Y44.966 E18.32326
G1 X59.052 Y44.877 E18.36982
G1 X60 Y44.847 E18.41714
G1 X60.948 Y44.877 E18.46446
G1 X61.877 Y44.966 E18.51102
G1 X62.856 Y45.12 E18.56046
G1 X63.755 Y45.319 E18.6064
G1 X64.706 Y45.601 E18.65589
G1 X65.578 Y45.91 E18.70204
G1 X66.462 Y46.294 E18.75012
G1 X67.275 Y46.705 E18.79557
G1 X68.115 Y47.205 E18.84434
G1 X68.91 Y47.74 E18.89215
G1 X69.644 Y48.31 E18.93852
G1 X70.406 Y48.987 E18.98937
G1 X71.044 Y49.622 E19.03428
G1 X71.664 Y50.325 E19.08104
G1 X72.264 Y51.098 E19.12986
G1 X72.782 Y51.861 E19.17587
G1 X73.28 Y52.702 E19.22463
G1 X73.706 Y53.541 E19.27158
G1 X74.085 Y54.416 E19.31915
G1 X74.415 Y55.332 E19.36772
G1 X74.671 Y56.2 E19.41287
G1 X74.672 Y56.205 E19.41313
G1 X74.886 Y57.166 E19.46225
G1 X75.033 Y58.098 E19.50932
G1 X75.123 Y59.036 E19.55633
G1 X75.153 Y59.947 E19.60181
G1 X75.123 Y60.949 E19.65182
G1 X75.036 Y61.866 E19.69777
G1 X74.877 Y62.88 E19.74898
G1 X74.686 Y63.74 E19.79293
G1 X74.413 Y64.676 E19.84157
G1 X74.087 Y65.583 E19.88966
G1 X73.714 Y66.444 E19.93647
G1 X73.286 Y67.286 E19.98359
G1 X72.799 Y68.112 E20.03143
G1 X72.267 Y68.896 E20.0787
G1 X71.663 Y69.67 E20.12768
G1 X71.022 Y70.398 E20.17608
G1 X70.4 Y71.021 E20.22
G1 X69.663 Y71.672 E20.26906
G1 X68.913 Y72.255 E20.31645
G1 X68.115 Y72.794 E20.36449
G1 X67.315 Y73.271 E20.41096
G1 X66.43 Y73.718 E20.46043
G1 X65.583 Y74.087 E20.50652
G1 X64.686 Y74.407 E20.55403
G1 X63.739 Y74.685 E20.60327
G1 X62.869 Y74.881 E20.64776
G1 X61.892 Y75.033 E20.69709
G1 X60.95 Y75.123 E20.7443
G1 X60 Y75.153 E20.79172
G1 X59.05 Y75.123 E20.83914
G1 X58.108 Y75.033 E20.88635
G1 X57.131 Y74.881 E20.93568
G1 X56.269 Y74.687 E20.97976
G1 X55.301 Y74.402 E21.03011
G1 X54.435 Y74.093 E21.07598
G1 X53.524 Y73.697 E21.12554
G1 X52.713 Y73.286 E21.1709
G1 X51.868 Y72.785 E21.21991
G1 X51.093 Y72.262 E21.26655
G1 X50.36 Y71.693 E21.31285
G1 X49.62 Y71.037 E21.36218
G1 X48.925 Y70.346 E21.41108
G1 X48.348 Y69.688 E21.45474
G1 X47.723 Y68.886 E21.50547
G1 X47.217 Y68.136 E21.55061
G1 X46.707 Y67.276 E21.60049
G1 X46.288 Y66.451 E21.64665
G1 X45.911 Y65.575 E21.69423
G1 X45.583 Y64.664 E21.74254
G1 X45.314 Y63.74 E21.79055
G1 X45.123 Y62.88 E21.8345
G1 X44.964 Y61.867 E21.88566
G1 X44.877 Y60.949 E21.93166
G1 X44.847 Y59.96 E21.98103
G1 X44.877 Y59.041 E22.0269
G1 X44.967 Y58.103 E22.07391
G1 X45.115 Y57.16 E22.12153
G1 X45.328 Y56.204 E22.1704
G1 X45.581 Y55.341 E22.21527
G1 X45.908 Y54.436 E22.26327
G1 X46.307 Y53.513 E22.31344
G1 X46.715 Y52.711 E22.35833
G1 X47.208 Y51.876 E22.40671
G1 X47.729 Y51.105 E22.45313
G1 X48.329 Y50.335 E22.50184
G1 X48.984 Y49.595 E22.55114
G1 F1500 E16.05114
G0 F6000 X50.358 Y50.937
G1 F1500 E22.55114
G1 F1800 X49.8 Y51.569 E22.5932
G1 X49.291 Y52.228 E22.63474
G1 X48.83 Y52.906 E22.67565
G1 X48.402 Y53.632 E22.71769
G1 X48.03 Y54.361 E22.75852
G1 X47.695 Y55.134 E22.80056
G1 X47.417 Y55.905 E22.84145
G1 X47.181 Y56.715 E22.88354
G1 X47.002 Y57.516 E22.92448
G1 X46.87 Y58.348 E22.96651
G1 X46.793 Y59.162 E23.0073
G1 X46.767 Y60.006 E23.04943
G1 X46.793 Y60.834 E23.09076
G1 X46.87 Y61.652 E23.13175
G1 X47.002 Y62.484 E23.17378
G1 X47.181 Y63.285 E23.21473
G1 X47.416 Y64.09 E23.25656
G1 X47.695 Y64.866 E23.29771
G1 X48.029 Y65.638 E23.33967
G1 X48.402 Y66.368 E23.38057
G1 X48.83 Y67.094 E23.42262
G1 X49.291 Y67.774 E23.4636
G1 X49.8 Y68.429 E23.50499
G1 X50.348 Y69.054 E23.54646
G1 X50.946 Y69.65 E23.58858
G1 X51.566 Y70.198 E23.62986
G1 X52.224 Y70.707 E23.67136
G1 X52.906 Y71.17 E23.71249
G1 X53.627 Y71.595 E23.75424
G1 X54.361 Y71.97 E23.79537
G1 X55.134 Y72.305 E23.8374
G1 X55.91 Y72.584 E23.87854
G1 X56.71 Y72.818 E23.92012
G1 X57.516 Y72.998 E23.96133
G1 X58.348 Y73.13 E24.00335
G1 X59.166 Y73.207 E24.04434
G1 X60 Y73.233 E24.08597
G1 X60.834 Y73.207 E24.1276
G1 X61.652 Y73.13 E24.16859
G1 X62.484 Y72.998 E24.21062
G1 X63.29 Y72.818 E24.25182
G1 X64.09 Y72.584 E24.29341
G1 X64.866 Y72.305 E24.33455
G1 X65.639 Y71.97 E24.37658
G1 X66.373 Y71.595 E24.4177
G1 X67.094 Y71.17 E24.45945
G1 X67.776 Y70.707 E24.50058
G1 X68.434 Y70.198 E24.54208
G1 X69.063 Y69.642 E24.58397
G1 X69.642 Y69.063 E24.62482
G1 X70.2 Y68.431 E24.66688
G1 X70.709 Y67.772 E24.70842
G1 X71.17 Y67.094 E24.74933
G1 X71.598 Y66.368 E24.79137
G1 X71.971 Y65.638 E24.83227
G1 X72.305 Y64.866 E24.87424
G1 X72.584 Y64.09 E24.91538
G1 X72.819 Y63.285 E24.95722
G1 X72.998 Y62.484 E24.99816
G1 X73.13 Y61.652 E25.04019
G1 X73.207 Y60.834 E25.08118
G1 X73.233 Y59.994 E25.12311
G1 X73.207 Y59.162 E25.16464
G1 X73.13 Y58.348 E25.20543
G1 X72.998 Y57.514 E25.24756
G1 X72.816 Y56.703 E25.28902
G1 X72.583 Y55.905 E25.3305
G1 X72.305 Y55.134 E25.37139
G1 X71.97 Y54.361 E25.41342
G1 X71.598 Y53.632 E25.45425
G1 X71.17 Y52.906 E25.4963
G1 X70.709 Y52.226 E25.53728
G1 X70.2 Y51.571 E25.57867
G1 X69.652 Y50.946 E25.62014
G1 X69.054 Y50.35 E25.66226
G1 X68.431 Y49.8 E25.70372
G1 X67.772 Y49.291 E25.74526
G1 X67.094 Y48.83 E25.78617
G1 X66.373 Y48.405 E25.82792
G1 X65.639 Y48.03 E25.86904
G1 X64.866 Y47.695 E25.91107
G1 X64.09 Y47.416 E25.95222
G1 X63.29 Y47.182 E25.9938
G1 X62.484 Y47.002 E26.035
G1 X61.652 Y46.87 E26.07703
G1 X60.834 Y46.793 E26.11802
G1 X60 Y46.767 E26.15965
G1 X59.166 Y46.793 E26.20128
G1 X58.348 Y46.87 E26.24227
G1 X57.516 Y47.002 E26.2843
G1 X56.71 Y47.182 E26.3255
G1 X55.91 Y47.416 E26.36708
G1 X55.134 Y47.695 E26.40822
G1 X54.361 Y48.03 E26.45025
G1 X53.627 Y48.405 E26.49138
G1 X52.906 Y48.83 E26.53313
G1 X52.228 Y49.291 E26.57404
G1 X51.569 Y49.8 E26.61558
G1 X50.937 Y50.358 E26.65764
G1 X50.358 Y50.937 E26.69849
G0 F6000 X50.414 Y50.654
G1 F1800 X48.283 Y50.654 E26.80481
G0 F6000 X47.988 Y51.031
G1 F1800 X47.988 Y54.092 E26.95752
G1 F1500 E20.45752
G0 F6000 X48.398 Y53.32
G1 F1500 E26.95752
G1 F1800 X46.585 Y53.32 E27.04797
G1 F1500 E20.54797
G0 F6000 X47.225 Y55.986
