;FLAVOR:RepRap
;TIME:2708
;Generated with Cura_SteamEngine 2.3.1
M190 S60
M104 S200
M109 S200
G21 ;metric values
G90 ;absolute positioning
M82 ;set extruder to absolute mode
M107 ;start with the fan off
G28 X0 Y0 ;move X/Y to min endstops
G28 Z0 ;move Z to min endstops
G1 Z15.0 F9000 ;move the platform down 15mm
G92 E0 ;zero the extruded length
G1 F200 E3 ;extrude 3mm of feed stock
G92 E0 ;zero the extruded length again
G1 F9000
;Put printing message on LCD screen
M117 Printing...
;LAYER_COUNT:121
;LAYER:0
M107
G1 F1500 E-6.5
G0 F6000 X40.754 Y40.957 Z.3
;TYPE:SKIRT
G1 F1500 E0
G1 F1800 X41.146 Y40.591 E0.02676
G1 X41.588 Y40.288 E0.05349
G1 X42.071 Y40.053 E0.08029
G1 X42.582 Y39.893 E0.107
G1 X43.112 Y39.81 E0.13377
G1 X43.399 Y39.799 E0.1481
G1 X76.601 Y39.8 E1.80455
G1 X77.136 Y39.84 E1.83132
G1 X77.659 Y39.959 E1.85808
G1 X78.158 Y40.154 E1.88481
G1 X78.623 Y40.422 E1.91158
G1 X79.043 Y40.755 E1.93832
G1 X79.409 Y41.147 E1.96508
G1 X79.713 Y41.589 E1.99184
G1 X79.947 Y42.072 E2.01862
G1 X80.107 Y42.583 E2.04533
G1 X80.19 Y43.113 E2.0721
G1 X80.201 Y43.4 E2.08643
G1 X80.201 Y76.601 E3.74283
G1 X80.161 Y77.136 E3.7696
G1 X80.042 Y77.659 E3.79636
G1 X79.847 Y78.158 E3.82308
G1 X79.579 Y78.623 E3.84986
G1 X79.246 Y79.043 E3.8766
G1 X78.854 Y79.409 E3.90336
G1 X78.412 Y79.712 E3.93009
G1 X77.929 Y79.947 E3.95689
G1 X77.418 Y80.107 E3.9836
G1 X76.888 Y80.19 E4.01037
G1 X76.601 Y80.201 E4.0247
G1 X43.399 Y80.201 E5.68115
G1 X42.864 Y80.161 E5.70792
G1 X42.341 Y80.042 E5.73468
G1 X41.842 Y79.847 E5.76141
G1 X41.377 Y79.579 E5.78818
G1 X40.957 Y79.246 E5.81492
G1 X40.591 Y78.854 E5.84168
G1 X40.288 Y78.412 E5.86841
G1 X40.053 Y77.929 E5.89521
G1 X39.893 Y77.418 E5.92193
G1 X39.81 Y76.888 E5.94869
G1 X39.799 Y76.601 E5.96302
G1 X39.799 Y43.399 E7.61947
G1 X39.839 Y42.864 E7.64624
G1 X39.958 Y42.341 E7.673
G1 X40.153 Y41.842 E7.69973
G1 X40.421 Y41.377 E7.7265
G1 X40.754 Y40.957 E7.75325
G0 F6000 X41.148 Y41.124
G1 F1800 X41.535 Y40.798 E7.77849
G1 X41.968 Y40.537 E7.80371
G1 X42.436 Y40.347 E7.82891
G1 X42.929 Y40.234 E7.85415
G1 X43.399 Y40.199 E7.87766
G1 X76.601 Y40.2 E9.53411
G1 X77.105 Y40.24 E9.55934
G1 X77.596 Y40.359 E9.58454
G1 X78.063 Y40.554 E9.60979
G1 X78.493 Y40.819 E9.63499
G1 X78.876 Y41.15 E9.66025
G1 X79.202 Y41.536 E9.68545
G1 X79.463 Y41.969 E9.71068
G1 X79.653 Y42.437 E9.73588
G1 X79.766 Y42.93 E9.76111
G1 X79.801 Y43.4 E9.78462
G1 X79.801 Y76.601 E11.44103
G1 X79.761 Y77.105 E11.46625
G1 X79.642 Y77.596 E11.49146
G1 X79.448 Y78.063 E11.51669
G1 X79.182 Y78.493 E11.54191
G1 X78.852 Y78.876 E11.56713
G1 X78.465 Y79.202 E11.59238
G1 X78.032 Y79.463 E11.6176
G1 X77.564 Y79.653 E11.6428
G1 X77.071 Y79.766 E11.66804
G1 X76.601 Y79.801 E11.69155
G1 X43.399 Y79.801 E13.348
G1 X42.895 Y79.761 E13.37323
G1 X42.404 Y79.642 E13.39843
G1 X41.937 Y79.448 E13.42366
G1 X41.507 Y79.182 E13.44889
G1 X41.124 Y78.852 E13.47411
G1 X40.798 Y78.465 E13.49935
G1 X40.537 Y78.032 E13.52458
G1 X40.347 Y77.564 E13.54978
G1 X40.234 Y77.071 E13.57501
G1 X40.199 Y76.601 E13.59852
G1 X40.199 Y43.399 E15.25498
G1 X40.239 Y42.895 E15.2802
G1 X40.358 Y42.404 E15.30541
G1 X40.552 Y41.937 E15.33064
G1 X40.818 Y41.507 E15.35586
G1 X41.148 Y41.124 E15.38108
G1 F1500 E8.88108
G0 F6000 X44.018 Y42.725
G0 X44.018 Y44.018
G0 X44.39 Y44.39
;TYPE:WALL-INNER
G1 F1500 E15.38108
G1 F1800 X75.61 Y44.39 E16.93866
G1 X75.61 Y75.61 E18.49623
G1 X44.39 Y75.61 E20.0538
G1 X44.39 Y44.39 E21.61137
G0 F6000 X43.99 Y43.99
G1 F1800 X76.01 Y43.99 E23.20886
G1 X76.01 Y76.01 E24.80634
G1 X43.99 Y76.01 E26.40383
G1 X43.99 Y43.99 E28.00131
G0 F6000 X43.59 Y43.59
;TYPE:WALL-OUTER
G1 F1800 X76.41 Y43.59 E29.63871
G1 X76.41 Y76.41 E31.2761
G1 X43.59 Y76.41 E32.9135
G1 X43.59 Y43.59 E34.5509
G0 F6000 X44.06 Y44.06
G0 X44.569 Y44.569
;TYPE:SKIN
G1 F1800 X75.429 Y75.429 E36.72824
G0 X75.499 Y75.499
G0 F6000 X75.429 Y74.864
G1 F1800 X45.135 Y44.569 E38.86568
G0 X45.065 Y44.499
G0 F6000 X45.701 Y44.569
G1 F1800 X75.429 Y74.298 E40.96318
G0 X75.499 Y74.368
G0 F6000 X75.429 Y73.732
G1 F1800 X46.266 Y44.569 E43.02079
G0 X46.196 Y44.499
G0 F6000 X46.832 Y44.569
G1 F1800 X75.429 Y73.167 E45.0385
G0 X75.499 Y73.237
G0 F6000 X75.429 Y72.601
G1 F1800 X47.398 Y44.569 E47.01627
G0 X47.328 Y44.499
G0 F6000 X47.963 Y44.569
G1 F1800 X75.429 Y72.035 E48.95415
G0 X75.499 Y72.105
G0 F6000 X75.429 Y71.47
G1 F1800 X48.529 Y44.569 E50.85212
G0 X48.459 Y44.499
G0 F6000 X49.095 Y44.569
G1 F1800 X75.429 Y70.904 E52.71016
G0 X75.499 Y70.974
G0 F6000 X75.429 Y70.338
G1 F1800 X49.66 Y44.569 E54.52831
G0 X49.59 Y44.499
G0 F6000 X50.226 Y44.569
G1 F1800 X75.429 Y69.773 E56.30655
G0 X75.499 Y69.843
G0 F6000 X75.429 Y69.207
G1 F1800 X50.792 Y44.569 E58.04486
G0 X50.722 Y44.499
G0 F6000 X51.357 Y44.569
G1 F1800 X75.429 Y68.641 E59.74327
G0 X75.499 Y68.711
G0 F6000 X75.429 Y68.075
G1 F1800 X51.923 Y44.569 E61.40174
G0 X51.853 Y44.499
G0 F6000 X52.489 Y44.569
G1 F1800 X75.429 Y67.51 E63.02032
G0 X75.499 Y67.58
G0 F6000 X75.429 Y66.944
G1 F1800 X53.054 Y44.569 E64.599
G0 X52.984 Y44.499
G0 F6000 X53.62 Y44.569
G1 F1800 X75.429 Y66.378 E66.13774
G0 X75.499 Y66.448
G0 F6000 X75.429 Y65.813
G1 F1800 X54.186 Y44.569 E67.63658
G0 X54.116 Y44.499
G0 F6000 X54.751 Y44.569
G1 F1800 X75.429 Y65.247 E69.09553
G0 X75.499 Y65.317
G0 F6000 X75.429 Y64.681
G1 F1800 X55.317 Y44.569 E70.51454
G0 X55.247 Y44.499
G0 F6000 X55.883 Y44.569
G1 F1800 X75.429 Y64.116 E71.89365
G0 X75.499 Y64.186
G0 F6000 X75.429 Y63.55
G1 F1800 X56.449 Y44.569 E73.23282
G0 X56.379 Y44.499
G0 F6000 X57.014 Y44.569
G1 F1800 X75.429 Y62.984 E74.5321
G0 X75.499 Y63.054
G0 F6000 X75.429 Y62.419
G1 F1800 X57.58 Y44.569 E75.79148
G0 X57.51 Y44.499
G0 F6000 X58.146 Y44.569
G1 F1800 X75.429 Y61.853 E77.01092
G0 X75.499 Y61.923
G0 F6000 X75.429 Y61.287
G1 F1800 X58.711 Y44.569 E78.19047
G0 X58.641 Y44.499
G0 F6000 X59.277 Y44.569
G1 F1800 X75.429 Y60.722 E79.33012
G0 X75.499 Y60.792
G0 F6000 X75.429 Y60.156
G1 F1800 X59.843 Y44.569 E80.42983
G0 X59.773 Y44.499
G0 F6000 X60.408 Y44.569
G1 F1800 X75.429 Y59.59 E81.48964
G0 X75.499 Y59.66
G0 F6000 X75.429 Y59.025
G1 F1800 X60.974 Y44.569 E82.50955
G0 X60.904 Y44.499
G0 F6000 X61.54 Y44.569
G1 F1800 X75.429 Y58.459 E83.48953
G0 X75.499 Y58.529
G0 F6000 X75.429 Y57.893
G1 F1800 X62.105 Y44.569 E84.42961
G0 X62.035 Y44.499
G0 F6000 X62.671 Y44.569
G1 F1800 X75.429 Y57.327 E85.32976
G0 X75.499 Y57.397
G0 F6000 X75.429 Y56.762
G1 F1800 X63.237 Y44.569 E86.19001
G0 X63.167 Y44.499
G0 F6000 X63.802 Y44.569
G1 F1800 X75.429 Y56.196 E87.01035
G0 X75.499 Y56.266
G0 F6000 X75.429 Y55.63
G1 F1800 X64.368 Y44.569 E87.79077
G0 X64.298 Y44.499
G0 F6000 X64.934 Y44.569
G1 F1800 X75.429 Y55.065 E88.53128
G0 X75.499 Y55.135
G0 F6000 X75.429 Y54.499
G1 F1800 X65.5 Y44.569 E89.23186
G0 X65.43 Y44.499
G0 F6000 X66.065 Y44.569
G1 F1800 X75.429 Y53.933 E89.89254
G0 X75.499 Y54.003
G0 F6000 X75.429 Y53.368
G1 F1800 X66.631 Y44.569 E90.51332
G0 X66.561 Y44.499
G0 F6000 X67.197 Y44.569
G1 F1800 X75.429 Y52.802 E91.09417
G0 X75.499 Y52.872
G0 F6000 X75.429 Y52.236
G1 F1800 X67.762 Y44.569 E91.63512
G0 X67.692 Y44.499
G0 F6000 X68.328 Y44.569
G1 F1800 X75.429 Y51.671 E92.13617
G0 X75.499 Y51.741
G0 F6000 X75.429 Y51.105
G1 F1800 X68.894 Y44.569 E92.59728
G0 X68.824 Y44.499
G0 F6000 X69.459 Y44.569
G1 F1800 X75.429 Y50.539 E93.0185
G0 X75.499 Y50.609
G0 F6000 X75.429 Y49.974
G1 F1800 X70.025 Y44.569 E93.39982
G0 X69.955 Y44.499
G0 F6000 X70.591 Y44.569
G1 F1800 X75.429 Y49.408 E93.7412
G0 X75.499 Y49.478
G0 F6000 X75.429 Y48.842
G1 F1800 X71.156 Y44.569 E94.04268
G0 X71.086 Y44.499
G0 F6000 X71.722 Y44.569
G1 F1800 X75.429 Y48.277 E94.30427
G0 X75.499 Y48.347
G0 F6000 X75.429 Y47.711
G1 F1800 X72.288 Y44.569 E94.52592
G0 X72.218 Y44.499
G0 F6000 X72.853 Y44.569
G1 F1800 X75.429 Y47.145 E94.70767
G0 X75.499 Y47.215
G0 F6000 X75.429 Y46.579
G1 F1800 X73.419 Y44.569 E94.84948
G0 X73.349 Y44.499
G0 F6000 X73.985 Y44.569
G1 F1800 X75.429 Y46.014 E94.9514
G0 X75.499 Y46.084
G0 F6000 X75.429 Y45.448
G1 F1800 X74.55 Y44.569 E95.01342
G0 X74.48 Y44.499
G0 F6000 X75.116 Y44.569
G1 F1800 X75.429 Y44.882 E95.0355
G0 F6000 X74.863 Y75.429
G1 F1800 X44.569 Y45.135 E97.17291
G0 X44.499 Y45.065
G0 F6000 X44.569 Y45.701
G1 F1800 X74.297 Y75.429 E99.27038
G0 X74.367 Y75.499
G0 F6000 X73.732 Y75.429
G1 F1800 X44.569 Y46.266 E101.32799
G0 X44.499 Y46.196
G0 F6000 X44.569 Y46.832
G1 F1800 X73.166 Y75.429 E103.34566
G0 X73.236 Y75.499
G0 F6000 X72.6 Y75.429
G1 F1800 X44.569 Y47.398 E105.3234
G0 X44.499 Y47.328
G0 F6000 X44.569 Y47.963
G1 F1800 X72.035 Y75.429 E107.26127
G0 X72.105 Y75.499
G0 F6000 X71.469 Y75.429
G1 F1800 X44.569 Y48.529 E109.15921
G0 X44.499 Y48.459
G0 F6000 X44.569 Y49.095
G1 F1800 X70.903 Y75.429 E111.01722
G0 X70.973 Y75.499
G0 F6000 X70.338 Y75.429
G1 F1800 X44.569 Y49.66 E112.83536
G0 X44.499 Y49.59
G0 F6000 X44.569 Y50.226
G1 F1800 X69.772 Y75.429 E114.61357
G0 X69.842 Y75.499
G0 F6000 X69.206 Y75.429
G1 F1800 X44.569 Y50.792 E116.35184
G0 X44.499 Y50.722
G0 F6000 X44.569 Y51.357
G1 F1800 X68.64 Y75.429 E118.05021
G0 X68.71 Y75.499
G0 F6000 X68.075 Y75.429
G1 F1800 X44.569 Y51.923 E119.70869
G0 X44.499 Y51.853
G0 F6000 X44.569 Y52.489
G1 F1800 X67.509 Y75.429 E121.32723
G0 X67.579 Y75.499
G0 F6000 X66.943 Y75.429
G1 F1800 X44.569 Y53.054 E122.90587
G0 X44.499 Y52.984
G0 F6000 X44.569 Y53.62
G1 F1800 X66.378 Y75.429 E124.44462
G0 X66.448 Y75.499
G0 F6000 X65.812 Y75.429
G1 F1800 X44.569 Y54.186 E125.94342
G0 X44.499 Y54.116
G0 F6000 X44.569 Y54.751
G1 F1800 X65.246 Y75.429 E127.40233
G0 X65.316 Y75.499
G0 F6000 X64.681 Y75.429
G1 F1800 X44.569 Y55.317 E128.82134
G0 X44.499 Y55.247
G0 F6000 X44.569 Y55.883
G1 F1800 X64.115 Y75.429 E130.20042
G0 X64.185 Y75.499
G0 F6000 X63.549 Y75.429
G1 F1800 X44.569 Y56.449 E131.53956
G0 X44.499 Y56.379
G0 F6000 X44.569 Y57.014
G1 F1800 X62.984 Y75.429 E132.83884
G0 X63.054 Y75.499
G0 F6000 X62.418 Y75.429
G1 F1800 X44.569 Y57.58 E134.09818
G0 X44.499 Y57.51
G0 F6000 X44.569 Y58.146
G1 F1800 X61.852 Y75.429 E135.31759
G0 X61.922 Y75.499
G0 F6000 X61.287 Y75.429
G1 F1800 X44.569 Y58.711 E136.49714
G0 X44.499 Y58.641
G0 F6000 X44.569 Y59.277
G1 F1800 X60.721 Y75.429 E137.63675
G0 X60.791 Y75.499
G0 F6000 X60.155 Y75.429
G1 F1800 X44.569 Y59.843 E138.73642
G0 X44.499 Y59.773
G0 F6000 X44.569 Y60.408
G1 F1800 X59.59 Y75.429 E139.79624
G0 X59.66 Y75.499
G0 F6000 X59.024 Y75.429
G1 F1800 X44.569 Y60.974 E140.81611
G0 X44.499 Y60.904
G0 F6000 X44.569 Y61.54
G1 F1800 X58.458 Y75.429 E141.79606
G0 X58.528 Y75.499
G0 F6000 X57.892 Y75.429
G1 F1800 X44.569 Y62.105 E142.7361
G0 X44.499 Y62.035
G0 F6000 X44.569 Y62.671
G1 F1800 X57.327 Y75.429 E143.63625
G0 X57.397 Y75.499
G0 F6000 X56.761 Y75.429
G1 F1800 X44.569 Y63.237 E144.49646
G0 X44.499 Y63.167
G0 F6000 X44.569 Y63.802
G1 F1800 X56.195 Y75.429 E145.31677
G0 X56.265 Y75.499
G0 F6000 X55.63 Y75.429
G1 F1800 X44.569 Y64.368 E146.09719
G0 X44.499 Y64.298
G0 F6000 X44.569 Y64.934
G1 F1800 X55.064 Y75.429 E146.83767
G0 X55.134 Y75.499
G0 F6000 X54.498 Y75.429
G1 F1800 X44.569 Y65.5 E147.53821
G0 X44.499 Y65.43
G0 F6000 X44.569 Y66.065
G1 F1800 X53.933 Y75.429 E148.19889
G0 X54.003 Y75.499
G0 F6000 X53.367 Y75.429
G1 F1800 X44.569 Y66.631 E148.81964
G0 X44.499 Y66.561
G0 F6000 X44.569 Y67.197
G1 F1800 X52.801 Y75.429 E149.40045
G0 X52.871 Y75.499
G0 F6000 X52.236 Y75.429
G1 F1800 X44.569 Y67.762 E149.9414
G0 X44.499 Y67.692
G0 F6000 X44.569 Y68.328
G1 F1800 X51.67 Y75.429 E150.44241
G0 X51.74 Y75.499
G0 F6000 X51.104 Y75.429
G1 F1800 X44.569 Y68.894 E150.90349
G0 X44.499 Y68.824
G0 F6000 X44.569 Y69.459
G1 F1800 X50.539 Y75.429 E151.32471
G0 X50.609 Y75.499
G0 F6000 X49.973 Y75.429
G1 F1800 X44.569 Y70.025 E151.70599
G0 X44.499 Y69.955
G0 F6000 X44.569 Y70.591
G1 F1800 X49.407 Y75.429 E152.04733
G0 X49.477 Y75.499
G0 F6000 X48.841 Y75.429
G1 F1800 X44.569 Y71.156 E152.34878
G0 X44.499 Y71.086
G0 F6000 X44.569 Y71.722
G1 F1800 X48.276 Y75.429 E152.61033
G0 X48.346 Y75.499
G0 F6000 X47.71 Y75.429
G1 F1800 X44.569 Y72.288 E152.83195
G0 X44.499 Y72.218
G0 F6000 X44.569 Y72.853
G1 F1800 X47.144 Y75.429 E153.01366
G0 X47.214 Y75.499
G0 F6000 X46.579 Y75.429
G1 F1800 X44.569 Y73.419 E153.15548
G0 X44.499 Y73.349
G0 F6000 X44.569 Y73.985
G1 F1800 X46.013 Y75.429 E153.25736
G0 X46.083 Y75.499
G0 F6000 X45.447 Y75.429
G1 F1800 X44.569 Y74.55 E153.31934
G0 X44.499 Y74.48
G0 F6000 X44.569 Y75.116
G1 F1800 X44.882 Y75.429 E153.34143
;TIME_ELAPSED:114.538774
;LAYER:1
M106 S255
G0 F6000 X44.528 Y75.472 Z.475
;TYPE:WALL-INNER
G1 F1800 X44.528 Y44.528 E154.24198
G1 X75.472 Y44.528 E155.14253
G1 X75.472 Y75.472 E156.04308
G1 X44.528 Y75.472 E156.94363
G0 F6000 X44.128 Y75.872
G1 F1800 X44.128 Y44.128 E157.86747
G1 X75.872 Y44.128 E158.7913
G1 X75.872 Y75.872 E159.71513
G1 X44.128 Y75.872 E160.63897
G0 F6000 X43.728 Y76.272
;TYPE:WALL-OUTER
G1 F1350 X43.728 Y43.728 E161.58608
G1 X76.272 Y43.728 E162.5332
G1 X76.272 Y76.272 E163.48031
G1 X43.728 Y76.272 E164.42743
G0 F6000 X44.198 Y75.802
G0 X44.707 Y75.217
;TYPE:SKIN
G1 F1350 X75.217 Y44.707 E165.68314
G0 X75.287 Y44.637
G0 F6000 X75.291 Y45.199
G1 F1350 X45.199 Y75.291 E166.92164
G0 X45.129 Y75.361
G0 F6000 X45.765 Y75.291
G1 F1350 X75.291 Y45.765 E168.13686
G0 X75.361 Y45.695
G0 F6000 X75.291 Y46.331
G1 F1350 X46.331 Y75.291 E169.32877
G0 X46.261 Y75.361
G0 F6000 X46.896 Y75.291
G1 F1350 X75.291 Y46.896 E170.49743
G0 X75.361 Y46.826
G0 F6000 X75.291 Y47.462
G1 F1350 X47.462 Y75.291 E171.6428
G0 X47.392 Y75.361
G0 F6000 X48.028 Y75.291
G1 F1350 X75.291 Y48.028 E172.76487
G0 X75.361 Y47.958
G0 F6000 X75.291 Y48.593
G1 F1350 X48.593 Y75.291 E173.86369
G0 X48.523 Y75.361
G0 F6000 X49.159 Y75.291
G1 F1350 X75.291 Y49.159 E174.93921
G0 X75.361 Y49.089
G0 F6000 X75.291 Y49.725
G1 F1350 X49.725 Y75.291 E175.99144
G0 X49.655 Y75.361
G0 F6000 X50.29 Y75.291
G1 F1350 X75.291 Y50.29 E177.02042
G0 X75.361 Y50.22
G0 F6000 X75.291 Y50.856
G1 F1350 X50.856 Y75.291 E178.02609
G0 X50.786 Y75.361
G0 F6000 X51.422 Y75.291
G1 F1350 X75.291 Y51.422 E179.00848
G0 X75.361 Y51.352
G0 F6000 X75.291 Y51.987
G1 F1350 X51.987 Y75.291 E179.96761
G0 X51.917 Y75.361
G0 F6000 X52.553 Y75.291
G1 F1350 X75.291 Y52.553 E180.90344
G0 X75.361 Y52.483
G0 F6000 X75.291 Y53.119
G1 F1350 X53.119 Y75.291 E181.81598
G0 X53.049 Y75.361
G0 F6000 X53.684 Y75.291
G1 F1350 X75.291 Y53.684 E182.70527
G0 X75.361 Y53.614
G0 F6000 X75.291 Y54.25
G1 F1350 X54.25 Y75.291 E183.57126
G0 X54.18 Y75.361
G0 F6000 X54.816 Y75.291
G1 F1350 X75.291 Y54.816 E184.41396
G0 X75.361 Y54.746
G0 F6000 X75.291 Y55.382
G1 F1350 X55.382 Y75.291 E185.23336
G0 X55.312 Y75.361
G0 F6000 X55.947 Y75.291
G1 F1350 X75.291 Y55.947 E186.02951
G0 X75.361 Y55.877
G0 F6000 X75.291 Y56.513
G1 F1350 X56.513 Y75.291 E186.80236
G0 X56.443 Y75.361
G0 F6000 X57.079 Y75.291
G1 F1350 X75.291 Y57.079 E187.55191
G0 X75.361 Y57.009
G0 F6000 X75.291 Y57.644
G1 F1350 X57.644 Y75.291 E188.27822
G0 X57.574 Y75.361
G0 F6000 X58.21 Y75.291
G1 F1350 X75.291 Y58.21 E188.98123
G0 X75.361 Y58.14
G0 F6000 X75.291 Y58.776
G1 F1350 X58.776 Y75.291 E189.66094
G0 X58.706 Y75.361
G0 F6000 X59.341 Y75.291
G1 F1350 X75.291 Y59.341 E190.3174
G0 X75.361 Y59.271
G0 F6000 X75.291 Y59.907
G1 F1350 X59.907 Y75.291 E190.95056
G0 X59.837 Y75.361
G0 F6000 X60.473 Y75.291
G1 F1350 X75.291 Y60.473 E191.56043
G0 X75.361 Y60.403
G0 F6000 X75.291 Y61.038
G1 F1350 X61.038 Y75.291 E192.14705
G0 X60.968 Y75.361
G0 F6000 X61.604 Y75.291
G1 F1350 X75.291 Y61.604 E192.71037
G0 X75.361 Y61.534
G0 F6000 X75.291 Y62.17
G1 F1350 X62.17 Y75.291 E193.25039
G0 X62.1 Y75.361
G0 F6000 X62.735 Y75.291
G1 F1350 X75.291 Y62.735 E193.76716
G0 X75.361 Y62.665
G0 F6000 X75.291 Y63.301
G1 F1350 X63.301 Y75.291 E194.26064
G0 X63.231 Y75.361
G0 F6000 X63.867 Y75.291
G1 F1350 X75.291 Y63.867 E194.73082
G0 X75.361 Y63.797
G0 F6000 X75.291 Y64.432
G1 F1350 X64.432 Y75.291 E195.17775
G0 X64.362 Y75.361
G0 F6000 X64.998 Y75.291
G1 F1350 X75.291 Y64.998 E195.60138
G0 X75.361 Y64.928
G0 F6000 X75.291 Y65.564
G1 F1350 X65.564 Y75.291 E196.00172
G0 X65.494 Y75.361
G0 F6000 X66.13 Y75.291
G1 F1350 X75.291 Y66.13 E196.37876
G0 X75.361 Y66.06
