;FLAVOR:RepRap
;TIME:2987
;Generated with Cura_SteamEngine 2.3.1
M190 S60
M104 S200
M109 S200
G21 ;metric values
G90 ;absolute positioning
M82 ;set extruder to absolute mode
M107 ;start with the fan off
G28 X0 Y0 ;move X/Y to min endstops
G28 Z0 ;move Z to min endstops
G1 Z15.0 F9000 ;move the platform down 15mm
G92 E0 ;zero the extruded length
G1 F200 E3 ;extrude 3mm of feed stock
G92 E0 ;zero the extruded length again
G1 F9000
M117 Printing...
;LAYER_COUNT:190
;LAYER:0
M107
G1 F1500 E-6.5
G0 F6000 X39.777 Y37.31 Z.3
;TYPE:SKIRT
G1 F1500 E0
G1 F1800 X40.169 Y36.944 E0.02676
G1 X40.611 Y36.641 E0.05349
G1 X41.093 Y36.406 E0.08024
G1 X41.605 Y36.246 E0.10701
G1 X42.135 Y36.163 E0.13377
G1 X42.671 Y36.161 E0.16051
G1 X43.202 Y36.238 E0.18728
G1 X43.716 Y36.392 E0.21405
G1 X44.222 Y36.634 E0.24203
G1 X79.291 Y56.881 E2.26229
G1 X79.734 Y57.183 E2.28904
G1 X80.128 Y57.548 E2.31584
G1 X80.462 Y57.967 E2.34257
G1 X80.731 Y58.431 E2.36933
G1 X80.928 Y58.929 E2.39605
G1 X81.049 Y59.452 E2.42283
G1 X81.091 Y59.987 E2.4496
G1 X81.053 Y60.521 E2.47631
G1 X80.936 Y61.045 E2.5031
G1 X80.742 Y61.545 E2.52985
G1 X80.476 Y62.011 E2.55662
G1 X80.144 Y62.432 E2.58337
G1 X79.754 Y62.799 E2.61009
G1 X79.291 Y63.117 E2.63811
G1 X44.224 Y83.367 E4.65836
G1 X43.741 Y83.599 E4.6851
G1 X43.229 Y83.758 E4.71184
G1 X42.699 Y83.839 E4.73859
G1 X42.162 Y83.839 E4.76538
G1 X41.632 Y83.761 E4.79211
G1 X41.119 Y83.604 E4.81888
G1 X40.635 Y83.373 E4.84563
G1 X40.191 Y83.073 E4.87237
G1 X39.796 Y82.71 E4.89913
G1 X39.46 Y82.292 E4.92589
G1 X39.189 Y81.829 E4.95265
G1 X38.99 Y81.331 E4.97941
G1 X38.868 Y80.809 E5.00615
G1 X38.824 Y80.249 E5.03418
G1 X38.822 Y39.752 E7.05458
G1 X38.862 Y39.217 E7.08134
G1 X38.981 Y38.694 E7.1081
G1 X39.176 Y38.195 E7.13483
G1 X39.443 Y37.73 E7.16158
G1 X39.777 Y37.31 E7.18836
G0 F6000 X40.171 Y37.477
G1 F1800 X40.558 Y37.151 E7.2136
G1 X40.991 Y36.89 E7.23882
G1 X41.459 Y36.7 E7.26402
G1 X41.952 Y36.587 E7.28926
G1 X42.456 Y36.552 E7.31446
G1 X42.96 Y36.598 E7.33971
G1 X43.45 Y36.722 E7.36493
G1 X44.022 Y36.981 E7.39625
G1 X79.091 Y57.228 E9.41652
G1 X79.507 Y57.514 E9.4417
G1 X79.874 Y57.863 E9.46697
G1 X80.18 Y58.265 E9.49217
G1 X80.42 Y58.71 E9.5174
G1 X80.586 Y59.187 E9.5426
G1 X80.676 Y59.685 E9.56784
G1 X80.685 Y60.191 E9.59309
G1 X80.615 Y60.691 E9.61828
G1 X80.467 Y61.175 E9.64353
G1 X80.245 Y61.629 E9.66874
G1 X79.954 Y62.042 E9.69395
G1 X79.601 Y62.404 E9.71917
G1 X79.091 Y62.77 E9.75049
G1 X44.024 Y83.02 E11.77074
G1 X43.568 Y83.238 E11.79596
G1 X43.083 Y83.38 E11.82117
G1 X42.581 Y83.445 E11.84643
G1 X42.076 Y83.43 E11.87163
G1 X41.579 Y83.336 E11.89687
G1 X41.104 Y83.164 E11.92207
G1 X40.661 Y82.92 E11.9473
G1 X40.263 Y82.609 E11.9725
G1 X39.918 Y82.239 E11.99774
G1 X39.636 Y81.819 E12.02298
G1 X39.423 Y81.361 E12.04818
G1 X39.286 Y80.874 E12.07342
G1 X39.224 Y80.249 E12.10475
G1 X39.222 Y39.752 E14.12516
G1 X39.262 Y39.248 E14.15038
G1 X39.381 Y38.757 E14.17559
G1 X39.575 Y38.29 E14.20081
G1 X39.841 Y37.86 E14.22604
G1 X40.171 Y37.477 E14.25126
G1 F1500 E7.75126
G0 F6000 X41.748 Y40.807
G0 X43.033 Y40.807
G0 X43.413 Y41.465
;TYPE:WALL-INNER
G1 F1500 E14.25126
G1 F1800 X75.513 Y60 E16.10054
G1 X43.413 Y78.535 E17.94981
G1 X43.413 Y41.465 E19.79924
G0 F6000 X43.013 Y40.773
G1 F1800 X76.312 Y60 E21.71759
G1 X43.013 Y79.227 E23.63593
G1 X43.013 Y40.773 E25.55441
G0 F6000 X42.613 Y40.081
;TYPE:WALL-OUTER
G1 F1800 X77.111 Y60 E27.54181
G1 X42.613 Y79.919 E29.52922
G1 X42.613 Y40.081 E31.51675
G0 F6000 X43.063 Y40.859
G0 X43.592 Y41.895
;TYPE:SKIN
G1 F1800 X66.622 Y64.925 E33.14164
G0 X66.692 Y64.995
G0 F6000 X66.98 Y64.717
G1 F1800 X44.65 Y42.387 E34.71714
G0 X44.58 Y42.317
G0 F6000 X43.592 Y42.461
G1 F1800 X66.263 Y65.132 E36.3167
G0 X66.333 Y65.202
G0 F6000 X65.905 Y65.339
G1 F1800 X43.592 Y43.026 E37.89101
G0 X43.522 Y42.956
G0 F6000 X43.592 Y43.592
G1 F1800 X65.545 Y65.545 E39.43991
G0 X65.615 Y65.615
G0 F6000 X65.187 Y65.753
G1 F1800 X43.592 Y44.158 E40.96355
G0 X43.522 Y44.088
G0 F6000 X43.592 Y44.723
G1 F1800 X64.828 Y65.96 E42.4619
G0 X64.898 Y66.03
G0 F6000 X64.47 Y66.167
G1 F1800 X43.592 Y45.289 E43.93496
G0 X43.522 Y45.219
G0 F6000 X43.592 Y45.855
G1 F1800 X64.111 Y66.374 E45.38268
G0 X64.181 Y66.444
G0 F6000 X63.753 Y66.581
G1 F1800 X43.592 Y46.42 E46.80515
G0 X43.522 Y46.35
G0 F6000 X43.592 Y46.986
G1 F1800 X63.394 Y66.788 E48.20229
G0 X63.464 Y66.858
G0 F6000 X63.035 Y66.995
G1 F1800 X43.592 Y47.552 E49.5741
G0 X43.522 Y47.482
G0 F6000 X43.592 Y48.117
G1 F1800 X62.677 Y67.202 E50.92065
G0 X62.747 Y67.272
G0 F6000 X62.318 Y67.409
G1 F1800 X43.592 Y48.683 E52.24187
G0 X43.522 Y48.613
G0 F6000 X43.592 Y49.249
G1 F1800 X61.96 Y67.617 E53.53783
G0 X62.03 Y67.687
G0 F6000 X61.601 Y67.824
G1 F1800 X43.592 Y49.814 E54.8085
G0 X43.522 Y49.744
G0 F6000 X43.592 Y50.38
G1 F1800 X61.242 Y68.03 E56.0538
G0 X61.312 Y68.1
G0 F6000 X60.884 Y68.237
G1 F1800 X43.592 Y50.946 E57.27381
G0 X43.522 Y50.876
G0 F6000 X43.592 Y51.512
G1 F1800 X60.525 Y68.445 E58.46852
G0 X60.595 Y68.515
G0 F6000 X60.167 Y68.652
G1 F1800 X43.592 Y52.077 E59.63798
G0 X43.522 Y52.007
G0 F6000 X43.592 Y52.643
G1 F1800 X59.808 Y68.859 E60.78211
G0 X59.878 Y68.929
G0 F6000 X59.45 Y69.066
G1 F1800 X43.592 Y53.209 E61.90094
G0 X43.522 Y53.139
G0 F6000 X43.592 Y53.774
G1 F1800 X59.091 Y69.273 E62.99448
G0 X59.161 Y69.343
G0 F6000 X58.732 Y69.48
G1 F1800 X43.592 Y54.34 E64.06269
G0 X43.522 Y54.27
G0 F6000 X43.592 Y54.906
G1 F1800 X58.373 Y69.687 E65.10556
G0 X58.443 Y69.757
G0 F6000 X58.015 Y69.894
G1 F1800 X43.592 Y55.471 E66.12319
G0 X43.522 Y55.401
G0 F6000 X43.592 Y56.037
G1 F1800 X57.656 Y70.101 E67.11548
G0 X57.726 Y70.171
G0 F6000 X57.298 Y70.309
G1 F1800 X43.592 Y56.603 E68.08251
G0 X43.522 Y56.533
G0 F6000 X43.592 Y57.168
G1 F1800 X56.939 Y70.516 E69.02425
G0 X57.009 Y70.586
G0 F6000 X56.58 Y70.722
G1 F1800 X43.592 Y57.734 E69.94062
G0 X43.522 Y57.664
G0 F6000 X43.592 Y58.3
G1 F1800 X56.222 Y70.929 E70.8317
G0 X56.292 Y70.999
G0 F6000 X55.863 Y71.137
G1 F1800 X43.592 Y58.865 E71.69752
G0 X43.522 Y58.795
G0 F6000 X43.592 Y59.431
G1 F1800 X55.505 Y71.344 E72.53805
G0 X55.575 Y71.414
G0 F6000 X55.146 Y71.551
G1 F1800 X43.592 Y59.997 E73.35324
G0 X43.522 Y59.927
G0 F6000 X43.592 Y60.562
G1 F1800 X54.788 Y71.758 E74.14318
G0 X54.858 Y71.828
G0 F6000 X54.429 Y71.965
G1 F1800 X43.592 Y61.128 E74.90779
G0 X43.522 Y61.058
G0 F6000 X43.592 Y61.694
G1 F1800 X54.07 Y72.172 E75.64707
G0 X54.14 Y72.242
G0 F6000 X53.711 Y72.379
G1 F1800 X43.592 Y62.26 E76.36102
G0 X43.522 Y62.19
G0 F6000 X43.592 Y62.825
G1 F1800 X53.353 Y72.586 E77.04971
G0 X53.423 Y72.656
G0 F6000 X52.994 Y72.793
G1 F1800 X43.592 Y63.391 E77.71307
G0 X43.522 Y63.321
G0 F6000 X43.592 Y63.957
G1 F1800 X52.636 Y73 E78.35114
G0 X52.706 Y73.07
G0 F6000 X52.277 Y73.208
G1 F1800 X43.592 Y64.522 E78.96395
G0 X43.522 Y64.452
G0 F6000 X43.592 Y65.088
G1 F1800 X51.918 Y73.414 E79.5514
G0 X51.988 Y73.484
G0 F6000 X51.56 Y73.621
G1 F1800 X43.592 Y65.654 E80.11355
G0 X43.522 Y65.584
G0 F6000 X43.592 Y66.219
G1 F1800 X51.201 Y73.829 E80.65044
G0 X51.271 Y73.899
G0 F6000 X50.843 Y74.036
G1 F1800 X43.592 Y66.785 E81.16203
G0 X43.522 Y66.715
G0 F6000 X43.592 Y67.351
G1 F1800 X50.484 Y74.243 E81.6483
G0 X50.554 Y74.313
G0 F6000 X50.126 Y74.45
G1 F1800 X43.592 Y67.916 E82.10931
G0 X43.522 Y67.846
G0 F6000 X43.592 Y68.482
G1 F1800 X49.767 Y74.657 E82.54499
G0 X49.837 Y74.727
G0 F6000 X49.408 Y74.864
G1 F1800 X43.592 Y69.048 E82.95534
G0 X43.522 Y68.978
G0 F6000 X43.592 Y69.613
G1 F1800 X49.049 Y75.071 E83.3404
G0 X49.119 Y75.141
G0 F6000 X48.691 Y75.278
G1 F1800 X43.592 Y70.179 E83.70016
G0 X43.522 Y70.109
G0 F6000 X43.592 Y70.745
G1 F1800 X48.332 Y75.485 E84.03459
G0 X48.402 Y75.555
G0 F6000 X47.974 Y75.692
G1 F1800 X43.592 Y71.311 E84.34373
G0 X43.522 Y71.241
G0 F6000 X43.592 Y71.876
G1 F1800 X47.615 Y75.9 E84.62761
G0 X47.685 Y75.97
G0 F6000 X47.256 Y76.106
G1 F1800 X43.592 Y72.442 E84.88612
G0 X43.522 Y72.372
G0 F6000 X43.592 Y73.008
G1 F1800 X46.898 Y76.313 E85.11935
G0 X46.968 Y76.383
G0 F6000 X46.539 Y76.52
G1 F1800 X43.592 Y73.573 E85.32727
G0 X43.522 Y73.503
G0 F6000 X43.592 Y74.139
G1 F1800 X46.181 Y76.728 E85.50994
G0 X46.251 Y76.798
G0 F6000 X45.822 Y76.935
G1 F1800 X43.592 Y74.705 E85.66728
G0 X43.522 Y74.635
G0 F6000 X43.592 Y75.27
G1 F1800 X45.464 Y77.142 E85.79936
G0 X45.534 Y77.212
G0 F6000 X45.105 Y77.349
G1 F1800 X43.592 Y75.836 E85.90611
G0 X43.522 Y75.766
G0 F6000 X43.592 Y76.402
G1 F1800 X44.746 Y77.556 E85.98753
G0 X44.816 Y77.626
G0 F6000 X44.387 Y77.763
G1 F1800 X43.592 Y76.967 E86.04366
G0 X43.522 Y76.897
G0 F6000 X43.81 Y77.751
G1 F1800 X43.631 Y78.138 E86.06179
G0 F6000 X43.592 Y78.099
G0 X67.339 Y64.51
G1 F1800 X45.988 Y43.16 E87.56818
G0 X45.918 Y43.09
G0 F6000 X47.327 Y43.933
G1 F1800 X67.697 Y64.303 E89.0054
G0 X67.767 Y64.373
G0 F6000 X68.056 Y64.096
G1 F1800 X48.665 Y44.706 E90.3735
G0 X48.595 Y44.636
G0 F6000 X50.005 Y45.479
G1 F1800 X68.415 Y63.889 E91.67243
G0 X68.485 Y63.959
G0 F6000 X68.773 Y63.682
G1 F1800 X51.343 Y46.252 E92.90221
G0 X51.273 Y46.182
G0 F6000 X52.682 Y47.025
G1 F1800 X69.132 Y63.475 E94.06284
G0 X69.202 Y63.545
G0 F6000 X69.49 Y63.268
G1 F1800 X54.02 Y47.798 E95.15434
G0 X53.95 Y47.728
G0 F6000 X55.359 Y48.571
G1 F1800 X69.849 Y63.061 E96.17668
G0 X69.919 Y63.131
G0 F6000 X70.207 Y62.854
G1 F1800 X56.698 Y49.344 E97.12985
G0 X56.628 Y49.274
G0 F6000 X58.037 Y50.117
G1 F1800 X70.567 Y62.647 E98.01391
G0 X70.637 Y62.717
G0 F6000 X70.925 Y62.44
G1 F1800 X59.375 Y50.89 E98.82883
G0 X59.305 Y50.82
G0 F6000 X60.714 Y51.663
G1 F1800 X71.284 Y62.233 E99.5746
G0 X71.354 Y62.303
G0 F6000 X71.642 Y62.025
G1 F1800 X62.052 Y52.436 E100.25119
G0 X61.982 Y52.366
G0 F6000 X63.392 Y53.209
G1 F1800 X72.001 Y61.818 E100.8586
G0 X72.071 Y61.888
G0 F6000 X72.359 Y61.611
G1 F1800 X64.73 Y53.982 E101.39687
G0 X64.66 Y53.912
G0 F6000 X66.069 Y54.755
G1 F1800 X72.718 Y61.404 E101.86599
G0 X72.788 Y61.474
G0 F6000 X73.077 Y61.197
G1 F1800 X67.407 Y55.528 E102.266
G0 X67.337 Y55.458
G0 F6000 X68.746 Y56.301
G1 F1800 X73.435 Y60.99 E102.59684
G0 X73.505 Y61.06
G0 F6000 X73.794 Y60.783
G1 F1800 X70.085 Y57.074 E102.85853
G0 X70.015 Y57.004
G0 F6000 X71.424 Y57.847
G1 F1800 X74.152 Y60.576 E103.05104
G0 X74.222 Y60.646
G0 F6000 X74.511 Y60.369
G1 F1800 X72.762 Y58.62 E103.17444
G0 X72.692 Y58.55
G0 F6000 X74.101 Y59.393
G1 F1800 X74.869 Y60.162 E103.22866
G0 X74.939 Y60.232
;TIME_ELAPSED:80.471521
;LAYER:1
M106 S255
G0 F6000 X75.39 Y60 Z.475
;TYPE:WALL-INNER
G1 F1800 X43.475 Y78.427 E104.30117
G1 X43.475 Y41.573 E105.37372
G1 X75.39 Y60 E106.44623
G0 F6000 X76.189 Y60
G1 F1800 X43.075 Y79.119 E107.55903
G1 X43.075 Y40.881 E108.67185
G1 X76.189 Y60 E109.78465
G0 F6000 X76.988 Y60
;TYPE:WALL-OUTER
G1 F1350 X42.675 Y79.811 E110.93774
G1 X42.675 Y40.189 E112.09084
G1 X76.988 Y60 E113.24393
G0 F6000 X76.089 Y60
G0 X74.777 Y59.855
;TYPE:SKIN
G1 F1350 X74.091 Y60.541 E113.27217
G0 X74.021 Y60.611
G0 F6000 X74.419 Y59.647
G1 F1350 X72.753 Y61.313 E113.34073
G0 X72.683 Y61.383
G0 F6000 X71.414 Y62.086
G1 F1350 X74.06 Y59.44 E113.44964
G0 X74.13 Y59.37
G0 F6000 X73.702 Y59.233
G1 F1350 X70.076 Y62.859 E113.59887
G0 X70.006 Y62.929
G0 F6000 X68.737 Y63.632
G1 F1350 X73.343 Y59.026 E113.78844
G0 X73.413 Y58.956
G0 F6000 X72.985 Y58.819
G1 F1350 X67.399 Y64.405 E114.01835
G0 X67.329 Y64.475
G0 F6000 X66.06 Y65.178
G1 F1350 X72.626 Y58.612 E114.28859
G0 X72.696 Y58.542
G0 F6000 X72.267 Y58.405
G1 F1350 X64.722 Y65.951 E114.59914
G0 X64.652 Y66.021
G0 F6000 X63.383 Y66.724
G1 F1350 X71.909 Y58.198 E114.95005
G0 X71.979 Y58.128
G0 F6000 X71.55 Y57.991
G1 F1350 X62.045 Y67.496 E115.34125
G0 X61.975 Y67.566
G0 F6000 X60.707 Y68.269
G1 F1350 X71.192 Y57.784 E115.77278
G0 X71.262 Y57.714
G0 F6000 X70.833 Y57.576
G1 F1350 X59.368 Y69.041 E116.24465
G0 X59.298 Y69.111
G0 F6000 X58.03 Y69.814
G1 F1350 X70.474 Y57.37 E116.75681
G0 X70.544 Y57.3
G0 F6000 X70.116 Y57.163
G1 F1350 X56.691 Y70.587 E117.30933
G0 X56.621 Y70.657
G0 F6000 X55.353 Y71.36
G1 F1350 X69.757 Y56.956 E117.90216
G0 X69.827 Y56.886
G0 F6000 X69.398 Y56.748
G1 F1350 X54.014 Y72.133 E118.53534
G0 X53.944 Y72.203
G0 F6000 X52.675 Y72.906
G1 F1350 X69.04 Y56.541 E119.20888
G0 X69.11 Y56.471
G0 F6000 X68.681 Y56.334
G1 F1350 X51.337 Y73.679 E119.92273
G0 X51.267 Y73.749
G0 F6000 X49.998 Y74.451
G1 F1350 X68.322 Y56.128 E120.67688
G0 X68.392 Y56.058
G0 F6000 X67.964 Y55.92
G1 F1350 X48.66 Y75.224 E121.47138
G0 X48.59 Y75.294
G0 F6000 X47.322 Y75.997
G1 F1350 X67.605 Y55.713 E122.3062
G0 X67.675 Y55.643
G0 F6000 X67.247 Y55.506
G1 F1350 X45.983 Y76.769 E123.18134
G0 X45.913 Y76.839
G0 F6000 X44.645 Y77.542
G1 F1350 X66.888 Y55.299 E124.09681
G0 X66.958 Y55.229
G0 F6000 X66.53 Y55.092
G1 F1350 X43.654 Y77.967 E125.0383
G0 X43.584 Y78.037
G0 F6000 X43.654 Y77.402
G1 F1350 X66.171 Y54.885 E125.96504
G0 X66.241 Y54.815
G0 F6000 X65.812 Y54.678
G1 F1350 X43.654 Y76.836 E126.877
G0 X43.584 Y76.906
G0 F6000 X43.654 Y76.27
G1 F1350 X65.454 Y54.471 E127.77421
G0 X65.524 Y54.401
G0 F6000 X65.095 Y54.264
G1 F1350 X43.654 Y75.704 E128.65665
G0 X43.584 Y75.774
G0 F6000 X43.654 Y75.139
G1 F1350 X64.737 Y54.056 E129.52437
G0 X64.807 Y53.986
G0 F6000 X64.378 Y53.849
G1 F1350 X43.654 Y74.573 E130.37731
G0 X43.584 Y74.643
G0 F6000 X43.654 Y74.007
G1 F1350 X64.019 Y53.643 E131.21546
G0 X64.089 Y53.573
G0 F6000 X63.66 Y53.436
G1 F1350 X43.654 Y73.442 E132.03885
G0 X43.584 Y73.512
G0 F6000 X43.654 Y72.876
G1 F1350 X63.302 Y53.228 E132.84751
G0 X63.372 Y53.158
G0 F6000 X62.943 Y53.021
G1 F1350 X43.654 Y72.31 E133.64139
G0 X43.584 Y72.38
G0 F6000 X43.654 Y71.745
G1 F1350 X62.585 Y52.814 E134.42054
G0 X62.655 Y52.744
G0 F6000 X62.226 Y52.607
G1 F1350 X43.654 Y71.179 E135.18492
G0 X43.584 Y71.249
G0 F6000 X43.654 Y70.613
G1 F1350 X61.867 Y52.4 E135.93452
G0 X61.937 Y52.33
G0 F6000 X61.509 Y52.193
G1 F1350 X43.654 Y70.048 E136.66938
G0 X43.584 Y70.118
G0 F6000 X43.654 Y69.482
G1 F1350 X61.15 Y51.986 E137.38947
G0 X61.22 Y51.916
G0 F6000 X60.792 Y51.779
G1 F1350 X43.654 Y68.916 E138.0948
G0 X43.584 Y68.986
G0 F6000 X43.654 Y68.351
G1 F1350 X60.433 Y51.572 E138.78538
G0 X60.503 Y51.502
G0 F6000 X60.075 Y51.364
G1 F1350 X43.654 Y67.785 E139.46122
G0 X43.584 Y67.855
G0 F6000 X43.654 Y67.219
G1 F1350 X59.715 Y51.158 E140.12225
G0 X59.785 Y51.088
G0 F6000 X59.357 Y50.951
G1 F1350 X43.654 Y66.654 E140.76855
G0 X43.584 Y66.724
G0 F6000 X43.654 Y66.088
G1 F1350 X58.998 Y50.744 E141.40006
G0 X59.068 Y50.674
G0 F6000 X58.64 Y50.536
G1 F1350 X43.654 Y65.522 E142.01685
G0 X43.584 Y65.592
G0 F6000 X43.654 Y64.956
G1 F1350 X58.281 Y50.329 E142.61886
G0 X58.351 Y50.259
G0 F6000 X57.923 Y50.122
G1 F1350 X43.654 Y64.391 E143.20613
G0 X43.584 Y64.461
G0 F6000 X43.654 Y63.825
G1 F1350 X57.564 Y49.916 E143.77861
G0 X57.634 Y49.846
G0 F6000 X57.205 Y49.708
G1 F1350 X43.654 Y63.259 E144.33633
G0 X43.584 Y63.329
G0 F6000 X43.654 Y62.694
G1 F1350 X56.847 Y49.501 E144.87932
G0 X56.917 Y49.431
G0 F6000 X56.488 Y49.294
G1 F1350 X43.654 Y62.128 E145.40753
G0 X43.584 Y62.198
G0 F6000 X43.654 Y61.562
G1 F1350 X56.13 Y49.087 E145.92099
G0 X56.2 Y49.017
G0 F6000 X55.771 Y48.88
G1 F1350 X43.654 Y60.997 E146.41969
G0 X43.584 Y61.067
G0 F6000 X43.654 Y60.431
G1 F1350 X55.412 Y48.673 E146.90362
G0 X55.482 Y48.603
G0 F6000 X55.053 Y48.466
G1 F1350 X43.654 Y59.865 E147.37277
G0 X43.584 Y59.935
G0 F6000 X43.654 Y59.3
G1 F1350 X54.695 Y48.259 E147.82719
G0 X54.765 Y48.189
G0 F6000 X54.336 Y48.052
G1 F1350 X43.654 Y58.734 E148.26683
G0 X43.584 Y58.804
G0 F6000 X43.654 Y58.168
G1 F1350 X53.978 Y47.844 E148.69174
G0 X54.048 Y47.774
G0 F6000 X53.619 Y47.637
G1 F1350 X43.654 Y57.603 E149.10189
G0 X43.584 Y57.673
G0 F6000 X43.654 Y57.037
G1 F1350 X53.26 Y47.431 E149.49725
G0 X53.33 Y47.361
G0 F6000 X52.902 Y47.224
G1 F1350 X43.654 Y56.471 E149.87785
G0 X43.584 Y56.541
G0 F6000 X43.654 Y55.905
G1 F1350 X52.543 Y47.016 E150.2437
G0 X52.613 Y46.946
G0 F6000 X52.185 Y46.809
G1 F1350 X43.654 Y55.34 E150.59481
G0 X43.584 Y55.41
G0 F6000 X43.654 Y54.774
G1 F1350 X51.826 Y46.602 E150.93115
G0 X51.896 Y46.532
G0 F6000 X51.468 Y46.395
G1 F1350 X43.654 Y54.208 E151.25273
G0 X43.584 Y54.278
