;FLAVOR:RepRap
;TIME:2477
;Generated with Cura_SteamEngine 2.3.1
M190 S60
M104 S200
M109 S200
G21 ;metric values
G90 ;absolute positioning
M82 ;set extruder to absolute mode
M107 ;start with the fan off
G28 X0 Y0 ;move X/Y to min endstops
G28 Z0 ;move Z to min endstops
G1 Z15.0 F9000 ;move the platform down 15mm
G92 E0 ;zero the extruded length
G1 F200 E3 ;extrude 3mm of feed stock
G92 E0 ;zero the extruded length again
G1 F9000
M117 Printing...
;LAYER_COUNT:99
;LAYER:0
M107
G1 F1500 E-6.5
G0 F6000 X44.262 Y40.096 Z.3
;TYPE:SKIRT
G1 F1500 E0
G1 F1800 X44.654 Y39.73 E0.02676
G1 X45.096 Y39.427 E0.05349
G1 X45.578 Y39.192 E0.08024
G1 X46.09 Y39.032 E0.10701
G1 X46.62 Y38.949 E0.13377
G1 X46.907 Y38.938 E0.1481
G1 X73.075 Y38.939 E1.45363
G1 X73.61 Y38.979 E1.48039
G1 X74.133 Y39.098 E1.50715
G1 X74.632 Y39.293 E1.53388
G1 X75.097 Y39.561 E1.56066
G1 X75.517 Y39.894 E1.5874
G1 X75.883 Y40.286 E1.61415
G1 X76.187 Y40.728 E1.64092
G1 X76.421 Y41.211 E1.66769
G1 X76.581 Y41.722 E1.69441
G1 X76.664 Y42.252 E1.72117
G1 X76.666 Y42.789 E1.74796
G1 X76.589 Y43.319 E1.77468
G1 X76.434 Y43.833 E1.80147
G1 X76.205 Y44.318 E1.82822
G1 X75.955 Y44.699 E1.85096
G1 X49.793 Y79.593 E4.02679
G1 X49.441 Y79.996 E4.05349
G1 X49.032 Y80.344 E4.08028
G1 X48.576 Y80.626 E4.10703
G1 X48.083 Y80.838 E4.1338
G1 X47.564 Y80.974 E4.16057
G1 X47.031 Y81.031 E4.18731
G1 X46.495 Y81.009 E4.21407
G1 X45.969 Y80.907 E4.24081
G1 X45.463 Y80.728 E4.26758
G1 X44.99 Y80.476 E4.29432
G1 X44.559 Y80.157 E4.32107
G1 X44.181 Y79.777 E4.34781
G1 X43.863 Y79.345 E4.37458
G1 X43.612 Y78.871 E4.40133
G1 X43.436 Y78.364 E4.42811
G1 X43.336 Y77.837 E4.45487
G1 X43.313 Y77.434 E4.47501
G1 X43.307 Y42.539 E6.21593
G1 X43.347 Y42.004 E6.24269
G1 X43.466 Y41.481 E6.26945
G1 X43.661 Y40.981 E6.29623
G1 X43.928 Y40.516 E6.32298
G1 X44.262 Y40.096 E6.34975
G0 F6000 X44.656 Y40.264
G1 F1800 X45.042 Y39.937 E6.37499
G1 X45.475 Y39.676 E6.40021
G1 X45.944 Y39.486 E6.42546
G1 X46.436 Y39.373 E6.45064
G1 X46.907 Y39.338 E6.47421
G1 X73.075 Y39.339 E7.77973
G1 X73.579 Y39.379 E7.80496
G1 X74.071 Y39.498 E7.83021
G1 X74.537 Y39.693 E7.85541
G1 X74.967 Y39.958 E7.88061
G1 X75.35 Y40.289 E7.90587
G1 X75.676 Y40.675 E7.93108
G1 X75.937 Y41.108 E7.9563
G1 X76.127 Y41.576 E7.9815
G1 X76.24 Y42.069 E8.00673
G1 X76.275 Y42.574 E8.03199
G1 X76.229 Y43.077 E8.05719
G1 X76.105 Y43.567 E8.0824
G1 X75.906 Y44.032 E8.10764
G1 X75.635 Y44.459 E8.13287
G1 X49.473 Y79.353 E10.3087
G1 X49.139 Y79.732 E10.3339
G1 X48.749 Y80.054 E10.35914
G1 X48.313 Y80.31 E10.38436
G1 X47.843 Y80.495 E10.40956
G1 X47.349 Y80.603 E10.43479
G1 X46.844 Y80.632 E10.46002
G1 X46.341 Y80.582 E10.48524
G1 X45.853 Y80.452 E10.51044
G1 X45.39 Y80.247 E10.5357
G1 X44.966 Y79.973 E10.56089
G1 X44.59 Y79.634 E10.58614
G1 X44.273 Y79.241 E10.61133
G1 X44.021 Y78.802 E10.63659
G1 X43.841 Y78.33 E10.66179
G1 X43.738 Y77.835 E10.68701
G1 X43.713 Y77.434 E10.70706
G1 X43.707 Y42.539 E12.44798
G1 X43.747 Y42.035 E12.4732
G1 X43.866 Y41.543 E12.49845
G1 X44.06 Y41.077 E12.52364
G1 X44.326 Y40.646 E12.54891
G1 X44.656 Y40.264 E12.57409
G1 F1500 E6.07409
G0 F6000 X47.525 Y41.864
G0 X47.525 Y43.157
G0 X47.897 Y43.529
;TYPE:WALL-INNER
G1 F1500 E12.57409
G1 F1800 X70.703 Y43.529 E13.71189
G1 X71.103 Y43.529 E13.73184
G1 X70.863 Y43.849 E13.74288
G1 X48.256 Y73.991 E15.62263
G1 X47.897 Y74.471 E15.65254
G1 X47.897 Y73.872 E15.66824
G1 X47.897 Y73.871 E15.66829
G1 X47.897 Y43.529 E17.18206
G0 F6000 X47.497 Y43.129
G1 F1800 X71.503 Y43.129 E18.37972
G1 X71.903 Y43.129 E18.39968
G1 X71.663 Y43.449 E18.41072
G1 X47.856 Y75.191 E20.39025
G1 X47.497 Y75.671 E20.42016
G1 X47.497 Y75.072 E20.43586
G1 X47.497 Y75.071 E20.43591
G1 X47.497 Y43.129 E22.0295
G0 F6000 X47.097 Y42.729
;TYPE:WALL-OUTER
G1 F1800 X72.303 Y42.729 E23.28703
G1 X72.703 Y42.729 E23.30699
G1 X72.463 Y43.049 E23.31803
G1 X47.456 Y76.391 E25.39734
G1 X47.097 Y76.871 E25.42725
G1 X47.097 Y76.272 E25.44295
G1 X47.097 Y76.271 E25.443
G1 X47.097 Y42.729 E27.11642
G0 F6000 X47.567 Y43.199
G0 X48.234 Y43.709
;TYPE:SKIN
G1 F1800 X61.096 Y56.571 E28.0239
G0 X61.166 Y56.641
G0 F6000 X60.854 Y56.894
G1 F1800 X48.076 Y44.116 E28.92546
G0 X48.006 Y44.046
G0 F6000 X48.076 Y44.682
G1 F1800 X60.611 Y57.217 E29.80987
G0 X60.681 Y57.287
G0 F6000 X60.369 Y57.54
G1 F1800 X48.076 Y45.247 E30.67721
G0 X48.006 Y45.177
G0 F6000 X48.076 Y45.813
G1 F1800 X60.126 Y57.863 E31.5274
G0 X60.196 Y57.933
G0 F6000 X59.884 Y58.187
G1 F1800 X48.076 Y46.379 E32.36052
G0 X48.006 Y46.309
G0 F6000 X48.076 Y46.944
G1 F1800 X59.642 Y58.51 E33.17656
G0 X59.712 Y58.58
G0 F6000 X59.399 Y58.834
G1 F1800 X48.076 Y47.51 E33.97549
G0 X48.006 Y47.44
G0 F6000 X48.076 Y48.076
G1 F1800 X59.157 Y59.157 E34.75732
G0 X59.227 Y59.227
G0 F6000 X58.914 Y59.48
G1 F1800 X48.076 Y48.641 E35.52203
G0 X48.006 Y48.571
G0 F6000 X48.076 Y49.207
G1 F1800 X58.672 Y59.803 E36.26964
G0 X58.742 Y59.873
G0 F6000 X58.429 Y60.126
G1 F1800 X48.076 Y49.773 E37.0001
G0 X48.006 Y49.703
G0 F6000 X48.076 Y50.338
G1 F1800 X58.187 Y60.449 E37.71348
G0 X58.257 Y60.519
G0 F6000 X57.945 Y60.773
G1 F1800 X48.076 Y50.904 E38.4098
G0 X48.006 Y50.834
G0 F6000 X48.076 Y51.47
G1 F1800 X57.702 Y61.096 E39.08896
G0 X57.772 Y61.166
G0 F6000 X57.46 Y61.42
G1 F1800 X48.076 Y52.035 E39.75109
G0 X48.006 Y51.965
G0 F6000 X48.076 Y52.601
G1 F1800 X57.217 Y61.743 E40.39607
G0 X57.287 Y61.813
G0 F6000 X56.975 Y62.066
G1 F1800 X48.076 Y53.167 E41.02394
G0 X48.006 Y53.097
G0 F6000 X48.076 Y53.733
G1 F1800 X56.732 Y62.389 E41.63467
G0 X56.802 Y62.459
G0 F6000 X56.49 Y62.713
G1 F1800 X48.076 Y54.298 E42.22836
G0 X48.006 Y54.228
G0 F6000 X48.076 Y54.864
G1 F1800 X56.248 Y63.036 E42.80494
G0 X56.318 Y63.106
G0 F6000 X56.005 Y63.359
G1 F1800 X48.076 Y55.43 E43.36437
G0 X48.006 Y55.36
G0 F6000 X48.076 Y55.995
G1 F1800 X55.763 Y63.682 E43.90673
G0 X55.833 Y63.752
G0 F6000 X55.52 Y64.005
G1 F1800 X48.076 Y56.561 E44.43195
G0 X48.006 Y56.491
G0 F6000 X48.076 Y57.127
G1 F1800 X55.278 Y64.329 E44.94009
G0 X55.348 Y64.399
G0 F6000 X55.035 Y64.652
G1 F1800 X48.076 Y57.692 E45.43112
G0 X48.006 Y57.622
G0 F6000 X48.076 Y58.258
G1 F1800 X54.793 Y64.976 E45.90507
G0 X54.863 Y65.046
G0 F6000 X54.551 Y65.299
G1 F1800 X48.076 Y58.824 E46.36192
G0 X48.006 Y58.754
G0 F6000 X48.076 Y59.389
G1 F1800 X54.308 Y65.622 E46.80166
G0 X54.378 Y65.692
G0 F6000 X54.066 Y65.945
G1 F1800 X48.076 Y59.955 E47.22428
G0 X48.006 Y59.885
G0 F6000 X48.076 Y60.521
G1 F1800 X53.823 Y66.268 E47.62976
G0 X53.893 Y66.338
G0 F6000 X53.581 Y66.591
G1 F1800 X48.076 Y61.086 E48.01817
G0 X48.006 Y61.016
G0 F6000 X48.076 Y61.652
G1 F1800 X53.339 Y66.915 E48.3895
G0 X53.409 Y66.985
G0 F6000 X53.096 Y67.238
G1 F1800 X48.076 Y62.218 E48.74369
G0 X48.006 Y62.148
G0 F6000 X48.076 Y62.784
G1 F1800 X52.854 Y67.561 E49.08077
G0 X52.924 Y67.631
G0 F6000 X52.611 Y67.885
G1 F1800 X48.076 Y63.349 E49.40078
G0 X48.006 Y63.279
G0 F6000 X48.076 Y63.915
G1 F1800 X52.369 Y68.208 E49.70367
G0 X52.439 Y68.278
G0 F6000 X52.126 Y68.531
G1 F1800 X48.076 Y64.481 E49.98942
G0 X48.006 Y64.411
G0 F6000 X48.076 Y65.046
G1 F1800 X51.883 Y68.854 E50.25806
G0 X51.953 Y68.924
G0 F6000 X51.642 Y69.178
G1 F1800 X48.076 Y65.612 E50.50966
G0 X48.006 Y65.542
G0 F6000 X48.076 Y66.178
G1 F1800 X51.399 Y69.501 E50.74411
G0 X51.469 Y69.571
G0 F6000 X51.157 Y69.824
G1 F1800 X48.076 Y66.743 E50.9615
G0 X48.006 Y66.673
G0 F6000 X48.076 Y67.309
G1 F1800 X50.914 Y70.147 E51.16173
G0 X50.984 Y70.217
G0 F6000 X50.671 Y70.47
G1 F1800 X48.076 Y67.875 E51.34482
G0 X48.006 Y67.805
G0 F6000 X48.076 Y68.44
G1 F1800 X50.429 Y70.794 E51.51088
G0 X50.499 Y70.864
G0 F6000 X50.187 Y71.117
G1 F1800 X48.076 Y69.006 E51.65982
G0 X48.006 Y68.936
G0 F6000 X48.076 Y69.572
G1 F1800 X49.945 Y71.441 E51.79169
G0 X50.015 Y71.511
G0 F6000 X49.702 Y71.764
G1 F1800 X48.076 Y70.137 E51.90644
G0 X48.006 Y70.067
G0 F6000 X48.076 Y70.703
G1 F1800 X49.459 Y72.087 E52.00406
G0 X49.529 Y72.157
G0 F6000 X49.217 Y72.41
G1 F1800 X48.076 Y71.269 E52.08456
G0 X48.006 Y71.199
G0 F6000 X48.076 Y71.834
G1 F1800 X48.974 Y72.733 E52.14796
G0 X49.044 Y72.803
G0 F6000 X48.732 Y73.056
G1 F1800 X48.076 Y72.4 E52.19424
G0 X48.006 Y72.33
G0 F6000 X48.283 Y73.173
G1 F1800 X48.162 Y73.617 E52.21485
G0 F6000 X48.076 Y73.532
G0 X61.338 Y56.247
G1 F1800 X48.8 Y43.709 E53.09947
G0 X48.73 Y43.639
G0 F6000 X49.365 Y43.709
G1 F1800 X61.581 Y55.924 E53.96134
G0 X61.651 Y55.994
G0 F6000 X61.823 Y55.601
G1 F1800 X49.931 Y43.709 E54.80038
G0 X49.861 Y43.639
G0 F6000 X50.497 Y43.709
G1 F1800 X62.066 Y55.278 E55.61664
G0 X62.136 Y55.348
G0 F6000 X62.308 Y54.954
G1 F1800 X51.063 Y43.709 E56.41003
G0 X50.993 Y43.639
G0 F6000 X51.628 Y43.709
G1 F1800 X62.551 Y54.631 E57.18068
G0 X62.621 Y54.701
G0 F6000 X62.793 Y54.308
G1 F1800 X52.194 Y43.709 E57.92849
G0 X52.124 Y43.639
G0 F6000 X52.76 Y43.709
G1 F1800 X63.035 Y53.984 E58.65345
G0 X63.105 Y54.054
G0 F6000 X63.278 Y53.661
G1 F1800 X53.325 Y43.709 E59.35565
G0 X53.255 Y43.639
G0 F6000 X53.891 Y43.709
G1 F1800 X63.52 Y53.338 E60.03503
G0 X63.59 Y53.408
G0 F6000 X63.763 Y53.015
G1 F1800 X54.457 Y43.709 E60.69162
G0 X54.387 Y43.639
G0 F6000 X55.022 Y43.709
G1 F1800 X64.005 Y52.692 E61.32542
G0 X64.075 Y52.762
G0 F6000 X64.248 Y52.369
G1 F1800 X55.588 Y43.709 E61.93643
G0 X55.518 Y43.639
G0 F6000 X56.154 Y43.709
G1 F1800 X64.49 Y52.045 E62.52458
G0 X64.56 Y52.115
G0 F6000 X64.732 Y51.722
G1 F1800 X56.719 Y43.709 E63.08994
G0 X56.649 Y43.639
G0 F6000 X57.285 Y43.709
G1 F1800 X64.975 Y51.398 E63.63247
G0 X65.045 Y51.468
G0 F6000 X65.217 Y51.075
G1 F1800 X57.851 Y43.709 E64.15218
G0 X57.781 Y43.639
G0 F6000 X58.416 Y43.709
G1 F1800 X65.46 Y50.752 E64.64914
G0 X65.53 Y50.822
G0 F6000 X65.702 Y50.429
G1 F1800 X58.982 Y43.709 E65.12327
G0 X58.912 Y43.639
G0 F6000 X59.548 Y43.709
G1 F1800 X65.945 Y50.106 E65.57462
G0 X66.015 Y50.176
G0 F6000 X66.187 Y49.782
G1 F1800 X60.113 Y43.709 E66.00313
G0 X60.043 Y43.639
G0 F6000 X60.679 Y43.709
G1 F1800 X66.429 Y49.459 E66.40883
G0 X66.499 Y49.529
G0 F6000 X66.672 Y49.136
G1 F1800 X61.245 Y43.709 E66.79173
G0 X61.175 Y43.639
G0 F6000 X61.811 Y43.709
G1 F1800 X66.914 Y48.812 E67.15178
G0 X66.984 Y48.882
G0 F6000 X67.157 Y48.489
G1 F1800 X62.376 Y43.709 E67.48907
G0 X62.306 Y43.639
G0 F6000 X62.942 Y43.709
G1 F1800 X67.4 Y48.166 E67.80357
G0 X67.47 Y48.236
G0 F6000 X67.641 Y47.842
G1 F1800 X63.508 Y43.709 E68.09517
G0 X63.438 Y43.639
G0 F6000 X64.073 Y43.709
G1 F1800 X67.884 Y47.519 E68.36402
G0 X67.954 Y47.589
G0 F6000 X68.126 Y47.196
G1 F1800 X64.639 Y43.709 E68.61005
G0 X64.569 Y43.639
G0 F6000 X65.205 Y43.709
G1 F1800 X68.369 Y46.873 E68.83329
G0 X68.439 Y46.943
G0 F6000 X68.611 Y46.55
G1 F1800 X65.77 Y43.709 E69.03374
G0 X65.7 Y43.639
G0 F6000 X66.336 Y43.709
G1 F1800 X68.854 Y46.227 E69.21139
G0 X68.924 Y46.297
G0 F6000 X69.097 Y45.903
G1 F1800 X66.902 Y43.709 E69.36623
G0 X66.832 Y43.639
G0 F6000 X67.467 Y43.709
G1 F1800 X69.338 Y45.58 E69.49824
G0 X69.408 Y45.65
G0 F6000 X69.581 Y45.256
G1 F1800 X68.033 Y43.709 E69.60742
G0 X67.963 Y43.639
G0 F6000 X68.599 Y43.709
G1 F1800 X69.823 Y44.933 E69.69378
G0 X69.893 Y45.003
G0 F6000 X70.066 Y44.61
G1 F1800 X69.164 Y43.709 E69.75739
G0 X69.094 Y43.639
G0 F6000 X69.73 Y43.709
G1 F1800 X70.309 Y44.287 E69.7982
G0 X70.379 Y44.357
G0 F6000 X70.551 Y43.964
G1 F1800 X70.296 Y43.709 E69.8162
;TIME_ELAPSED:58.049728
;LAYER:1
M106 S255
G0 F6000 X70.703 Y43.529 Z.475
;TYPE:WALL-INNER
G1 F1800 X71.103 Y43.529 E69.82784
G1 X70.863 Y43.849 E69.83428
G1 X48.256 Y73.991 E70.9308
G1 X47.897 Y74.471 E70.94824
G1 X47.897 Y73.872 E70.9574
G1 X47.897 Y73.871 E70.95743
G1 X47.897 Y43.529 E71.84046
G1 X70.703 Y43.529 E72.50418
G0 F6000 X71.503 Y43.229
G0 X71.503 Y43.129
G1 F1800 X71.903 Y43.129 E72.51582
G1 X71.663 Y43.449 E72.52226
G1 X47.856 Y75.191 E73.67699
G1 X47.497 Y75.671 E73.69443
G1 X47.497 Y75.072 E73.70359
G1 X47.497 Y75.071 E73.70362
G1 X47.497 Y43.129 E74.63321
G1 X71.503 Y43.129 E75.33185
G0 F6000 X71.503 Y43.229
G0 X71.814 Y43.173
G0 X72.303 Y42.729
;TYPE:WALL-OUTER
G1 F1350 X72.703 Y42.729 E75.34349
G1 X72.463 Y43.049 E75.34993
G1 X47.456 Y76.391 E76.56287
G1 X47.097 Y76.871 E76.58031
G1 X47.097 Y76.272 E76.58947
G1 X47.097 Y76.271 E76.5895
G1 X47.097 Y42.729 E77.56566
G1 X72.303 Y42.729 E78.29922
G0 F6000 X71.814 Y43.173
G0 X70.56 Y43.708
;TYPE:SKIN
G1 F1350 X48.076 Y66.191 E79.22458
G0 X48.006 Y66.261
G0 F6000 X48.076 Y65.625
G1 F1350 X69.994 Y43.708 E80.12665
G0 X70.064 Y43.638
G0 F6000 X69.428 Y43.708
G1 F1350 X48.076 Y65.06 E81.00544
G0 X48.006 Y65.13
G0 F6000 X48.076 Y64.494
G1 F1350 X68.863 Y43.708 E81.86095
G0 X68.933 Y43.638
G0 F6000 X68.297 Y43.708
G1 F1350 X48.076 Y63.928 E82.69317
G0 X48.006 Y63.998
G0 F6000 X48.076 Y63.363
G1 F1350 X67.731 Y43.708 E83.50212
G0 X67.801 Y43.638
G0 F6000 X67.165 Y43.708
G1 F1350 X48.076 Y62.797 E84.28777
G0 X48.006 Y62.867
G0 F6000 X48.076 Y62.231
G1 F1350 X66.6 Y43.708 E85.05015
G0 X66.67 Y43.638
G0 F6000 X66.034 Y43.708
G1 F1350 X48.076 Y61.666 E85.78925
G0 X48.006 Y61.736
G0 F6000 X48.076 Y61.1
G1 F1350 X65.468 Y43.708 E86.50506
G0 X65.538 Y43.638
G0 F6000 X64.903 Y43.708
G1 F1350 X48.076 Y60.534 E87.1976
G0 X48.006 Y60.604
G0 F6000 X48.076 Y59.969
G1 F1350 X64.337 Y43.708 E87.86685
G0 X64.407 Y43.638
G0 F6000 X63.771 Y43.708
G1 F1350 X48.076 Y59.403 E88.51282
G0 X48.006 Y59.473
G0 F6000 X48.076 Y58.837
G1 F1350 X63.206 Y43.708 E89.13551
G0 X63.276 Y43.638
G0 F6000 X62.64 Y43.708
G1 F1350 X48.076 Y58.271 E89.7349
G0 X48.006 Y58.341
G0 F6000 X48.076 Y57.706
G1 F1350 X62.074 Y43.708 E90.31102
G0 X62.144 Y43.638
G0 F6000 X61.509 Y43.708
G1 F1350 X48.076 Y57.14 E90.86387
G0 X48.006 Y57.21
G0 F6000 X48.076 Y56.574
G1 F1350 X60.943 Y43.708 E91.39342
G0 X61.013 Y43.638
G0 F6000 X60.377 Y43.708
G1 F1350 X48.076 Y56.009 E91.8997
G0 X48.006 Y56.079
G0 F6000 X48.076 Y55.443
G1 F1350 X59.812 Y43.708 E92.3827
G0 X59.882 Y43.638
G0 F6000 X59.246 Y43.708
G1 F1350 X48.076 Y54.877 E92.8424
G0 X48.006 Y54.947
G0 F6000 X48.076 Y54.312
G1 F1350 X58.68 Y43.708 E93.27884
G0 X58.75 Y43.638
G0 F6000 X58.114 Y43.708
G1 F1350 X48.076 Y53.746 E93.69197
G0 X48.006 Y53.816
G0 F6000 X48.076 Y53.18
G1 F1350 X57.549 Y43.708 E94.08184
G0 X57.619 Y43.638
G0 F6000 X56.983 Y43.708
G1 F1350 X48.076 Y52.615 E94.44842
G0 X48.006 Y52.685
G0 F6000 X48.076 Y52.049
G1 F1350 X56.417 Y43.708 E94.79172
G0 X56.487 Y43.638
G0 F6000 X55.852 Y43.708
G1 F1350 X48.076 Y51.483 E95.11174
G0 X48.006 Y51.553
G0 F6000 X48.076 Y50.918
G1 F1350 X55.286 Y43.708 E95.40848
G0 X55.356 Y43.638
G0 F6000 X54.72 Y43.708
G1 F1350 X48.076 Y50.352 E95.68193
G0 X48.006 Y50.422
G0 F6000 X48.076 Y49.786
G1 F1350 X54.155 Y43.708 E95.9321
G0 X54.225 Y43.638
G0 F6000 X53.589 Y43.708
G1 F1350 X48.076 Y49.22 E96.15898
G0 X48.006 Y49.29
G0 F6000 X48.076 Y48.655
G1 F1350 X53.023 Y43.708 E96.36259
G0 X53.093 Y43.638
G0 F6000 X52.458 Y43.708
G1 F1350 X48.076 Y48.089 E96.54292
G0 X48.006 Y48.159
G0 F6000 X48.076 Y47.523
G1 F1350 X51.892 Y43.708 E96.69996
G0 X51.962 Y43.638
G0 F6000 X51.326 Y43.708
G1 F1350 X48.076 Y46.958 E96.83372
G0 X48.006 Y47.028
G0 F6000 X48.076 Y46.392
G1 F1350 X50.761 Y43.708 E96.9442
G0 X50.831 Y43.638
G0 F6000 X50.195 Y43.708
G1 F1350 X48.076 Y45.826 E97.0314
G0 X48.006 Y45.896
G0 F6000 X48.076 Y45.261
G1 F1350 X49.629 Y43.708 E97.09531
G0 X49.699 Y43.638
G0 F6000 X49.064 Y43.708
G1 F1350 X48.076 Y44.695 E97.13596
G0 X48.006 Y44.765
G0 F6000 X48.076 Y44.129
G1 F1350 X48.498 Y43.708 E97.1533
G0 F6000 X62.805 Y54.29
G1 F1350 X48.076 Y69.019 E97.75951
G0 X48.006 Y69.089
G0 F6000 X48.076 Y68.454
G1 F1350 X64.502 Y52.028 E98.43556
G0 X64.572 Y51.958
G0 F6000 X66.199 Y49.766
G1 F1350 X48.076 Y67.888 E99.18143
G0 X48.006 Y67.958
G0 F6000 X48.076 Y67.322
G1 F1350 X67.895 Y47.504 E99.99711
G0 X67.965 Y47.434
G0 F6000 X69.592 Y45.241
G1 F1350 X48.076 Y66.757 E100.88265
G0 X48.006 Y66.827
G0 F6000 X48.076 Y69.585
G1 F1350 X61.108 Y56.553 E101.41901
G0 X61.178 Y56.483
G0 F6000 X59.412 Y58.815
G1 F1350 X48.076 Y70.151 E101.88557
G0 X48.006 Y70.221
G0 F6000 X48.076 Y70.717
G1 F1350 X57.716 Y61.077 E102.28233
G0 X57.786 Y61.007
G0 F6000 X56.019 Y63.34
G1 F1350 X48.076 Y71.282 E102.60922
G0 X48.006 Y71.352
